(GCode generated by: DrawingBotV3 Premium 1.6.20 Stable)
(Time: 2025-01-30 at 09:23:56 CET)
G21 (programming in millimeters, mm)
G90 (programming in absolute positioning)
G1 F3000 (set speed)
G1 Z8


G0 X35.949 Y137.558
G1 Z0

G1 X199.212 Y137.558
G1 X199.212 Y28.705
G1 X35.949 Y28.705
G1 X35.949 Y137.558
G1 X35.949 Y137.558
G1 Z8



G0 X38.169 Y139.743
G1 Z0

G1 X37.996 Y140.590
G1 X37.526 Y141.285
G1 X36.831 Y141.755
G1 X35.984 Y141.928
G1 X35.137 Y141.755
G1 X34.443 Y141.285
G1 X33.972 Y140.590
G1 X33.799 Y139.743
G1 X33.972 Y138.896
G1 X34.443 Y138.201
G1 X35.137 Y137.731
G1 X35.984 Y137.558
G1 X36.831 Y137.711
G1 X37.526 Y138.175
G1 X37.996 Y138.876
G1 X38.169 Y139.743
G1 Z8

G0 X44.688 Y139.743
G1 Z0

G1 X44.515 Y140.590
G1 X44.045 Y141.285
G1 X43.350 Y141.755
G1 X42.503 Y141.928
G1 X41.657 Y141.755
G1 X40.962 Y141.285
G1 X40.492 Y140.590
G1 X40.319 Y139.743
G1 X40.492 Y138.896
G1 X40.962 Y138.201
G1 X41.657 Y137.731
G1 X42.503 Y137.558
G1 X43.350 Y137.711
G1 X44.045 Y138.175
G1 X44.515 Y138.876
G1 X44.688 Y139.743
G1 Z8

G0 X51.208 Y139.743
G1 Z0

G1 X51.035 Y140.590
G1 X50.564 Y141.285
G1 X49.870 Y141.755
G1 X49.023 Y141.928
G1 X48.176 Y141.755
G1 X47.481 Y141.285
G1 X47.011 Y140.590
G1 X46.838 Y139.743
G1 X47.011 Y138.896
G1 X47.481 Y138.201
G1 X48.176 Y137.731
G1 X49.023 Y137.558
G1 X49.870 Y137.711
G1 X50.564 Y138.175
G1 X51.035 Y138.876
G1 X51.208 Y139.743
G1 Z8

G0 X57.762 Y139.743
G1 Z0

G1 X57.589 Y140.590
G1 X57.119 Y141.285
G1 X56.424 Y141.755
G1 X55.577 Y141.928
G1 X54.730 Y141.755
G1 X54.035 Y141.285
G1 X53.565 Y140.590
G1 X53.392 Y139.743
G1 X53.565 Y138.896
G1 X54.035 Y138.201
G1 X54.730 Y137.731
G1 X55.577 Y137.558
G1 X56.424 Y137.711
G1 X57.119 Y138.175
G1 X57.589 Y138.876
G1 X57.762 Y139.743
G1 Z8

G0 X64.281 Y139.743
G1 Z0

G1 X64.108 Y140.590
G1 X63.638 Y141.285
G1 X62.943 Y141.755
G1 X62.096 Y141.928
G1 X61.250 Y141.755
G1 X60.555 Y141.285
G1 X60.084 Y140.590
G1 X59.912 Y139.743
G1 X60.084 Y138.896
G1 X60.555 Y138.201
G1 X61.250 Y137.731
G1 X62.096 Y137.558
G1 X62.943 Y137.711
G1 X63.638 Y138.175
G1 X64.108 Y138.876
G1 X64.281 Y139.743
G1 Z8

G0 X70.800 Y139.743
G1 Z0

G1 X70.628 Y140.590
G1 X70.157 Y141.285
G1 X69.462 Y141.755
G1 X68.616 Y141.928
G1 X67.769 Y141.755
G1 X67.074 Y141.285
G1 X66.604 Y140.590
G1 X66.431 Y139.743
G1 X66.604 Y138.896
G1 X67.074 Y138.201
G1 X67.769 Y137.731
G1 X68.616 Y137.558
G1 X69.462 Y137.711
G1 X70.157 Y138.175
G1 X70.628 Y138.876
G1 X70.800 Y139.743
G1 Z8

G0 X77.355 Y139.743
G1 Z0

G1 X77.182 Y140.590
G1 X76.712 Y141.285
G1 X76.017 Y141.755
G1 X75.170 Y141.928
G1 X74.323 Y141.755
G1 X73.628 Y141.285
G1 X73.158 Y140.590
G1 X72.985 Y139.743
G1 X73.158 Y138.896
G1 X73.628 Y138.201
G1 X74.323 Y137.731
G1 X75.170 Y137.558
G1 X76.017 Y137.711
G1 X76.712 Y138.175
G1 X77.182 Y138.876
G1 X77.355 Y139.743
G1 Z8

G0 X83.874 Y139.743
G1 Z0

G1 X83.701 Y140.590
G1 X83.231 Y141.285
G1 X82.536 Y141.755
G1 X81.689 Y141.928
G1 X80.842 Y141.755
G1 X80.148 Y141.285
G1 X79.677 Y140.590
G1 X79.505 Y139.743
G1 X79.677 Y138.896
G1 X80.148 Y138.201
G1 X80.842 Y137.731
G1 X81.689 Y137.558
G1 X82.536 Y137.711
G1 X83.231 Y138.175
G1 X83.701 Y138.876
G1 X83.874 Y139.743
G1 Z8

G0 X90.393 Y139.743
G1 Z0

G1 X90.221 Y140.590
G1 X89.750 Y141.285
G1 X89.055 Y141.755
G1 X88.209 Y141.928
G1 X87.362 Y141.755
G1 X86.667 Y141.285
G1 X86.197 Y140.590
G1 X86.024 Y139.743
G1 X86.197 Y138.896
G1 X86.667 Y138.201
G1 X87.362 Y137.731
G1 X88.209 Y137.558
G1 X89.055 Y137.711
G1 X89.750 Y138.175
G1 X90.221 Y138.876
G1 X90.393 Y139.743
G1 Z8

G0 X96.948 Y139.743
G1 Z0

G1 X96.775 Y140.590
G1 X96.305 Y141.285
G1 X95.610 Y141.755
G1 X94.763 Y141.928
G1 X93.916 Y141.755
G1 X93.221 Y141.285
G1 X92.751 Y140.590
G1 X92.578 Y139.743
G1 X92.751 Y138.896
G1 X93.221 Y138.201
G1 X93.916 Y137.731
G1 X94.763 Y137.558
G1 X95.610 Y137.726
G1 X96.305 Y138.188
G1 X96.775 Y138.881
G1 X96.948 Y139.743
G1 Z8

G0 X103.467 Y139.743
G1 Z0

G1 X103.294 Y140.590
G1 X102.824 Y141.285
G1 X102.129 Y141.755
G1 X101.282 Y141.928
G1 X100.435 Y141.755
G1 X99.741 Y141.285
G1 X99.270 Y140.590
G1 X99.097 Y139.743
G1 X99.270 Y138.896
G1 X99.741 Y138.201
G1 X100.435 Y137.731
G1 X101.282 Y137.558
G1 X102.129 Y137.726
G1 X102.824 Y138.188
G1 X103.294 Y138.881
G1 X103.467 Y139.743
G1 Z8

G0 X109.986 Y139.743
G1 Z0

G1 X109.813 Y140.590
G1 X109.343 Y141.285
G1 X108.648 Y141.755
G1 X107.801 Y141.928
G1 X106.955 Y141.755
G1 X106.260 Y141.285
G1 X105.790 Y140.590
G1 X105.617 Y139.743
G1 X105.790 Y138.896
G1 X106.260 Y138.201
G1 X106.955 Y137.731
G1 X107.801 Y137.558
G1 X108.648 Y137.711
G1 X109.343 Y138.175
G1 X109.813 Y138.876
G1 X109.986 Y139.743
G1 Z8

G0 X116.541 Y139.743
G1 Z0

G1 X116.368 Y140.590
G1 X115.898 Y141.285
G1 X115.203 Y141.755
G1 X114.356 Y141.928
G1 X113.509 Y141.755
G1 X112.814 Y141.285
G1 X112.344 Y140.590
G1 X112.171 Y139.743
G1 X112.344 Y138.896
G1 X112.814 Y138.201
G1 X113.509 Y137.731
G1 X114.356 Y137.558
G1 X115.203 Y137.726
G1 X115.898 Y138.188
G1 X116.368 Y138.881
G1 X116.541 Y139.743
G1 Z8

G0 X123.060 Y139.743
G1 Z0

G1 X122.887 Y140.590
G1 X122.417 Y141.285
G1 X121.722 Y141.755
G1 X120.875 Y141.928
G1 X120.028 Y141.755
G1 X119.333 Y141.285
G1 X118.863 Y140.590
G1 X118.690 Y139.743
G1 X118.863 Y138.896
G1 X119.333 Y138.201
G1 X120.028 Y137.731
G1 X120.875 Y137.558
G1 X121.722 Y137.726
G1 X122.417 Y138.188
G1 X122.887 Y138.881
G1 X123.060 Y139.743
G1 Z8

G0 X129.579 Y139.743
G1 Z0

G1 X129.406 Y140.590
G1 X128.936 Y141.285
G1 X128.241 Y141.755
G1 X127.394 Y141.928
G1 X126.548 Y141.755
G1 X125.853 Y141.285
G1 X125.382 Y140.590
G1 X125.210 Y139.743
G1 X125.382 Y138.896
G1 X125.853 Y138.201
G1 X126.548 Y137.731
G1 X127.394 Y137.558
G1 X128.241 Y137.726
G1 X128.936 Y138.188
G1 X129.406 Y138.881
G1 X129.579 Y139.743
G1 Z8

G0 X136.134 Y139.743
G1 Z0

G1 X135.961 Y140.590
G1 X135.491 Y141.285
G1 X134.796 Y141.755
G1 X133.949 Y141.928
G1 X133.102 Y141.755
G1 X132.407 Y141.285
G1 X131.937 Y140.590
G1 X131.764 Y139.743
G1 X131.937 Y138.896
G1 X132.407 Y138.201
G1 X133.102 Y137.731
G1 X133.949 Y137.558
G1 X134.796 Y137.711
G1 X135.491 Y138.175
G1 X135.961 Y138.876
G1 X136.134 Y139.743
G1 Z8

G0 X142.653 Y139.743
G1 Z0

G1 X142.480 Y140.590
G1 X142.010 Y141.285
G1 X141.315 Y141.755
G1 X140.468 Y141.928
G1 X139.621 Y141.755
G1 X138.926 Y141.285
G1 X138.456 Y140.590
G1 X138.283 Y139.743
G1 X138.456 Y138.896
G1 X138.926 Y138.201
G1 X139.621 Y137.731
G1 X140.468 Y137.558
G1 X141.315 Y137.726
G1 X142.010 Y138.188
G1 X142.480 Y138.881
G1 X142.653 Y139.743
G1 Z8

G0 X149.172 Y139.743
G1 Z0

G1 X148.999 Y140.590
G1 X148.529 Y141.285
G1 X147.834 Y141.755
G1 X146.987 Y141.928
G1 X146.141 Y141.755
G1 X145.446 Y141.285
G1 X144.975 Y140.590
G1 X144.803 Y139.743
G1 X144.975 Y138.896
G1 X145.446 Y138.201
G1 X146.141 Y137.731
G1 X146.987 Y137.558
G1 X147.834 Y137.726
G1 X148.529 Y138.188
G1 X148.999 Y138.881
G1 X149.172 Y139.743
G1 Z8

G0 X155.727 Y139.743
G1 Z0

G1 X155.554 Y140.590
G1 X155.084 Y141.285
G1 X154.389 Y141.755
G1 X153.542 Y141.928
G1 X152.695 Y141.755
G1 X152.000 Y141.285
G1 X151.530 Y140.590
G1 X151.357 Y139.743
G1 X151.530 Y138.896
G1 X152.000 Y138.201
G1 X152.695 Y137.731
G1 X153.542 Y137.558
G1 X154.389 Y137.711
G1 X155.084 Y138.175
G1 X155.554 Y138.876
G1 X155.727 Y139.743
G1 Z8

G0 X162.246 Y139.743
G1 Z0

G1 X162.073 Y140.590
G1 X161.603 Y141.285
G1 X160.908 Y141.755
G1 X160.061 Y141.928
G1 X159.214 Y141.755
G1 X158.519 Y141.285
G1 X158.049 Y140.590
G1 X157.876 Y139.743
G1 X158.049 Y138.896
G1 X158.519 Y138.201
G1 X159.214 Y137.731
G1 X160.061 Y137.558
G1 X160.908 Y137.726
G1 X161.603 Y138.188
G1 X162.073 Y138.881
G1 X162.246 Y139.743
G1 Z8

G0 X168.765 Y139.743
G1 Z0

G1 X168.592 Y140.590
G1 X168.122 Y141.285
G1 X167.427 Y141.755
G1 X166.580 Y141.928
G1 X165.733 Y141.755
G1 X165.039 Y141.285
G1 X164.568 Y140.590
G1 X164.395 Y139.743
G1 X164.568 Y138.896
G1 X165.039 Y138.201
G1 X165.733 Y137.731
G1 X166.580 Y137.558
G1 X167.427 Y137.726
G1 X168.122 Y138.188
G1 X168.592 Y138.881
G1 X168.765 Y139.743
G1 Z8

G0 X175.320 Y139.743
G1 Z0

G1 X175.147 Y140.590
G1 X174.676 Y141.285
G1 X173.982 Y141.755
G1 X173.135 Y141.928
G1 X172.288 Y141.755
G1 X171.593 Y141.285
G1 X171.123 Y140.590
G1 X170.950 Y139.743
G1 X171.123 Y138.896
G1 X171.593 Y138.201
G1 X172.288 Y137.731
G1 X173.135 Y137.558
G1 X173.982 Y137.711
G1 X174.676 Y138.175
G1 X175.147 Y138.876
G1 X175.320 Y139.743
G1 Z8

G0 X181.839 Y139.743
G1 Z0

G1 X181.666 Y140.590
G1 X181.196 Y141.285
G1 X180.501 Y141.755
G1 X179.654 Y141.928
G1 X178.807 Y141.755
G1 X178.112 Y141.285
G1 X177.642 Y140.590
G1 X177.469 Y139.743
G1 X177.642 Y138.896
G1 X178.112 Y138.201
G1 X178.807 Y137.731
G1 X179.654 Y137.558
G1 X180.501 Y137.726
G1 X181.196 Y138.188
G1 X181.666 Y138.881
G1 X181.839 Y139.743
G1 Z8

G0 X188.358 Y139.743
G1 Z0

G1 X188.185 Y140.590
G1 X187.715 Y141.285
G1 X187.020 Y141.755
G1 X186.173 Y141.928
G1 X185.326 Y141.755
G1 X184.632 Y141.285
G1 X184.161 Y140.590
G1 X183.988 Y139.743
G1 X184.161 Y138.896
G1 X184.632 Y138.201
G1 X185.326 Y137.731
G1 X186.173 Y137.558
G1 X187.020 Y137.726
G1 X187.715 Y138.188
G1 X188.185 Y138.881
G1 X188.358 Y139.743
G1 Z8

G0 X194.913 Y139.743
G1 Z0

G1 X194.740 Y140.590
G1 X194.269 Y141.285
G1 X193.575 Y141.755
G1 X192.728 Y141.928
G1 X191.881 Y141.755
G1 X191.186 Y141.285
G1 X190.716 Y140.590
G1 X190.543 Y139.743
G1 X190.716 Y138.896
G1 X191.186 Y138.201
G1 X191.881 Y137.731
G1 X192.728 Y137.558
G1 X193.575 Y137.726
G1 X194.269 Y138.188
G1 X194.740 Y138.881
G1 X194.913 Y139.743
G1 Z8

G0 X201.432 Y139.743
G1 Z0

G1 X201.259 Y140.590
G1 X200.789 Y141.285
G1 X200.094 Y141.755
G1 X199.247 Y141.928
G1 X198.400 Y141.755
G1 X197.705 Y141.285
G1 X197.235 Y140.590
G1 X197.062 Y139.743
G1 X197.235 Y138.896
G1 X197.705 Y138.201
G1 X198.400 Y137.731
G1 X199.247 Y137.558
G1 X200.094 Y137.726
G1 X200.789 Y138.188
G1 X201.259 Y138.881
G1 X201.432 Y139.743
G1 Z8

G0 X201.326 Y133.189
G1 Z0

G1 X201.159 Y132.368
G1 X200.705 Y131.695
G1 X200.033 Y131.241
G1 X199.212 Y131.074
G1 X198.391 Y131.241
G1 X197.718 Y131.695
G1 X197.264 Y132.368
G1 X197.097 Y133.189
G1 X197.264 Y134.010
G1 X197.718 Y134.682
G1 X198.391 Y135.136
G1 X199.212 Y135.303
G1 X200.033 Y135.136
G1 X200.705 Y134.682
G1 X201.159 Y134.010
G1 X201.326 Y133.189
G1 Z8

G0 X194.807 Y133.189
G1 Z0

G1 X194.640 Y132.373
G1 X194.186 Y131.709
G1 X193.513 Y131.256
G1 X192.692 Y131.074
G1 X191.871 Y131.241
G1 X191.199 Y131.695
G1 X190.745 Y132.368
G1 X190.578 Y133.189
G1 X190.745 Y134.010
G1 X191.199 Y134.682
G1 X191.871 Y135.136
G1 X192.692 Y135.303
G1 X193.513 Y135.136
G1 X194.186 Y134.682
G1 X194.640 Y134.010
G1 X194.807 Y133.189
G1 Z8

G0 X188.288 Y133.189
G1 Z0

G1 X188.121 Y132.373
G1 X187.666 Y131.709
G1 X186.994 Y131.256
G1 X186.173 Y131.074
G1 X185.352 Y131.241
G1 X184.680 Y131.695
G1 X184.226 Y132.368
G1 X184.059 Y133.189
G1 X184.226 Y134.010
G1 X184.680 Y134.682
G1 X185.352 Y135.136
G1 X186.173 Y135.303
G1 X186.994 Y135.136
G1 X187.666 Y134.682
G1 X188.121 Y134.010
G1 X188.288 Y133.189
G1 Z8

G0 X181.733 Y133.189
G1 Z0

G1 X181.571 Y132.373
G1 X181.125 Y131.709
G1 X180.455 Y131.256
G1 X179.619 Y131.074
G1 X178.798 Y131.241
G1 X178.126 Y131.695
G1 X177.671 Y132.368
G1 X177.504 Y133.189
G1 X177.671 Y134.010
G1 X178.126 Y134.682
G1 X178.798 Y135.136
G1 X179.619 Y135.303
G1 X180.440 Y135.136
G1 X181.112 Y134.682
G1 X181.566 Y134.010
G1 X181.733 Y133.189
G1 Z8

G0 X175.214 Y133.189
G1 Z0

G1 X175.047 Y132.368
G1 X174.593 Y131.695
G1 X173.920 Y131.241
G1 X173.100 Y131.074
G1 X172.279 Y131.241
G1 X171.606 Y131.695
G1 X171.152 Y132.368
G1 X170.985 Y133.189
G1 X171.152 Y134.010
G1 X171.606 Y134.682
G1 X172.279 Y135.136
G1 X173.100 Y135.303
G1 X173.920 Y135.136
G1 X174.593 Y134.682
G1 X175.047 Y134.010
G1 X175.214 Y133.189
G1 Z8

G0 X168.695 Y133.189
G1 Z0

G1 X168.528 Y132.373
G1 X168.074 Y131.709
G1 X167.401 Y131.256
G1 X166.580 Y131.074
G1 X165.759 Y131.241
G1 X165.087 Y131.695
G1 X164.633 Y132.368
G1 X164.466 Y133.189
G1 X164.633 Y134.010
G1 X165.087 Y134.682
G1 X165.759 Y135.136
G1 X166.580 Y135.303
G1 X167.401 Y135.136
G1 X168.074 Y134.682
G1 X168.528 Y134.010
G1 X168.695 Y133.189
G1 Z8

G0 X162.140 Y133.189
G1 Z0

G1 X161.978 Y132.373
G1 X161.532 Y131.709
G1 X160.862 Y131.256
G1 X160.026 Y131.074
G1 X159.205 Y131.241
G1 X158.533 Y131.695
G1 X158.078 Y132.368
G1 X157.911 Y133.189
G1 X158.078 Y134.010
G1 X158.533 Y134.682
G1 X159.205 Y135.136
G1 X160.026 Y135.303
G1 X160.847 Y135.136
G1 X161.519 Y134.682
G1 X161.973 Y134.010
G1 X162.140 Y133.189
G1 Z8

G0 X155.621 Y133.189
G1 Z0

G1 X155.454 Y132.373
G1 X155.000 Y131.709
G1 X154.328 Y131.256
G1 X153.507 Y131.074
G1 X152.686 Y131.241
G1 X152.013 Y131.695
G1 X151.559 Y132.368
G1 X151.392 Y133.189
G1 X151.559 Y134.010
G1 X152.013 Y134.682
G1 X152.686 Y135.136
G1 X153.507 Y135.303
G1 X154.328 Y135.136
G1 X155.000 Y134.682
G1 X155.454 Y134.010
G1 X155.621 Y133.189
G1 Z8

G0 X149.102 Y133.189
G1 Z0

G1 X148.935 Y132.368
G1 X148.481 Y131.695
G1 X147.808 Y131.241
G1 X146.987 Y131.074
G1 X146.166 Y131.241
G1 X145.494 Y131.695
G1 X145.040 Y132.368
G1 X144.873 Y133.189
G1 X145.040 Y134.010
G1 X145.494 Y134.682
G1 X146.166 Y135.136
G1 X146.987 Y135.303
G1 X147.808 Y135.136
G1 X148.481 Y134.682
G1 X148.935 Y134.010
G1 X149.102 Y133.189
G1 Z8

G0 X142.547 Y133.189
G1 Z0

G1 X142.385 Y132.373
G1 X141.939 Y131.709
G1 X141.269 Y131.256
G1 X140.433 Y131.074
G1 X139.612 Y131.241
G1 X138.940 Y131.695
G1 X138.485 Y132.368
G1 X138.319 Y133.189
G1 X138.485 Y134.010
G1 X138.940 Y134.682
G1 X139.612 Y135.136
G1 X140.433 Y135.303
G1 X141.254 Y135.136
G1 X141.926 Y134.682
G1 X142.380 Y134.010
G1 X142.547 Y133.189
G1 Z8

G0 X136.028 Y133.189
G1 Z0

G1 X135.861 Y132.368
G1 X135.407 Y131.695
G1 X134.735 Y131.241
G1 X133.914 Y131.074
G1 X133.093 Y131.241
G1 X132.420 Y131.695
G1 X131.966 Y132.368
G1 X131.799 Y133.189
G1 X131.966 Y134.010
G1 X132.420 Y134.682
G1 X133.093 Y135.136
G1 X133.914 Y135.303
G1 X134.735 Y135.136
G1 X135.407 Y134.682
G1 X135.861 Y134.010
G1 X136.028 Y133.189
G1 Z8

G0 X129.509 Y133.189
G1 Z0

G1 X129.342 Y132.368
G1 X128.888 Y131.695
G1 X128.215 Y131.241
G1 X127.394 Y131.074
G1 X126.573 Y131.241
G1 X125.901 Y131.695
G1 X125.447 Y132.368
G1 X125.280 Y133.189
G1 X125.447 Y134.010
G1 X125.901 Y134.682
G1 X126.573 Y135.136
G1 X127.394 Y135.303
G1 X128.215 Y135.136
G1 X128.888 Y134.682
G1 X129.342 Y134.010
G1 X129.509 Y133.189
G1 Z8

G0 X122.954 Y133.189
G1 Z0

G1 X122.787 Y132.368
G1 X122.333 Y131.695
G1 X121.661 Y131.241
G1 X120.840 Y131.074
G1 X120.019 Y131.241
G1 X119.347 Y131.695
G1 X118.892 Y132.368
G1 X118.726 Y133.189
G1 X118.892 Y134.010
G1 X119.347 Y134.682
G1 X120.019 Y135.136
G1 X120.840 Y135.303
G1 X121.661 Y135.136
G1 X122.333 Y134.682
G1 X122.787 Y134.010
G1 X122.954 Y133.189
G1 Z8

G0 X116.435 Y133.189
G1 Z0

G1 X116.268 Y132.368
G1 X115.814 Y131.695
G1 X115.142 Y131.241
G1 X114.321 Y131.074
G1 X113.500 Y131.241
G1 X112.827 Y131.695
G1 X112.373 Y132.368
G1 X112.206 Y133.189
G1 X112.373 Y134.010
G1 X112.827 Y134.682
G1 X113.500 Y135.136
G1 X114.321 Y135.303
G1 X115.142 Y135.136
G1 X115.814 Y134.682
G1 X116.268 Y134.010
G1 X116.435 Y133.189
G1 Z8

G0 X109.916 Y133.189
G1 Z0

G1 X109.749 Y132.373
G1 X109.295 Y131.709
G1 X108.622 Y131.256
G1 X107.801 Y131.074
G1 X106.981 Y131.241
G1 X106.308 Y131.695
G1 X105.854 Y132.368
G1 X105.687 Y133.189
G1 X105.854 Y134.010
G1 X106.308 Y134.682
G1 X106.981 Y135.136
G1 X107.801 Y135.303
G1 X108.622 Y135.136
G1 X109.295 Y134.682
G1 X109.749 Y134.010
G1 X109.916 Y133.189
G1 Z8

G0 X103.361 Y133.189
G1 Z0

G1 X103.195 Y132.368
G1 X102.740 Y131.695
G1 X102.068 Y131.241
G1 X101.247 Y131.074
G1 X100.426 Y131.241
G1 X99.754 Y131.695
G1 X99.300 Y132.368
G1 X99.133 Y133.189
G1 X99.300 Y134.010
G1 X99.754 Y134.682
G1 X100.426 Y135.136
G1 X101.247 Y135.303
G1 X102.068 Y135.136
G1 X102.740 Y134.682
G1 X103.195 Y134.010
G1 X103.361 Y133.189
G1 Z8

G0 X96.842 Y133.189
G1 Z0

G1 X96.675 Y132.368
G1 X96.221 Y131.695
G1 X95.549 Y131.241
G1 X94.728 Y131.074
G1 X93.907 Y131.241
G1 X93.235 Y131.695
G1 X92.780 Y132.368
G1 X92.613 Y133.189
G1 X92.780 Y134.010
G1 X93.235 Y134.682
G1 X93.907 Y135.136
G1 X94.728 Y135.303
G1 X95.549 Y135.136
G1 X96.221 Y134.682
G1 X96.675 Y134.010
G1 X96.842 Y133.189
G1 Z8

G0 X90.323 Y133.189
G1 Z0

G1 X90.156 Y132.373
G1 X89.702 Y131.709
G1 X89.030 Y131.256
G1 X88.209 Y131.074
G1 X87.388 Y131.241
G1 X86.715 Y131.695
G1 X86.261 Y132.368
G1 X86.094 Y133.189
G1 X86.261 Y134.010
G1 X86.715 Y134.682
G1 X87.388 Y135.136
G1 X88.209 Y135.303
G1 X89.030 Y135.136
G1 X89.702 Y134.682
G1 X90.156 Y134.010
G1 X90.323 Y133.189
G1 Z8

G0 X83.768 Y133.189
G1 Z0

G1 X83.602 Y132.368
G1 X83.147 Y131.695
G1 X82.475 Y131.241
G1 X81.654 Y131.074
G1 X80.833 Y131.241
G1 X80.161 Y131.695
G1 X79.707 Y132.368
G1 X79.540 Y133.189
G1 X79.707 Y134.010
G1 X80.161 Y134.682
G1 X80.833 Y135.136
G1 X81.654 Y135.303
G1 X82.475 Y135.136
G1 X83.147 Y134.682
G1 X83.602 Y134.010
G1 X83.768 Y133.189
G1 Z8

G0 X77.249 Y133.189
G1 Z0

G1 X77.082 Y132.373
G1 X76.628 Y131.709
G1 X75.956 Y131.256
G1 X75.135 Y131.074
G1 X74.314 Y131.241
G1 X73.642 Y131.695
G1 X73.187 Y132.368
G1 X73.021 Y133.189
G1 X73.187 Y134.010
G1 X73.642 Y134.682
G1 X74.314 Y135.136
G1 X75.135 Y135.303
G1 X75.956 Y135.136
G1 X76.628 Y134.682
G1 X77.082 Y134.010
G1 X77.249 Y133.189
G1 Z8

G0 X70.730 Y133.189
G1 Z0

G1 X70.563 Y132.368
G1 X70.109 Y131.695
G1 X69.437 Y131.241
G1 X68.616 Y131.074
G1 X67.795 Y131.241
G1 X67.122 Y131.695
G1 X66.668 Y132.368
G1 X66.501 Y133.189
G1 X66.668 Y134.010
G1 X67.122 Y134.682
G1 X67.795 Y135.136
G1 X68.616 Y135.303
G1 X69.437 Y135.136
G1 X70.109 Y134.682
G1 X70.563 Y134.010
G1 X70.730 Y133.189
G1 Z8

G0 X64.176 Y133.189
G1 Z0

G1 X64.009 Y132.368
G1 X63.554 Y131.695
G1 X62.882 Y131.241
G1 X62.061 Y131.074
G1 X61.240 Y131.241
G1 X60.568 Y131.695
G1 X60.114 Y132.368
G1 X59.947 Y133.189
G1 X60.114 Y134.010
G1 X60.568 Y134.682
G1 X61.240 Y135.136
G1 X62.061 Y135.303
G1 X62.882 Y135.136
G1 X63.554 Y134.682
G1 X64.009 Y134.010
G1 X64.176 Y133.189
G1 Z8

G0 X57.656 Y133.189
G1 Z0

G1 X57.489 Y132.368
G1 X57.035 Y131.695
G1 X56.363 Y131.241
G1 X55.542 Y131.074
G1 X54.721 Y131.241
G1 X54.049 Y131.695
G1 X53.594 Y132.368
G1 X53.428 Y133.189
G1 X53.594 Y134.010
G1 X54.049 Y134.682
G1 X54.721 Y135.136
G1 X55.542 Y135.303
G1 X56.363 Y135.136
G1 X57.035 Y134.682
G1 X57.489 Y134.010
G1 X57.656 Y133.189
G1 Z8

G0 X51.137 Y133.189
G1 Z0

G1 X50.970 Y132.373
G1 X50.516 Y131.709
G1 X49.844 Y131.256
G1 X49.023 Y131.074
G1 X48.202 Y131.241
G1 X47.529 Y131.695
G1 X47.075 Y132.368
G1 X46.908 Y133.189
G1 X47.075 Y134.010
G1 X47.529 Y134.682
G1 X48.202 Y135.136
G1 X49.023 Y135.303
G1 X49.844 Y135.136
G1 X50.516 Y134.682
G1 X50.970 Y134.010
G1 X51.137 Y133.189
G1 Z8

G0 X44.583 Y133.189
G1 Z0

G1 X44.421 Y132.373
G1 X43.975 Y131.709
G1 X43.304 Y131.256
G1 X42.468 Y131.074
G1 X41.647 Y131.241
G1 X40.975 Y131.695
G1 X40.521 Y132.368
G1 X40.354 Y133.189
G1 X40.521 Y134.010
G1 X40.975 Y134.682
G1 X41.647 Y135.136
G1 X42.468 Y135.303
G1 X43.289 Y135.136
G1 X43.961 Y134.682
G1 X44.416 Y134.010
G1 X44.583 Y133.189
G1 Z8

G0 X38.063 Y133.189
G1 Z0

G1 X37.897 Y132.368
G1 X37.442 Y131.695
G1 X36.770 Y131.241
G1 X35.949 Y131.074
G1 X35.128 Y131.241
G1 X34.456 Y131.695
G1 X34.001 Y132.368
G1 X33.835 Y133.189
G1 X34.001 Y134.010
G1 X34.456 Y134.682
G1 X35.128 Y135.136
G1 X35.949 Y135.303
G1 X36.770 Y135.136
G1 X37.442 Y134.682
G1 X37.897 Y134.010
G1 X38.063 Y133.189
G1 Z8

G0 X37.993 Y126.669
G1 Z0

G1 X37.833 Y127.459
G1 X37.398 Y128.097
G1 X36.759 Y128.523
G1 X35.984 Y128.678
G1 X35.195 Y128.518
G1 X34.557 Y128.083
G1 X34.131 Y127.444
G1 X33.976 Y126.669
G1 X34.136 Y125.880
G1 X34.570 Y125.242
G1 X35.210 Y124.816
G1 X35.984 Y124.661
G1 X36.759 Y124.816
G1 X37.398 Y125.242
G1 X37.833 Y125.880
G1 X37.993 Y126.669
G1 Z8

G0 X44.512 Y126.669
G1 Z0

G1 X44.352 Y127.459
G1 X43.917 Y128.097
G1 X43.278 Y128.523
G1 X42.503 Y128.678
G1 X41.714 Y128.518
G1 X41.076 Y128.083
G1 X40.650 Y127.444
G1 X40.495 Y126.669
G1 X40.655 Y125.880
G1 X41.090 Y125.242
G1 X41.729 Y124.816
G1 X42.503 Y124.661
G1 X43.278 Y124.816
G1 X43.917 Y125.242
G1 X44.352 Y125.880
G1 X44.512 Y126.669
G1 Z8

G0 X51.031 Y126.669
G1 Z0

G1 X50.871 Y127.459
G1 X50.437 Y128.097
G1 X49.797 Y128.523
G1 X49.023 Y128.678
G1 X48.233 Y128.518
G1 X47.596 Y128.083
G1 X47.169 Y127.444
G1 X47.014 Y126.669
G1 X47.174 Y125.880
G1 X47.609 Y125.242
G1 X48.248 Y124.816
G1 X49.023 Y124.661
G1 X49.812 Y124.816
G1 X50.450 Y125.242
G1 X50.876 Y125.880
G1 X51.031 Y126.669
G1 Z8

G0 X57.586 Y126.669
G1 Z0

G1 X57.426 Y127.459
G1 X56.991 Y128.097
G1 X56.352 Y128.523
G1 X55.577 Y128.678
G1 X54.788 Y128.518
G1 X54.150 Y128.083
G1 X53.724 Y127.444
G1 X53.569 Y126.669
G1 X53.729 Y125.880
G1 X54.163 Y125.242
G1 X54.802 Y124.816
G1 X55.577 Y124.661
G1 X56.352 Y124.816
G1 X56.991 Y125.242
G1 X57.426 Y125.880
G1 X57.586 Y126.669
G1 Z8

G0 X64.105 Y126.669
G1 Z0

G1 X63.945 Y127.459
G1 X63.510 Y128.097
G1 X62.871 Y128.523
G1 X62.096 Y128.678
G1 X61.322 Y128.518
G1 X60.682 Y128.083
G1 X60.248 Y127.444
G1 X60.088 Y126.669
G1 X60.248 Y125.880
G1 X60.682 Y125.242
G1 X61.322 Y124.816
G1 X62.096 Y124.661
G1 X62.871 Y124.816
G1 X63.510 Y125.242
G1 X63.945 Y125.880
G1 X64.105 Y126.669
G1 Z8

G0 X70.624 Y126.669
G1 Z0

G1 X70.464 Y127.459
G1 X70.030 Y128.097
G1 X69.390 Y128.523
G1 X68.616 Y128.678
G1 X67.826 Y128.518
G1 X67.188 Y128.083
G1 X66.762 Y127.444
G1 X66.607 Y126.669
G1 X66.767 Y125.880
G1 X67.202 Y125.242
G1 X67.841 Y124.816
G1 X68.616 Y124.661
G1 X69.405 Y124.816
G1 X70.043 Y125.242
G1 X70.469 Y125.880
G1 X70.624 Y126.669
G1 Z8

G0 X77.179 Y126.669
G1 Z0

G1 X77.019 Y127.459
G1 X76.584 Y128.097
G1 X75.945 Y128.523
G1 X75.170 Y128.678
G1 X74.381 Y128.518
G1 X73.743 Y128.083
G1 X73.317 Y127.444
G1 X73.161 Y126.669
G1 X73.322 Y125.880
G1 X73.756 Y125.242
G1 X74.395 Y124.816
G1 X75.170 Y124.661
G1 X75.945 Y124.816
G1 X76.584 Y125.242
G1 X77.019 Y125.880
G1 X77.179 Y126.669
G1 Z8

G0 X83.698 Y126.669
G1 Z0

G1 X83.538 Y127.459
G1 X83.103 Y128.097
G1 X82.464 Y128.523
G1 X81.689 Y128.678
G1 X80.900 Y128.518
G1 X80.262 Y128.083
G1 X79.836 Y127.444
G1 X79.681 Y126.669
G1 X79.841 Y125.880
G1 X80.275 Y125.242
G1 X80.915 Y124.816
G1 X81.689 Y124.661
G1 X82.464 Y124.816
G1 X83.103 Y125.242
G1 X83.538 Y125.880
G1 X83.698 Y126.669
G1 Z8

G0 X90.217 Y126.669
G1 Z0

G1 X90.057 Y127.459
G1 X89.623 Y128.097
G1 X88.983 Y128.523
G1 X88.209 Y128.678
G1 X87.419 Y128.518
G1 X86.781 Y128.083
G1 X86.355 Y127.444
G1 X86.200 Y126.669
G1 X86.360 Y125.880
G1 X86.795 Y125.242
G1 X87.434 Y124.816
G1 X88.209 Y124.661
G1 X88.998 Y124.816
G1 X89.636 Y125.242
G1 X90.062 Y125.880
G1 X90.217 Y126.669
G1 Z8

G0 X96.772 Y126.669
G1 Z0

G1 X96.611 Y127.459
G1 X96.177 Y128.097
G1 X95.538 Y128.523
G1 X94.763 Y128.678
G1 X93.988 Y128.518
G1 X93.349 Y128.083
G1 X92.915 Y127.444
G1 X92.754 Y126.669
G1 X92.915 Y125.880
G1 X93.349 Y125.242
G1 X93.988 Y124.816
G1 X94.763 Y124.661
G1 X95.538 Y124.816
G1 X96.177 Y125.242
G1 X96.611 Y125.880
G1 X96.772 Y126.669
G1 Z8

G0 X103.291 Y126.669
G1 Z0

G1 X103.131 Y127.459
G1 X102.696 Y128.097
G1 X102.057 Y128.523
G1 X101.282 Y128.678
G1 X100.493 Y128.518
G1 X99.855 Y128.083
G1 X99.429 Y127.444
G1 X99.274 Y126.669
G1 X99.434 Y125.880
G1 X99.868 Y125.242
G1 X100.508 Y124.816
G1 X101.282 Y124.661
G1 X102.057 Y124.816
G1 X102.696 Y125.242
G1 X103.131 Y125.880
G1 X103.291 Y126.669
G1 Z8

G0 X109.810 Y126.669
G1 Z0

G1 X109.650 Y127.459
G1 X109.215 Y128.097
G1 X108.576 Y128.523
G1 X107.801 Y128.678
G1 X107.027 Y128.518
G1 X106.388 Y128.083
G1 X105.953 Y127.444
G1 X105.793 Y126.669
G1 X105.953 Y125.880
G1 X106.388 Y125.242
G1 X107.027 Y124.816
G1 X107.801 Y124.661
G1 X108.576 Y124.816
G1 X109.215 Y125.242
G1 X109.650 Y125.880
G1 X109.810 Y126.669
G1 Z8

G0 X116.365 Y126.669
G1 Z0

G1 X116.204 Y127.459
G1 X115.770 Y128.097
G1 X115.131 Y128.523
G1 X114.356 Y128.678
G1 X113.581 Y128.518
G1 X112.942 Y128.083
G1 X112.508 Y127.444
G1 X112.347 Y126.669
G1 X112.508 Y125.880
G1 X112.942 Y125.242
G1 X113.581 Y124.816
G1 X114.356 Y124.661
G1 X115.131 Y124.816
G1 X115.770 Y125.242
G1 X116.204 Y125.880
G1 X116.365 Y126.669
G1 Z8

G0 X122.884 Y126.669
G1 Z0

G1 X122.724 Y127.459
G1 X122.289 Y128.097
G1 X121.650 Y128.523
G1 X120.875 Y128.678
G1 X120.086 Y128.518
G1 X119.448 Y128.083
G1 X119.022 Y127.444
G1 X118.867 Y126.669
G1 X119.027 Y125.880
G1 X119.461 Y125.242
G1 X120.100 Y124.816
G1 X120.875 Y124.661
G1 X121.650 Y124.816
G1 X122.289 Y125.242
G1 X122.724 Y125.880
G1 X122.884 Y126.669
G1 Z8

G0 X129.403 Y126.669
G1 Z0

G1 X129.243 Y127.459
G1 X128.808 Y128.097
G1 X128.169 Y128.523
G1 X127.394 Y128.678
G1 X126.620 Y128.518
G1 X125.980 Y128.083
G1 X125.546 Y127.444
G1 X125.386 Y126.669
G1 X125.546 Y125.880
G1 X125.980 Y125.242
G1 X126.620 Y124.816
G1 X127.394 Y124.661
G1 X128.169 Y124.816
G1 X128.808 Y125.242
G1 X129.243 Y125.880
G1 X129.403 Y126.669
G1 Z8

G0 X135.958 Y126.669
G1 Z0

G1 X135.797 Y127.459
G1 X135.363 Y128.097
G1 X134.724 Y128.523
G1 X133.949 Y128.678
G1 X133.174 Y128.518
G1 X132.535 Y128.083
G1 X132.100 Y127.444
G1 X131.940 Y126.669
G1 X132.100 Y125.880
G1 X132.535 Y125.242
G1 X133.174 Y124.816
G1 X133.949 Y124.661
G1 X134.724 Y124.816
G1 X135.363 Y125.242
G1 X135.797 Y125.880
G1 X135.958 Y126.669
G1 Z8

G0 X142.477 Y126.669
G1 Z0

G1 X142.317 Y127.459
G1 X141.882 Y128.097
G1 X141.243 Y128.523
G1 X140.468 Y128.678
G1 X139.693 Y128.518
G1 X139.054 Y128.083
G1 X138.620 Y127.444
G1 X138.460 Y126.669
G1 X138.620 Y125.880
G1 X139.054 Y125.242
G1 X139.693 Y124.816
G1 X140.468 Y124.661
G1 X141.243 Y124.816
G1 X141.882 Y125.242
G1 X142.317 Y125.880
G1 X142.477 Y126.669
G1 Z8

G0 X148.996 Y126.669
G1 Z0

G1 X148.836 Y127.459
G1 X148.401 Y128.097
G1 X147.762 Y128.523
G1 X146.987 Y128.678
G1 X146.213 Y128.518
G1 X145.573 Y128.083
G1 X145.139 Y127.444
G1 X144.979 Y126.669
G1 X145.139 Y125.880
G1 X145.573 Y125.242
G1 X146.213 Y124.816
G1 X146.987 Y124.661
G1 X147.762 Y124.816
G1 X148.401 Y125.242
G1 X148.836 Y125.880
G1 X148.996 Y126.669
G1 Z8

G0 X155.550 Y126.669
G1 Z0

G1 X155.390 Y127.459
G1 X154.956 Y128.097
G1 X154.317 Y128.523
G1 X153.542 Y128.678
G1 X152.752 Y128.518
G1 X152.115 Y128.083
G1 X151.688 Y127.444
G1 X151.533 Y126.669
G1 X151.693 Y125.880
G1 X152.128 Y125.242
G1 X152.767 Y124.816
G1 X153.542 Y124.661
G1 X154.317 Y124.816
G1 X154.956 Y125.242
G1 X155.390 Y125.880
G1 X155.550 Y126.669
G1 Z8

G0 X162.070 Y126.669
G1 Z0

G1 X161.909 Y127.459
G1 X161.475 Y128.097
G1 X160.836 Y128.523
G1 X160.061 Y128.678
G1 X159.286 Y128.518
G1 X158.647 Y128.083
G1 X158.213 Y127.444
G1 X158.052 Y126.669
G1 X158.213 Y125.880
G1 X158.647 Y125.242
G1 X159.286 Y124.816
G1 X160.061 Y124.661
G1 X160.836 Y124.816
G1 X161.475 Y125.242
G1 X161.909 Y125.880
G1 X162.070 Y126.669
G1 Z8

G0 X168.589 Y126.669
G1 Z0

G1 X168.429 Y127.459
G1 X167.994 Y128.097
G1 X167.355 Y128.523
G1 X166.580 Y128.678
G1 X165.806 Y128.518
G1 X165.166 Y128.083
G1 X164.732 Y127.444
G1 X164.572 Y126.669
G1 X164.732 Y125.880
G1 X165.166 Y125.242
G1 X165.806 Y124.816
G1 X166.580 Y124.661
G1 X167.355 Y124.816
G1 X167.994 Y125.242
G1 X168.429 Y125.880
G1 X168.589 Y126.669
G1 Z8

G0 X175.143 Y126.669
G1 Z0

G1 X174.983 Y127.459
G1 X174.549 Y128.097
G1 X173.909 Y128.523
G1 X173.135 Y128.678
G1 X172.360 Y128.518
G1 X171.721 Y128.083
G1 X171.286 Y127.444
G1 X171.126 Y126.669
G1 X171.286 Y125.880
G1 X171.721 Y125.242
G1 X172.360 Y124.816
G1 X173.135 Y124.661
G1 X173.909 Y124.816
G1 X174.549 Y125.242
G1 X174.983 Y125.880
G1 X175.143 Y126.669
G1 Z8

G0 X181.663 Y126.669
G1 Z0

G1 X181.502 Y127.459
G1 X181.068 Y128.097
G1 X180.429 Y128.523
G1 X179.654 Y128.678
G1 X178.879 Y128.518
G1 X178.240 Y128.083
G1 X177.806 Y127.444
G1 X177.645 Y126.669
G1 X177.806 Y125.880
G1 X178.240 Y125.242
G1 X178.879 Y124.816
G1 X179.654 Y124.661
G1 X180.429 Y124.816
G1 X181.068 Y125.242
G1 X181.502 Y125.880
G1 X181.663 Y126.669
G1 Z8

G0 X188.182 Y126.669
G1 Z0

G1 X188.022 Y127.459
G1 X187.587 Y128.097
G1 X186.948 Y128.523
G1 X186.173 Y128.678
G1 X185.398 Y128.518
G1 X184.759 Y128.083
G1 X184.325 Y127.444
G1 X184.165 Y126.669
G1 X184.325 Y125.880
G1 X184.759 Y125.242
G1 X185.398 Y124.816
G1 X186.173 Y124.661
G1 X186.948 Y124.816
G1 X187.587 Y125.242
G1 X188.022 Y125.880
G1 X188.182 Y126.669
G1 Z8

G0 X194.736 Y126.669
G1 Z0

G1 X194.576 Y127.459
G1 X194.142 Y128.097
G1 X193.502 Y128.523
G1 X192.728 Y128.678
G1 X191.953 Y128.518
G1 X191.314 Y128.083
G1 X190.879 Y127.444
G1 X190.719 Y126.669
G1 X190.879 Y125.880
G1 X191.314 Y125.242
G1 X191.953 Y124.816
G1 X192.728 Y124.661
G1 X193.502 Y124.816
G1 X194.142 Y125.242
G1 X194.576 Y125.880
G1 X194.736 Y126.669
G1 Z8

G0 X201.256 Y126.669
G1 Z0

G1 X201.095 Y127.459
G1 X200.661 Y128.097
G1 X200.022 Y128.523
G1 X199.247 Y128.678
G1 X198.472 Y128.518
G1 X197.833 Y128.083
G1 X197.398 Y127.444
G1 X197.238 Y126.669
G1 X197.398 Y125.880
G1 X197.833 Y125.242
G1 X198.472 Y124.816
G1 X199.247 Y124.661
G1 X200.022 Y124.816
G1 X200.661 Y125.242
G1 X201.095 Y125.880
G1 X201.256 Y126.669
G1 Z8

G0 X201.185 Y120.150
G1 Z0

G1 X201.031 Y119.386
G1 X200.612 Y118.771
G1 X199.996 Y118.361
G1 X199.247 Y118.212
G1 X198.483 Y118.361
G1 X197.868 Y118.771
G1 X197.458 Y119.386
G1 X197.309 Y120.150
G1 X197.463 Y120.914
G1 X197.881 Y121.529
G1 X198.498 Y121.939
G1 X199.247 Y122.088
G1 X200.011 Y121.934
G1 X200.626 Y121.516
G1 X201.036 Y120.899
G1 X201.185 Y120.150
G1 Z8

G0 X194.631 Y120.150
G1 Z0

G1 X194.481 Y119.386
G1 X194.071 Y118.771
G1 X193.456 Y118.361
G1 X192.692 Y118.212
G1 X191.929 Y118.361
G1 X191.314 Y118.771
G1 X190.904 Y119.386
G1 X190.754 Y120.150
G1 X190.908 Y120.914
G1 X191.327 Y121.529
G1 X191.944 Y121.939
G1 X192.692 Y122.088
G1 X193.456 Y121.934
G1 X194.071 Y121.516
G1 X194.481 Y120.899
G1 X194.631 Y120.150
G1 Z8

G0 X188.111 Y120.150
G1 Z0

G1 X187.962 Y119.386
G1 X187.552 Y118.771
G1 X186.937 Y118.361
G1 X186.173 Y118.212
G1 X185.410 Y118.361
G1 X184.794 Y118.771
G1 X184.384 Y119.386
G1 X184.235 Y120.150
G1 X184.384 Y120.914
G1 X184.794 Y121.529
G1 X185.410 Y121.939
G1 X186.173 Y122.088
G1 X186.937 Y121.934
G1 X187.552 Y121.516
G1 X187.962 Y120.899
G1 X188.111 Y120.150
G1 Z8

G0 X181.592 Y120.150
G1 Z0

G1 X181.443 Y119.386
G1 X181.033 Y118.771
G1 X180.418 Y118.361
G1 X179.654 Y118.212
G1 X178.890 Y118.361
G1 X178.275 Y118.771
G1 X177.865 Y119.386
G1 X177.716 Y120.150
G1 X177.865 Y120.914
G1 X178.275 Y121.529
G1 X178.890 Y121.939
G1 X179.654 Y122.088
G1 X180.418 Y121.934
G1 X181.033 Y121.516
G1 X181.443 Y120.899
G1 X181.592 Y120.150
G1 Z8

G0 X175.038 Y120.150
G1 Z0

G1 X174.888 Y119.386
G1 X174.478 Y118.771
G1 X173.863 Y118.361
G1 X173.100 Y118.212
G1 X172.336 Y118.361
G1 X171.721 Y118.771
G1 X171.311 Y119.386
G1 X171.161 Y120.150
G1 X171.316 Y120.914
G1 X171.734 Y121.529
G1 X172.351 Y121.939
G1 X173.100 Y122.088
G1 X173.863 Y121.934
G1 X174.478 Y121.516
G1 X174.888 Y120.899
G1 X175.038 Y120.150
G1 Z8

G0 X168.518 Y120.150
G1 Z0

G1 X168.369 Y119.386
G1 X167.959 Y118.771
G1 X167.344 Y118.361
G1 X166.580 Y118.212
G1 X165.817 Y118.361
G1 X165.202 Y118.771
G1 X164.791 Y119.386
G1 X164.642 Y120.150
G1 X164.791 Y120.914
G1 X165.202 Y121.529
G1 X165.817 Y121.939
G1 X166.580 Y122.088
G1 X167.344 Y121.934
G1 X167.959 Y121.516
G1 X168.369 Y120.899
G1 X168.518 Y120.150
G1 Z8

G0 X161.964 Y120.150
G1 Z0

G1 X161.815 Y119.386
G1 X161.405 Y118.771
G1 X160.790 Y118.361
G1 X160.026 Y118.212
G1 X159.262 Y118.361
G1 X158.647 Y118.771
G1 X158.237 Y119.386
G1 X158.088 Y120.150
G1 X158.242 Y120.914
G1 X158.660 Y121.529
G1 X159.277 Y121.939
G1 X160.026 Y122.088
G1 X160.790 Y121.934
G1 X161.405 Y121.516
G1 X161.815 Y120.899
G1 X161.964 Y120.150
G1 Z8

G0 X155.445 Y120.150
G1 Z0

G1 X155.296 Y119.386
G1 X154.885 Y118.771
G1 X154.270 Y118.361
G1 X153.507 Y118.212
G1 X152.743 Y118.361
G1 X152.128 Y118.771
G1 X151.718 Y119.386
G1 X151.568 Y120.150
G1 X151.723 Y120.914
G1 X152.141 Y121.529
G1 X152.758 Y121.939
G1 X153.507 Y122.088
G1 X154.270 Y121.934
G1 X154.885 Y121.516
G1 X155.296 Y120.899
G1 X155.445 Y120.150
G1 Z8

G0 X148.926 Y120.150
G1 Z0

G1 X148.776 Y119.386
G1 X148.366 Y118.771
G1 X147.751 Y118.361
G1 X146.987 Y118.212
G1 X146.224 Y118.361
G1 X145.609 Y118.771
G1 X145.198 Y119.386
G1 X145.049 Y120.150
G1 X145.198 Y120.914
G1 X145.609 Y121.529
G1 X146.224 Y121.939
G1 X146.987 Y122.088
G1 X147.751 Y121.934
G1 X148.366 Y121.516
G1 X148.776 Y120.899
G1 X148.926 Y120.150
G1 Z8

G0 X142.371 Y120.150
G1 Z0

G1 X142.222 Y119.386
G1 X141.812 Y118.771
G1 X141.197 Y118.361
G1 X140.433 Y118.212
G1 X139.669 Y118.361
G1 X139.054 Y118.771
G1 X138.644 Y119.386
G1 X138.495 Y120.150
G1 X138.649 Y120.914
G1 X139.067 Y121.529
G1 X139.684 Y121.939
G1 X140.433 Y122.088
G1 X141.197 Y121.934
G1 X141.812 Y121.516
G1 X142.222 Y120.899
G1 X142.371 Y120.150
G1 Z8

G0 X135.852 Y120.150
G1 Z0

G1 X135.703 Y119.386
G1 X135.292 Y118.771
G1 X134.677 Y118.361
G1 X133.914 Y118.212
G1 X133.150 Y118.361
G1 X132.535 Y118.771
G1 X132.125 Y119.386
G1 X131.976 Y120.150
G1 X132.130 Y120.914
G1 X132.548 Y121.529
G1 X133.165 Y121.939
G1 X133.914 Y122.088
G1 X134.677 Y121.934
G1 X135.292 Y121.516
G1 X135.703 Y120.899
G1 X135.852 Y120.150
G1 Z8

G0 X129.333 Y120.150
G1 Z0

G1 X129.183 Y119.386
G1 X128.773 Y118.771
G1 X128.158 Y118.361
G1 X127.394 Y118.212
G1 X126.631 Y118.361
G1 X126.016 Y118.771
G1 X125.605 Y119.386
G1 X125.456 Y120.150
G1 X125.605 Y120.914
G1 X126.016 Y121.529
G1 X126.631 Y121.939
G1 X127.394 Y122.088
G1 X128.158 Y121.934
G1 X128.773 Y121.516
G1 X129.183 Y120.899
G1 X129.333 Y120.150
G1 Z8

G0 X122.778 Y120.150
G1 Z0

G1 X122.629 Y119.386
G1 X122.219 Y118.771
G1 X121.604 Y118.361
G1 X120.840 Y118.212
G1 X120.076 Y118.361
G1 X119.461 Y118.771
G1 X119.051 Y119.386
G1 X118.902 Y120.150
G1 X119.051 Y120.914
G1 X119.461 Y121.529
G1 X120.076 Y121.939
G1 X120.840 Y122.088
G1 X121.604 Y121.934
G1 X122.219 Y121.516
G1 X122.629 Y120.899
G1 X122.778 Y120.150
G1 Z8

G0 X116.259 Y120.150
G1 Z0

G1 X116.110 Y119.386
G1 X115.699 Y118.771
G1 X115.084 Y118.361
G1 X114.321 Y118.212
G1 X113.557 Y118.361
G1 X112.942 Y118.771
G1 X112.532 Y119.386
G1 X112.383 Y120.150
G1 X112.532 Y120.914
G1 X112.942 Y121.529
G1 X113.557 Y121.939
G1 X114.321 Y122.088
G1 X115.084 Y121.934
G1 X115.699 Y121.516
G1 X116.110 Y120.899
G1 X116.259 Y120.150
G1 Z8

G0 X109.740 Y120.150
G1 Z0

G1 X109.585 Y119.386
G1 X109.167 Y118.771
G1 X108.550 Y118.361
G1 X107.801 Y118.212
G1 X107.038 Y118.361
G1 X106.423 Y118.771
G1 X106.013 Y119.386
G1 X105.863 Y120.150
G1 X106.018 Y120.914
G1 X106.436 Y121.529
G1 X107.053 Y121.939
G1 X107.801 Y122.088
G1 X108.565 Y121.934
G1 X109.180 Y121.516
G1 X109.590 Y120.899
G1 X109.740 Y120.150
G1 Z8

G0 X103.185 Y120.150
G1 Z0

G1 X103.036 Y119.386
G1 X102.626 Y118.771
G1 X102.011 Y118.361
G1 X101.247 Y118.212
G1 X100.483 Y118.361
G1 X99.868 Y118.771
G1 X99.458 Y119.386
G1 X99.309 Y120.150
G1 X99.458 Y120.914
G1 X99.868 Y121.529
G1 X100.483 Y121.939
G1 X101.247 Y122.088
G1 X102.011 Y121.934
G1 X102.626 Y121.516
G1 X103.036 Y120.899
G1 X103.185 Y120.150
G1 Z8

G0 X96.666 Y120.150
G1 Z0

G1 X96.517 Y119.386
G1 X96.107 Y118.771
G1 X95.491 Y118.361
G1 X94.728 Y118.212
G1 X93.964 Y118.361
G1 X93.349 Y118.771
G1 X92.939 Y119.386
G1 X92.790 Y120.150
G1 X92.944 Y120.914
G1 X93.362 Y121.529
G1 X93.979 Y121.939
G1 X94.728 Y122.088
G1 X95.491 Y121.934
G1 X96.107 Y121.516
G1 X96.517 Y120.899
G1 X96.666 Y120.150
G1 Z8

G0 X90.147 Y120.150
G1 Z0

G1 X89.993 Y119.386
G1 X89.574 Y118.771
G1 X88.957 Y118.361
G1 X88.209 Y118.212
G1 X87.445 Y118.361
G1 X86.830 Y118.771
G1 X86.420 Y119.386
G1 X86.270 Y120.150
G1 X86.425 Y120.914
G1 X86.843 Y121.529
G1 X87.460 Y121.939
G1 X88.209 Y122.088
G1 X88.972 Y121.934
G1 X89.587 Y121.516
G1 X89.998 Y120.899
G1 X90.147 Y120.150
G1 Z8

G0 X83.592 Y120.150
G1 Z0

G1 X83.443 Y119.386
G1 X83.033 Y118.771
G1 X82.418 Y118.361
G1 X81.654 Y118.212
G1 X80.890 Y118.361
G1 X80.275 Y118.771
G1 X79.865 Y119.386
G1 X79.716 Y120.150
G1 X79.870 Y120.914
G1 X80.289 Y121.529
G1 X80.905 Y121.939
G1 X81.654 Y122.088
G1 X82.418 Y121.934
G1 X83.033 Y121.516
G1 X83.443 Y120.899
G1 X83.592 Y120.150
G1 Z8

G0 X77.073 Y120.150
G1 Z0

G1 X76.924 Y119.386
G1 X76.514 Y118.771
G1 X75.899 Y118.361
G1 X75.135 Y118.212
G1 X74.371 Y118.361
G1 X73.756 Y118.771
G1 X73.346 Y119.386
G1 X73.197 Y120.150
G1 X73.351 Y120.914
G1 X73.769 Y121.529
G1 X74.386 Y121.939
G1 X75.135 Y122.088
G1 X75.899 Y121.934
G1 X76.514 Y121.516
G1 X76.924 Y120.899
G1 X77.073 Y120.150
G1 Z8

G0 X70.554 Y120.150
G1 Z0

G1 X70.400 Y119.386
G1 X69.981 Y118.771
G1 X69.364 Y118.361
G1 X68.616 Y118.212
G1 X67.852 Y118.361
G1 X67.237 Y118.771
G1 X66.827 Y119.386
G1 X66.677 Y120.150
G1 X66.832 Y120.914
G1 X67.250 Y121.529
G1 X67.867 Y121.939
G1 X68.616 Y122.088
G1 X69.379 Y121.934
G1 X69.994 Y121.516
G1 X70.405 Y120.899
G1 X70.554 Y120.150
G1 Z8

G0 X63.999 Y120.150
G1 Z0

G1 X63.850 Y119.386
G1 X63.440 Y118.771
G1 X62.825 Y118.361
G1 X62.061 Y118.212
G1 X61.297 Y118.361
G1 X60.682 Y118.771
G1 X60.272 Y119.386
G1 X60.123 Y120.150
G1 X60.277 Y120.914
G1 X60.696 Y121.529
G1 X61.312 Y121.939
G1 X62.061 Y122.088
G1 X62.825 Y121.934
G1 X63.440 Y121.516
G1 X63.850 Y120.899
G1 X63.999 Y120.150
G1 Z8

G0 X57.480 Y120.150
G1 Z0

G1 X57.331 Y119.386
G1 X56.921 Y118.771
G1 X56.306 Y118.361
G1 X55.542 Y118.212
G1 X54.778 Y118.361
G1 X54.163 Y118.771
G1 X53.753 Y119.386
G1 X53.604 Y120.150
G1 X53.753 Y120.914
G1 X54.163 Y121.529
G1 X54.778 Y121.939
G1 X55.542 Y122.088
G1 X56.306 Y121.934
G1 X56.921 Y121.516
G1 X57.331 Y120.899
G1 X57.480 Y120.150
G1 Z8

G0 X50.961 Y120.150
G1 Z0

G1 X50.807 Y119.386
G1 X50.388 Y118.771
G1 X49.772 Y118.361
G1 X49.023 Y118.212
G1 X48.259 Y118.361
G1 X47.644 Y118.771
G1 X47.234 Y119.386
G1 X47.085 Y120.150
G1 X47.239 Y120.914
G1 X47.657 Y121.529
G1 X48.274 Y121.939
G1 X49.023 Y122.088
G1 X49.786 Y121.934
G1 X50.401 Y121.516
G1 X50.812 Y120.899
G1 X50.961 Y120.150
G1 Z8

G0 X44.406 Y120.150
G1 Z0

G1 X44.257 Y119.386
G1 X43.847 Y118.771
G1 X43.232 Y118.361
G1 X42.468 Y118.212
G1 X41.705 Y118.361
G1 X41.090 Y118.771
G1 X40.679 Y119.386
G1 X40.530 Y120.150
G1 X40.684 Y120.914
G1 X41.103 Y121.529
G1 X41.719 Y121.939
G1 X42.468 Y122.088
G1 X43.232 Y121.934
G1 X43.847 Y121.516
G1 X44.257 Y120.899
G1 X44.406 Y120.150
G1 Z8

G0 X37.887 Y120.150
G1 Z0

G1 X37.738 Y119.386
G1 X37.328 Y118.771
G1 X36.713 Y118.361
G1 X35.949 Y118.212
G1 X35.185 Y118.361
G1 X34.570 Y118.771
G1 X34.160 Y119.386
G1 X34.011 Y120.150
G1 X34.165 Y120.914
G1 X34.583 Y121.529
G1 X35.200 Y121.939
G1 X35.949 Y122.088
G1 X36.713 Y121.934
G1 X37.328 Y121.516
G1 X37.738 Y120.899
G1 X37.887 Y120.150
G1 Z8

G0 X37.817 Y113.596
G1 Z0

G1 X37.674 Y114.313
G1 X37.284 Y114.895
G1 X36.702 Y115.286
G1 X35.984 Y115.428
G1 X35.267 Y115.286
G1 X34.685 Y114.895
G1 X34.294 Y114.313
G1 X34.152 Y113.596
G1 X34.294 Y112.878
G1 X34.685 Y112.296
G1 X35.267 Y111.906
G1 X35.984 Y111.763
G1 X36.702 Y111.906
G1 X37.284 Y112.296
G1 X37.674 Y112.878
G1 X37.817 Y113.596
G1 Z8

G0 X44.336 Y113.596
G1 Z0

G1 X44.193 Y114.313
G1 X43.803 Y114.895
G1 X43.221 Y115.286
G1 X42.503 Y115.428
G1 X41.786 Y115.286
G1 X41.204 Y114.895
G1 X40.814 Y114.313
G1 X40.671 Y113.596
G1 X40.814 Y112.878
G1 X41.204 Y112.296
G1 X41.786 Y111.906
G1 X42.503 Y111.763
G1 X43.221 Y111.906
G1 X43.803 Y112.296
G1 X44.193 Y112.878
G1 X44.336 Y113.596
G1 Z8

G0 X50.855 Y113.596
G1 Z0

G1 X50.713 Y114.313
G1 X50.322 Y114.895
G1 X49.740 Y115.286
G1 X49.023 Y115.428
G1 X48.305 Y115.286
G1 X47.723 Y114.895
G1 X47.333 Y114.313
G1 X47.190 Y113.596
G1 X47.333 Y112.878
G1 X47.723 Y112.296
G1 X48.305 Y111.906
G1 X49.023 Y111.763
G1 X49.740 Y111.906
G1 X50.322 Y112.296
G1 X50.713 Y112.878
G1 X50.855 Y113.596
G1 Z8

G0 X57.410 Y113.596
G1 Z0

G1 X57.267 Y114.313
G1 X56.877 Y114.895
G1 X56.295 Y115.286
G1 X55.577 Y115.428
G1 X54.860 Y115.286
G1 X54.278 Y114.895
G1 X53.887 Y114.313
G1 X53.745 Y113.596
G1 X53.887 Y112.878
G1 X54.278 Y112.296
G1 X54.860 Y111.906
G1 X55.577 Y111.763
G1 X56.280 Y111.906
G1 X56.863 Y112.296
G1 X57.262 Y112.878
G1 X57.410 Y113.596
G1 Z8

G0 X63.929 Y113.596
G1 Z0

G1 X63.786 Y114.313
G1 X63.396 Y114.895
G1 X62.814 Y115.286
G1 X62.096 Y115.428
G1 X61.379 Y115.286
G1 X60.797 Y114.895
G1 X60.407 Y114.313
G1 X60.264 Y113.596
G1 X60.407 Y112.878
G1 X60.797 Y112.296
G1 X61.379 Y111.906
G1 X62.096 Y111.763
G1 X62.814 Y111.906
G1 X63.396 Y112.296
G1 X63.786 Y112.878
G1 X63.929 Y113.596
G1 Z8

G0 X70.448 Y113.596
G1 Z0

G1 X70.305 Y114.313
G1 X69.915 Y114.895
G1 X69.333 Y115.286
G1 X68.616 Y115.428
G1 X67.898 Y115.286
G1 X67.316 Y114.895
G1 X66.926 Y114.313
G1 X66.783 Y113.596
G1 X66.926 Y112.878
G1 X67.316 Y112.296
G1 X67.898 Y111.906
G1 X68.616 Y111.763
G1 X69.333 Y111.906
G1 X69.915 Y112.296
G1 X70.305 Y112.878
G1 X70.448 Y113.596
G1 Z8

G0 X77.003 Y113.596
G1 Z0

G1 X76.860 Y114.313
G1 X76.470 Y114.895
G1 X75.888 Y115.286
G1 X75.170 Y115.428
G1 X74.453 Y115.286
G1 X73.871 Y114.895
G1 X73.480 Y114.313
G1 X73.338 Y113.596
G1 X73.480 Y112.878
G1 X73.871 Y112.296
G1 X74.453 Y111.906
G1 X75.170 Y111.763
G1 X75.873 Y111.906
G1 X76.456 Y112.296
G1 X76.855 Y112.878
G1 X77.003 Y113.596
G1 Z8

G0 X83.522 Y113.596
G1 Z0

G1 X83.379 Y114.313
G1 X82.989 Y114.895
G1 X82.407 Y115.286
G1 X81.689 Y115.428
G1 X80.972 Y115.286
G1 X80.390 Y114.895
G1 X80.000 Y114.313
G1 X79.857 Y113.596
G1 X80.000 Y112.878
G1 X80.390 Y112.296
G1 X80.972 Y111.906
G1 X81.689 Y111.763
G1 X82.407 Y111.906
G1 X82.989 Y112.296
G1 X83.379 Y112.878
G1 X83.522 Y113.596
G1 Z8

G0 X90.041 Y113.596
G1 Z0

G1 X89.898 Y114.313
G1 X89.508 Y114.895
G1 X88.926 Y115.286
G1 X88.209 Y115.428
G1 X87.491 Y115.286
G1 X86.909 Y114.895
G1 X86.519 Y114.313
G1 X86.376 Y113.596
G1 X86.519 Y112.878
G1 X86.909 Y112.296
G1 X87.491 Y111.906
G1 X88.209 Y111.763
G1 X88.926 Y111.906
G1 X89.508 Y112.296
G1 X89.898 Y112.878
G1 X90.041 Y113.596
G1 Z8

G0 X96.595 Y113.596
G1 Z0

G1 X96.453 Y114.313
G1 X96.062 Y114.895
G1 X95.480 Y115.286
G1 X94.763 Y115.428
G1 X94.046 Y115.286
G1 X93.464 Y114.895
G1 X93.073 Y114.313
G1 X92.931 Y113.596
G1 X93.073 Y112.878
G1 X93.464 Y112.296
G1 X94.046 Y111.906
G1 X94.763 Y111.763
G1 X95.480 Y111.906
G1 X96.062 Y112.296
G1 X96.453 Y112.878
G1 X96.595 Y113.596
G1 Z8

G0 X103.115 Y113.596
G1 Z0

G1 X102.972 Y114.313
G1 X102.582 Y114.895
G1 X102.000 Y115.286
G1 X101.282 Y115.428
G1 X100.565 Y115.286
G1 X99.983 Y114.895
G1 X99.592 Y114.313
G1 X99.450 Y113.596
G1 X99.592 Y112.878
G1 X99.983 Y112.296
G1 X100.565 Y111.906
G1 X101.282 Y111.763
G1 X102.000 Y111.906
G1 X102.582 Y112.296
G1 X102.972 Y112.878
G1 X103.115 Y113.596
G1 Z8

G0 X109.634 Y113.596
G1 Z0

G1 X109.491 Y114.313
G1 X109.101 Y114.895
G1 X108.519 Y115.286
G1 X107.801 Y115.428
G1 X107.084 Y115.286
G1 X106.502 Y114.895
G1 X106.112 Y114.313
G1 X105.969 Y113.596
G1 X106.112 Y112.878
G1 X106.502 Y112.296
G1 X107.084 Y111.906
G1 X107.801 Y111.763
G1 X108.519 Y111.906
G1 X109.101 Y112.296
G1 X109.491 Y112.878
G1 X109.634 Y113.596
G1 Z8

G0 X116.188 Y113.596
G1 Z0

G1 X116.046 Y114.313
G1 X115.655 Y114.895
G1 X115.073 Y115.286
G1 X114.356 Y115.428
G1 X113.639 Y115.286
G1 X113.057 Y114.895
G1 X112.666 Y114.313
G1 X112.524 Y113.596
G1 X112.666 Y112.878
G1 X113.057 Y112.296
G1 X113.639 Y111.906
G1 X114.356 Y111.763
G1 X115.073 Y111.906
G1 X115.655 Y112.296
G1 X116.046 Y112.878
G1 X116.188 Y113.596
G1 Z8

G0 X122.708 Y113.596
G1 Z0

G1 X122.565 Y114.313
G1 X122.175 Y114.895
G1 X121.593 Y115.286
G1 X120.875 Y115.428
G1 X120.158 Y115.286
G1 X119.576 Y114.895
G1 X119.185 Y114.313
G1 X119.043 Y113.596
G1 X119.185 Y112.878
G1 X119.576 Y112.296
G1 X120.158 Y111.906
G1 X120.875 Y111.763
G1 X121.593 Y111.906
G1 X122.175 Y112.296
G1 X122.565 Y112.878
G1 X122.708 Y113.596
G1 Z8

G0 X129.227 Y113.596
G1 Z0

G1 X129.084 Y114.313
G1 X128.694 Y114.895
G1 X128.112 Y115.286
G1 X127.394 Y115.428
G1 X126.677 Y115.286
G1 X126.095 Y114.895
G1 X125.705 Y114.313
G1 X125.562 Y113.596
G1 X125.705 Y112.878
G1 X126.095 Y112.296
G1 X126.677 Y111.906
G1 X127.394 Y111.763
G1 X128.112 Y111.906
G1 X128.694 Y112.296
G1 X129.084 Y112.878
G1 X129.227 Y113.596
G1 Z8

G0 X135.781 Y113.596
G1 Z0

G1 X135.639 Y114.313
G1 X135.248 Y114.895
G1 X134.666 Y115.286
G1 X133.949 Y115.428
G1 X133.231 Y115.286
G1 X132.649 Y114.895
G1 X132.259 Y114.313
G1 X132.116 Y113.596
G1 X132.259 Y112.878
G1 X132.649 Y112.296
G1 X133.231 Y111.906
G1 X133.949 Y111.763
G1 X134.666 Y111.906
G1 X135.248 Y112.296
G1 X135.639 Y112.878
G1 X135.781 Y113.596
G1 Z8

G0 X142.301 Y113.596
G1 Z0

G1 X142.158 Y114.313
G1 X141.768 Y114.895
G1 X141.186 Y115.286
G1 X140.468 Y115.428
G1 X139.751 Y115.286
G1 X139.169 Y114.895
G1 X138.778 Y114.313
G1 X138.636 Y113.596
G1 X138.778 Y112.878
G1 X139.169 Y112.296
G1 X139.751 Y111.906
G1 X140.468 Y111.763
G1 X141.186 Y111.906
G1 X141.768 Y112.296
G1 X142.158 Y112.878
G1 X142.301 Y113.596
G1 Z8

G0 X148.820 Y113.596
G1 Z0

G1 X148.677 Y114.313
G1 X148.287 Y114.895
G1 X147.705 Y115.286
G1 X146.987 Y115.428
G1 X146.270 Y115.286
G1 X145.688 Y114.895
G1 X145.298 Y114.313
G1 X145.155 Y113.596
G1 X145.298 Y112.878
G1 X145.688 Y112.296
G1 X146.270 Y111.906
G1 X146.987 Y111.763
G1 X147.705 Y111.906
G1 X148.287 Y112.296
G1 X148.677 Y112.878
G1 X148.820 Y113.596
G1 Z8

G0 X155.374 Y113.596
G1 Z0

G1 X155.232 Y114.313
G1 X154.841 Y114.895
G1 X154.259 Y115.286
G1 X153.542 Y115.428
G1 X152.824 Y115.286
G1 X152.242 Y114.895
G1 X151.852 Y114.313
G1 X151.709 Y113.596
G1 X151.852 Y112.878
G1 X152.242 Y112.296
G1 X152.824 Y111.906
G1 X153.542 Y111.763
G1 X154.244 Y111.906
G1 X154.828 Y112.296
G1 X155.227 Y112.878
G1 X155.374 Y113.596
G1 Z8

G0 X161.893 Y113.596
G1 Z0

G1 X161.751 Y114.313
G1 X161.361 Y114.895
G1 X160.779 Y115.286
G1 X160.061 Y115.428
G1 X159.344 Y115.286
G1 X158.762 Y114.895
G1 X158.371 Y114.313
G1 X158.229 Y113.596
G1 X158.371 Y112.878
G1 X158.762 Y112.296
G1 X159.344 Y111.906
G1 X160.061 Y111.763
G1 X160.779 Y111.906
G1 X161.361 Y112.296
G1 X161.751 Y112.878
G1 X161.893 Y113.596
G1 Z8

G0 X168.413 Y113.596
G1 Z0

G1 X168.270 Y114.313
G1 X167.880 Y114.895
G1 X167.298 Y115.286
G1 X166.580 Y115.428
G1 X165.863 Y115.286
G1 X165.281 Y114.895
G1 X164.890 Y114.313
G1 X164.748 Y113.596
G1 X164.890 Y112.878
G1 X165.281 Y112.296
G1 X165.863 Y111.906
G1 X166.580 Y111.763
G1 X167.298 Y111.906
G1 X167.880 Y112.296
G1 X168.270 Y112.878
G1 X168.413 Y113.596
G1 Z8

G0 X174.967 Y113.596
G1 Z0

G1 X174.825 Y114.313
G1 X174.434 Y114.895
G1 X173.852 Y115.286
G1 X173.135 Y115.428
G1 X172.417 Y115.286
G1 X171.835 Y114.895
G1 X171.445 Y114.313
G1 X171.302 Y113.596
G1 X171.445 Y112.878
G1 X171.835 Y112.296
G1 X172.417 Y111.906
G1 X173.135 Y111.763
G1 X173.852 Y111.906
G1 X174.434 Y112.296
G1 X174.825 Y112.878
G1 X174.967 Y113.596
G1 Z8

G0 X181.486 Y113.596
G1 Z0

G1 X181.344 Y114.313
G1 X180.953 Y114.895
G1 X180.371 Y115.286
G1 X179.654 Y115.428
G1 X178.937 Y115.286
G1 X178.355 Y114.895
G1 X177.964 Y114.313
G1 X177.822 Y113.596
G1 X177.964 Y112.878
G1 X178.355 Y112.296
G1 X178.937 Y111.906
G1 X179.654 Y111.763
G1 X180.371 Y111.906
G1 X180.953 Y112.296
G1 X181.344 Y112.878
G1 X181.486 Y113.596
G1 Z8

G0 X188.006 Y113.596
G1 Z0

G1 X187.863 Y114.313
G1 X187.473 Y114.895
G1 X186.891 Y115.286
G1 X186.173 Y115.428
G1 X185.456 Y115.286
G1 X184.874 Y114.895
G1 X184.483 Y114.313
G1 X184.341 Y113.596
G1 X184.483 Y112.878
G1 X184.874 Y112.296
G1 X185.456 Y111.906
G1 X186.173 Y111.763
G1 X186.891 Y111.906
G1 X187.473 Y112.296
G1 X187.863 Y112.878
G1 X188.006 Y113.596
G1 Z8

G0 X194.560 Y113.596
G1 Z0

G1 X194.418 Y114.313
G1 X194.027 Y114.895
G1 X193.445 Y115.286
G1 X192.728 Y115.428
G1 X192.010 Y115.286
G1 X191.428 Y114.895
G1 X191.038 Y114.313
G1 X190.895 Y113.596
G1 X191.038 Y112.878
G1 X191.428 Y112.296
G1 X192.010 Y111.906
G1 X192.728 Y111.763
G1 X193.430 Y111.906
G1 X194.014 Y112.296
G1 X194.413 Y112.878
G1 X194.560 Y113.596
G1 Z8

G0 X201.079 Y113.596
G1 Z0

G1 X200.937 Y114.313
G1 X200.546 Y114.895
G1 X199.964 Y115.286
G1 X199.247 Y115.428
G1 X198.529 Y115.286
G1 X197.947 Y114.895
G1 X197.557 Y114.313
G1 X197.414 Y113.596
G1 X197.557 Y112.878
G1 X197.947 Y112.296
G1 X198.529 Y111.906
G1 X199.247 Y111.763
G1 X199.964 Y111.906
G1 X200.546 Y112.296
G1 X200.937 Y112.878
G1 X201.079 Y113.596
G1 Z8

G0 X201.009 Y107.076
G1 Z0

G1 X200.872 Y106.385
G1 X200.498 Y105.825
G1 X199.938 Y105.451
G1 X199.247 Y105.315
G1 X198.555 Y105.456
G1 X197.996 Y105.839
G1 X197.622 Y106.400
G1 X197.485 Y107.076
G1 X197.622 Y107.768
G1 X197.996 Y108.327
G1 X198.555 Y108.702
G1 X199.247 Y108.838
G1 X199.938 Y108.697
G1 X200.498 Y108.314
G1 X200.872 Y107.753
G1 X201.009 Y107.076
G1 Z8

G0 X194.454 Y107.076
G1 Z0

G1 X194.318 Y106.385
G1 X193.943 Y105.825
G1 X193.384 Y105.451
G1 X192.692 Y105.315
G1 X192.001 Y105.456
G1 X191.441 Y105.839
G1 X191.067 Y106.400
G1 X190.930 Y107.076
G1 X191.072 Y107.768
G1 X191.455 Y108.327
G1 X192.016 Y108.702
G1 X192.692 Y108.838
G1 X193.384 Y108.697
G1 X193.943 Y108.314
G1 X194.318 Y107.753
G1 X194.454 Y107.076
G1 Z8

G0 X187.935 Y107.076
G1 Z0

G1 X187.799 Y106.385
G1 X187.424 Y105.825
G1 X186.865 Y105.451
G1 X186.173 Y105.315
G1 X185.482 Y105.456
G1 X184.922 Y105.839
G1 X184.548 Y106.400
G1 X184.411 Y107.076
G1 X184.548 Y107.768
G1 X184.922 Y108.327
G1 X185.482 Y108.702
G1 X186.173 Y108.838
G1 X186.865 Y108.697
G1 X187.424 Y108.314
G1 X187.799 Y107.753
G1 X187.935 Y107.076
G1 Z8

G0 X181.416 Y107.076
G1 Z0

G1 X181.274 Y106.385
G1 X180.892 Y105.825
G1 X180.331 Y105.451
G1 X179.654 Y105.315
G1 X178.962 Y105.456
G1 X178.403 Y105.839
G1 X178.029 Y106.400
G1 X177.892 Y107.076
G1 X178.034 Y107.768
G1 X178.416 Y108.327
G1 X178.977 Y108.702
G1 X179.654 Y108.838
G1 X180.346 Y108.697
G1 X180.905 Y108.314
G1 X181.279 Y107.753
G1 X181.416 Y107.076
G1 Z8

G0 X174.861 Y107.076
G1 Z0

G1 X174.725 Y106.385
G1 X174.350 Y105.825
G1 X173.791 Y105.451
G1 X173.100 Y105.315
G1 X172.408 Y105.456
G1 X171.849 Y105.839
G1 X171.474 Y106.400
G1 X171.338 Y107.076
G1 X171.474 Y107.768
G1 X171.849 Y108.327
G1 X172.408 Y108.702
G1 X173.100 Y108.838
G1 X173.791 Y108.697
G1 X174.350 Y108.314
G1 X174.725 Y107.753
G1 X174.861 Y107.076
G1 Z8

G0 X168.342 Y107.076
G1 Z0

G1 X168.206 Y106.385
G1 X167.831 Y105.825
G1 X167.272 Y105.451
G1 X166.580 Y105.315
G1 X165.889 Y105.456
G1 X165.329 Y105.839
G1 X164.955 Y106.400
G1 X164.818 Y107.076
G1 X164.955 Y107.768
G1 X165.329 Y108.327
G1 X165.889 Y108.702
G1 X166.580 Y108.838
G1 X167.272 Y108.697
G1 X167.831 Y108.314
G1 X168.206 Y107.753
G1 X168.342 Y107.076
G1 Z8

G0 X161.823 Y107.076
G1 Z0

G1 X161.686 Y106.385
G1 X161.312 Y105.825
G1 X160.753 Y105.451
G1 X160.061 Y105.315
G1 X159.369 Y105.456
G1 X158.810 Y105.839
G1 X158.436 Y106.400
G1 X158.299 Y107.076
G1 X158.436 Y107.768
G1 X158.810 Y108.327
G1 X159.369 Y108.702
G1 X160.061 Y108.838
G1 X160.753 Y108.697
G1 X161.312 Y108.314
G1 X161.686 Y107.753
G1 X161.823 Y107.076
G1 Z8

G0 X155.269 Y107.076
G1 Z0

G1 X155.132 Y106.385
G1 X154.758 Y105.825
G1 X154.198 Y105.451
G1 X153.507 Y105.315
G1 X152.815 Y105.456
G1 X152.256 Y105.839
G1 X151.881 Y106.400
G1 X151.745 Y107.076
G1 X151.886 Y107.768
G1 X152.269 Y108.327
G1 X152.830 Y108.702
G1 X153.507 Y108.838
G1 X154.198 Y108.697
G1 X154.758 Y108.314
G1 X155.132 Y107.753
G1 X155.269 Y107.076
G1 Z8

G0 X148.749 Y107.076
G1 Z0

G1 X148.613 Y106.385
G1 X148.238 Y105.825
G1 X147.679 Y105.451
G1 X146.987 Y105.315
G1 X146.296 Y105.456
G1 X145.736 Y105.839
G1 X145.362 Y106.400
G1 X145.225 Y107.076
G1 X145.362 Y107.768
G1 X145.736 Y108.327
G1 X146.296 Y108.702
G1 X146.987 Y108.838
G1 X147.679 Y108.697
G1 X148.238 Y108.314
G1 X148.613 Y107.753
G1 X148.749 Y107.076
G1 Z8

G0 X142.230 Y107.076
G1 Z0

G1 X142.094 Y106.385
G1 X141.719 Y105.825
G1 X141.160 Y105.451
G1 X140.468 Y105.315
G1 X139.777 Y105.456
G1 X139.217 Y105.839
G1 X138.843 Y106.400
G1 X138.706 Y107.076
G1 X138.843 Y107.768
G1 X139.217 Y108.327
G1 X139.777 Y108.702
G1 X140.468 Y108.838
G1 X141.160 Y108.697
G1 X141.719 Y108.314
G1 X142.094 Y107.753
G1 X142.230 Y107.076
G1 Z8

G0 X135.676 Y107.076
G1 Z0

G1 X135.539 Y106.385
G1 X135.165 Y105.825
G1 X134.605 Y105.451
G1 X133.914 Y105.315
G1 X133.222 Y105.456
G1 X132.663 Y105.839
G1 X132.288 Y106.400
G1 X132.152 Y107.076
G1 X132.293 Y107.768
G1 X132.676 Y108.327
G1 X133.237 Y108.702
G1 X133.914 Y108.838
G1 X134.605 Y108.697
G1 X135.165 Y108.314
G1 X135.539 Y107.753
G1 X135.676 Y107.076
G1 Z8

G0 X129.156 Y107.076
G1 Z0

G1 X129.020 Y106.385
G1 X128.645 Y105.825
G1 X128.086 Y105.451
G1 X127.394 Y105.315
G1 X126.703 Y105.456
G1 X126.143 Y105.839
G1 X125.769 Y106.400
G1 X125.632 Y107.076
G1 X125.769 Y107.768
G1 X126.143 Y108.327
G1 X126.703 Y108.702
G1 X127.394 Y108.838
G1 X128.086 Y108.697
G1 X128.645 Y108.314
G1 X129.020 Y107.753
G1 X129.156 Y107.076
G1 Z8

G0 X122.637 Y107.076
G1 Z0

G1 X122.496 Y106.385
G1 X122.113 Y105.825
G1 X121.552 Y105.451
G1 X120.875 Y105.315
G1 X120.184 Y105.456
G1 X119.624 Y105.839
G1 X119.250 Y106.400
G1 X119.113 Y107.076
G1 X119.255 Y107.768
G1 X119.637 Y108.327
G1 X120.199 Y108.702
G1 X120.875 Y108.838
G1 X121.567 Y108.697
G1 X122.126 Y108.314
G1 X122.501 Y107.753
G1 X122.637 Y107.076
G1 Z8

G0 X116.083 Y107.076
G1 Z0

G1 X115.946 Y106.385
G1 X115.572 Y105.825
G1 X115.012 Y105.451
G1 X114.321 Y105.315
G1 X113.629 Y105.456
G1 X113.070 Y105.839
G1 X112.695 Y106.400
G1 X112.559 Y107.076
G1 X112.700 Y107.768
G1 X113.083 Y108.327
G1 X113.644 Y108.702
G1 X114.321 Y108.838
G1 X115.012 Y108.697
G1 X115.572 Y108.314
G1 X115.946 Y107.753
G1 X116.083 Y107.076
G1 Z8

G0 X109.563 Y107.076
G1 Z0

G1 X109.427 Y106.385
G1 X109.052 Y105.825
G1 X108.493 Y105.451
G1 X107.801 Y105.315
G1 X107.110 Y105.456
G1 X106.551 Y105.839
G1 X106.176 Y106.400
G1 X106.040 Y107.076
G1 X106.181 Y107.768
G1 X106.564 Y108.327
G1 X107.125 Y108.702
G1 X107.801 Y108.838
G1 X108.493 Y108.697
G1 X109.052 Y108.314
G1 X109.427 Y107.753
G1 X109.563 Y107.076
G1 Z8

G0 X103.044 Y107.076
G1 Z0

G1 X102.908 Y106.385
G1 X102.533 Y105.825
G1 X101.974 Y105.451
G1 X101.282 Y105.315
G1 X100.591 Y105.456
G1 X100.031 Y105.839
G1 X99.657 Y106.400
G1 X99.520 Y107.076
G1 X99.657 Y107.768
G1 X100.031 Y108.327
G1 X100.591 Y108.702
G1 X101.282 Y108.838
G1 X101.974 Y108.697
G1 X102.533 Y108.314
G1 X102.908 Y107.753
G1 X103.044 Y107.076
G1 Z8

G0 X96.490 Y107.076
G1 Z0

G1 X96.353 Y106.385
G1 X95.979 Y105.825
G1 X95.419 Y105.451
G1 X94.728 Y105.315
G1 X94.036 Y105.456
G1 X93.477 Y105.839
G1 X93.102 Y106.400
G1 X92.966 Y107.076
G1 X93.102 Y107.768
G1 X93.477 Y108.327
G1 X94.036 Y108.702
G1 X94.728 Y108.838
G1 X95.419 Y108.697
G1 X95.979 Y108.314
G1 X96.353 Y107.753
G1 X96.490 Y107.076
G1 Z8

G0 X89.971 Y107.076
G1 Z0

G1 X89.834 Y106.385
G1 X89.460 Y105.825
G1 X88.900 Y105.451
G1 X88.209 Y105.315
G1 X87.517 Y105.456
G1 X86.958 Y105.839
G1 X86.583 Y106.400
G1 X86.447 Y107.076
G1 X86.583 Y107.768
G1 X86.958 Y108.327
G1 X87.517 Y108.702
G1 X88.209 Y108.838
G1 X88.900 Y108.697
G1 X89.460 Y108.314
G1 X89.834 Y107.753
G1 X89.971 Y107.076
G1 Z8

G0 X83.416 Y107.076
G1 Z0

G1 X83.280 Y106.385
G1 X82.905 Y105.825
G1 X82.346 Y105.451
G1 X81.654 Y105.315
G1 X80.963 Y105.456
G1 X80.403 Y105.839
G1 X80.029 Y106.400
G1 X79.892 Y107.076
G1 X80.029 Y107.768
G1 X80.403 Y108.327
G1 X80.963 Y108.702
G1 X81.654 Y108.838
G1 X82.346 Y108.697
G1 X82.905 Y108.314
G1 X83.280 Y107.753
G1 X83.416 Y107.076
G1 Z8

G0 X76.897 Y107.076
G1 Z0

G1 X76.760 Y106.385
G1 X76.386 Y105.825
G1 X75.826 Y105.451
G1 X75.135 Y105.315
G1 X74.443 Y105.456
G1 X73.884 Y105.839
G1 X73.509 Y106.400
G1 X73.373 Y107.076
G1 X73.514 Y107.768
G1 X73.897 Y108.327
G1 X74.458 Y108.702
G1 X75.135 Y108.838
G1 X75.826 Y108.697
G1 X76.386 Y108.314
G1 X76.760 Y107.753
G1 X76.897 Y107.076
G1 Z8

G0 X70.378 Y107.076
G1 Z0

G1 X70.241 Y106.385
G1 X69.867 Y105.825
G1 X69.307 Y105.451
G1 X68.616 Y105.315
G1 X67.924 Y105.456
G1 X67.365 Y105.839
G1 X66.990 Y106.400
G1 X66.854 Y107.076
G1 X66.990 Y107.768
G1 X67.365 Y108.327
G1 X67.924 Y108.702
G1 X68.616 Y108.838
G1 X69.307 Y108.697
G1 X69.867 Y108.314
G1 X70.241 Y107.753
G1 X70.378 Y107.076
G1 Z8

G0 X63.823 Y107.076
G1 Z0

G1 X63.687 Y106.385
G1 X63.312 Y105.825
G1 X62.753 Y105.451
G1 X62.061 Y105.315
G1 X61.370 Y105.456
G1 X60.810 Y105.839
G1 X60.436 Y106.400
G1 X60.299 Y107.076
G1 X60.436 Y107.768
G1 X60.810 Y108.327
G1 X61.370 Y108.702
G1 X62.061 Y108.838
G1 X62.753 Y108.697
G1 X63.312 Y108.314
G1 X63.687 Y107.753
G1 X63.823 Y107.076
G1 Z8

G0 X57.304 Y107.076
G1 Z0

G1 X57.167 Y106.385
G1 X56.793 Y105.825
G1 X56.234 Y105.451
G1 X55.542 Y105.315
G1 X54.850 Y105.456
G1 X54.291 Y105.839
G1 X53.917 Y106.400
G1 X53.780 Y107.076
G1 X53.921 Y107.768
G1 X54.304 Y108.327
G1 X54.865 Y108.702
G1 X55.542 Y108.838
G1 X56.234 Y108.697
G1 X56.793 Y108.314
G1 X57.167 Y107.753
G1 X57.304 Y107.076
G1 Z8

G0 X50.785 Y107.076
G1 Z0

G1 X50.648 Y106.385
G1 X50.274 Y105.825
G1 X49.714 Y105.451
G1 X49.023 Y105.315
G1 X48.331 Y105.456
G1 X47.772 Y105.839
G1 X47.397 Y106.400
G1 X47.261 Y107.076
G1 X47.402 Y107.768
G1 X47.785 Y108.327
G1 X48.346 Y108.702
G1 X49.023 Y108.838
G1 X49.714 Y108.697
G1 X50.274 Y108.314
G1 X50.648 Y107.753
G1 X50.785 Y107.076
G1 Z8

G0 X44.230 Y107.076
G1 Z0

G1 X44.094 Y106.385
G1 X43.719 Y105.825
G1 X43.160 Y105.451
G1 X42.468 Y105.315
G1 X41.777 Y105.456
G1 X41.217 Y105.839
G1 X40.843 Y106.400
G1 X40.706 Y107.076
G1 X40.848 Y107.768
G1 X41.230 Y108.327
G1 X41.792 Y108.702
G1 X42.468 Y108.838
G1 X43.160 Y108.697
G1 X43.719 Y108.314
G1 X44.094 Y107.753
G1 X44.230 Y107.076
G1 Z8

G0 X37.711 Y107.076
G1 Z0

G1 X37.574 Y106.385
G1 X37.200 Y105.825
G1 X36.641 Y105.451
G1 X35.949 Y105.315
G1 X35.257 Y105.456
G1 X34.698 Y105.839
G1 X34.324 Y106.400
G1 X34.187 Y107.076
G1 X34.329 Y107.768
G1 X34.711 Y108.327
G1 X35.272 Y108.702
G1 X35.949 Y108.838
G1 X36.641 Y108.697
G1 X37.200 Y108.314
G1 X37.574 Y107.753
G1 X37.711 Y107.076
G1 Z8

G0 X37.640 Y100.557
G1 Z0

G1 X37.511 Y101.203
G1 X37.156 Y101.729
G1 X36.630 Y102.084
G1 X35.984 Y102.213
G1 X35.339 Y102.084
G1 X34.813 Y101.729
G1 X34.458 Y101.203
G1 X34.328 Y100.557
G1 X34.458 Y99.912
G1 X34.813 Y99.386
G1 X35.339 Y99.031
G1 X35.984 Y98.901
G1 X36.630 Y99.011
G1 X37.156 Y99.359
G1 X37.511 Y99.892
G1 X37.640 Y100.557
G1 Z8

G0 X44.160 Y100.557
G1 Z0

G1 X44.030 Y101.203
G1 X43.675 Y101.729
G1 X43.149 Y102.084
G1 X42.503 Y102.213
G1 X41.858 Y102.084
G1 X41.332 Y101.729
G1 X40.977 Y101.203
G1 X40.847 Y100.557
G1 X40.977 Y99.912
G1 X41.332 Y99.386
G1 X41.858 Y99.031
G1 X42.503 Y98.901
G1 X43.149 Y99.026
G1 X43.675 Y99.372
G1 X44.030 Y99.897
G1 X44.160 Y100.557
G1 Z8

G0 X50.679 Y100.557
G1 Z0

G1 X50.549 Y101.203
G1 X50.194 Y101.729
G1 X49.668 Y102.084
G1 X49.023 Y102.213
G1 X48.377 Y102.084
G1 X47.851 Y101.729
G1 X47.496 Y101.203
G1 X47.366 Y100.557
G1 X47.496 Y99.912
G1 X47.851 Y99.386
G1 X48.377 Y99.031
G1 X49.023 Y98.901
G1 X49.668 Y99.011
G1 X50.194 Y99.359
G1 X50.549 Y99.892
G1 X50.679 Y100.557
G1 Z8

G0 X57.233 Y100.557
G1 Z0

G1 X57.103 Y101.203
G1 X56.749 Y101.729
G1 X56.222 Y102.084
G1 X55.577 Y102.213
G1 X54.932 Y102.084
G1 X54.405 Y101.729
G1 X54.051 Y101.203
G1 X53.921 Y100.557
G1 X54.051 Y99.912
G1 X54.405 Y99.386
G1 X54.932 Y99.031
G1 X55.577 Y98.901
G1 X56.222 Y99.026
G1 X56.749 Y99.372
G1 X57.103 Y99.897
G1 X57.233 Y100.557
G1 Z8

G0 X63.753 Y100.557
G1 Z0

G1 X63.623 Y101.203
G1 X63.268 Y101.729
G1 X62.742 Y102.084
G1 X62.096 Y102.213
G1 X61.451 Y102.084
G1 X60.925 Y101.729
G1 X60.570 Y101.203
G1 X60.440 Y100.557
G1 X60.570 Y99.912
G1 X60.925 Y99.386
G1 X61.451 Y99.031
G1 X62.096 Y98.901
G1 X62.742 Y99.011
G1 X63.268 Y99.359
G1 X63.623 Y99.892
G1 X63.753 Y100.557
G1 Z8

G0 X70.272 Y100.557
G1 Z0

G1 X70.142 Y101.203
G1 X69.787 Y101.729
G1 X69.261 Y102.084
G1 X68.616 Y102.213
G1 X67.970 Y102.084
G1 X67.444 Y101.729
G1 X67.089 Y101.203
G1 X66.959 Y100.557
G1 X67.089 Y99.912
G1 X67.444 Y99.386
G1 X67.970 Y99.031
G1 X68.616 Y98.901
G1 X69.261 Y99.011
G1 X69.787 Y99.359
G1 X70.142 Y99.892
G1 X70.272 Y100.557
G1 Z8

G0 X76.826 Y100.557
G1 Z0

G1 X76.696 Y101.203
G1 X76.342 Y101.729
G1 X75.815 Y102.084
G1 X75.170 Y102.213
G1 X74.525 Y102.084
G1 X73.998 Y101.729
G1 X73.644 Y101.203
G1 X73.514 Y100.557
G1 X73.644 Y99.912
G1 X73.998 Y99.386
G1 X74.525 Y99.031
G1 X75.170 Y98.901
G1 X75.815 Y99.011
G1 X76.342 Y99.359
G1 X76.696 Y99.892
G1 X76.826 Y100.557
G1 Z8

G0 X83.346 Y100.557
G1 Z0

G1 X83.216 Y101.203
G1 X82.861 Y101.729
G1 X82.335 Y102.084
G1 X81.689 Y102.213
G1 X81.044 Y102.084
G1 X80.518 Y101.729
G1 X80.163 Y101.203
G1 X80.033 Y100.557
G1 X80.163 Y99.912
G1 X80.518 Y99.386
G1 X81.044 Y99.031
G1 X81.689 Y98.901
G1 X82.335 Y99.011
G1 X82.861 Y99.359
G1 X83.216 Y99.892
G1 X83.346 Y100.557
G1 Z8

G0 X89.865 Y100.557
G1 Z0

G1 X89.735 Y101.203
G1 X89.380 Y101.729
G1 X88.854 Y102.084
G1 X88.209 Y102.213
G1 X87.563 Y102.084
G1 X87.037 Y101.729
G1 X86.682 Y101.203
G1 X86.552 Y100.557
G1 X86.682 Y99.912
G1 X87.037 Y99.386
G1 X87.563 Y99.031
G1 X88.209 Y98.901
G1 X88.854 Y99.011
G1 X89.380 Y99.359
G1 X89.735 Y99.892
G1 X89.865 Y100.557
G1 Z8

G0 X96.419 Y100.557
G1 Z0

G1 X96.289 Y101.203
G1 X95.935 Y101.729
G1 X95.408 Y102.084
G1 X94.763 Y102.213
G1 X94.118 Y102.084
G1 X93.591 Y101.729
G1 X93.237 Y101.203
G1 X93.107 Y100.557
G1 X93.237 Y99.912
G1 X93.591 Y99.386
G1 X94.118 Y99.031
G1 X94.763 Y98.901
G1 X95.408 Y99.026
G1 X95.935 Y99.372
G1 X96.289 Y99.897
G1 X96.419 Y100.557
G1 Z8

G0 X102.939 Y100.557
G1 Z0

G1 X102.809 Y101.203
G1 X102.454 Y101.729
G1 X101.928 Y102.084
G1 X101.282 Y102.213
G1 X100.637 Y102.084
G1 X100.111 Y101.729
G1 X99.756 Y101.203
G1 X99.626 Y100.557
G1 X99.756 Y99.912
G1 X100.111 Y99.386
G1 X100.637 Y99.031
G1 X101.282 Y98.901
G1 X101.928 Y99.011
G1 X102.454 Y99.359
G1 X102.809 Y99.892
G1 X102.939 Y100.557
G1 Z8

G0 X109.458 Y100.557
G1 Z0

G1 X109.328 Y101.203
G1 X108.973 Y101.729
G1 X108.447 Y102.084
G1 X107.801 Y102.213
G1 X107.156 Y102.084
G1 X106.630 Y101.729
G1 X106.275 Y101.203
G1 X106.145 Y100.557
G1 X106.275 Y99.912
G1 X106.630 Y99.386
G1 X107.156 Y99.031
G1 X107.801 Y98.901
G1 X108.447 Y99.011
G1 X108.973 Y99.359
G1 X109.328 Y99.892
G1 X109.458 Y100.557
G1 Z8

G0 X116.012 Y100.557
G1 Z0

G1 X115.882 Y101.203
G1 X115.528 Y101.729
G1 X115.001 Y102.084
G1 X114.356 Y102.213
G1 X113.711 Y102.084
G1 X113.184 Y101.729
G1 X112.830 Y101.203
G1 X112.700 Y100.557
G1 X112.830 Y99.912
G1 X113.184 Y99.386
G1 X113.711 Y99.031
G1 X114.356 Y98.901
G1 X115.001 Y99.026
G1 X115.528 Y99.372
G1 X115.882 Y99.897
G1 X116.012 Y100.557
G1 Z8

G0 X122.531 Y100.557
G1 Z0

G1 X122.401 Y101.203
G1 X122.047 Y101.729
G1 X121.521 Y102.084
G1 X120.875 Y102.213
G1 X120.230 Y102.084
G1 X119.703 Y101.729
G1 X119.349 Y101.203
G1 X119.219 Y100.557
G1 X119.349 Y99.912
G1 X119.703 Y99.386
G1 X120.230 Y99.031
G1 X120.875 Y98.901
G1 X121.521 Y99.026
G1 X122.047 Y99.372
G1 X122.401 Y99.897
G1 X122.531 Y100.557
G1 Z8

G0 X129.051 Y100.557
G1 Z0

G1 X128.921 Y101.203
G1 X128.566 Y101.729
G1 X128.040 Y102.084
G1 X127.394 Y102.213
G1 X126.749 Y102.084
G1 X126.223 Y101.729
G1 X125.868 Y101.203
G1 X125.738 Y100.557
G1 X125.868 Y99.912
G1 X126.223 Y99.386
G1 X126.749 Y99.031
G1 X127.394 Y98.901
G1 X128.040 Y99.026
G1 X128.566 Y99.372
G1 X128.921 Y99.897
G1 X129.051 Y100.557
G1 Z8

G0 X135.605 Y100.557
G1 Z0

G1 X135.475 Y101.203
G1 X135.121 Y101.729
G1 X134.594 Y102.084
G1 X133.949 Y102.213
G1 X133.304 Y102.084
G1 X132.777 Y101.729
G1 X132.423 Y101.203
G1 X132.293 Y100.557
G1 X132.423 Y99.912
G1 X132.777 Y99.386
G1 X133.304 Y99.031
G1 X133.949 Y98.901
G1 X134.594 Y99.026
G1 X135.121 Y99.372
G1 X135.475 Y99.897
G1 X135.605 Y100.557
G1 Z8

G0 X142.124 Y100.557
G1 Z0

G1 X141.994 Y101.203
G1 X141.640 Y101.729
G1 X141.113 Y102.084
G1 X140.468 Y102.213
G1 X139.823 Y102.084
G1 X139.296 Y101.729
G1 X138.942 Y101.203
G1 X138.812 Y100.557
G1 X138.942 Y99.912
G1 X139.296 Y99.386
G1 X139.823 Y99.031
G1 X140.468 Y98.901
G1 X141.113 Y99.011
G1 X141.640 Y99.359
G1 X141.994 Y99.892
G1 X142.124 Y100.557
G1 Z8

G0 X148.644 Y100.557
G1 Z0

G1 X148.514 Y101.203
G1 X148.159 Y101.729
G1 X147.633 Y102.084
G1 X146.987 Y102.213
G1 X146.342 Y102.084
G1 X145.816 Y101.729
G1 X145.461 Y101.203
G1 X145.331 Y100.557
G1 X145.461 Y99.912
G1 X145.816 Y99.386
G1 X146.342 Y99.031
G1 X146.987 Y98.901
G1 X147.633 Y99.011
G1 X148.159 Y99.359
G1 X148.514 Y99.892
G1 X148.644 Y100.557
G1 Z8

G0 X155.198 Y100.557
G1 Z0

G1 X155.068 Y101.203
G1 X154.714 Y101.729
G1 X154.187 Y102.084
G1 X153.542 Y102.213
G1 X152.897 Y102.084
G1 X152.370 Y101.729
G1 X152.016 Y101.203
G1 X151.886 Y100.557
G1 X152.016 Y99.912
G1 X152.370 Y99.386
G1 X152.897 Y99.031
G1 X153.542 Y98.901
G1 X154.187 Y99.011
G1 X154.714 Y99.359
G1 X155.068 Y99.892
G1 X155.198 Y100.557
G1 Z8

G0 X161.717 Y100.557
G1 Z0

G1 X161.587 Y101.203
G1 X161.233 Y101.729
G1 X160.706 Y102.084
G1 X160.061 Y102.213
G1 X159.416 Y102.084
G1 X158.889 Y101.729
G1 X158.535 Y101.203
G1 X158.405 Y100.557
G1 X158.535 Y99.912
G1 X158.889 Y99.386
G1 X159.416 Y99.031
G1 X160.061 Y98.901
G1 X160.706 Y99.011
G1 X161.233 Y99.359
G1 X161.587 Y99.892
G1 X161.717 Y100.557
G1 Z8

G0 X168.237 Y100.557
G1 Z0

G1 X168.107 Y101.203
G1 X167.752 Y101.729
G1 X167.226 Y102.084
G1 X166.580 Y102.213
G1 X165.935 Y102.084
G1 X165.409 Y101.729
G1 X165.054 Y101.203
G1 X164.924 Y100.557
G1 X165.054 Y99.912
G1 X165.409 Y99.386
G1 X165.935 Y99.031
G1 X166.580 Y98.901
G1 X167.226 Y99.011
G1 X167.752 Y99.359
G1 X168.107 Y99.892
G1 X168.237 Y100.557
G1 Z8

G0 X174.791 Y100.557
G1 Z0

G1 X174.661 Y101.203
G1 X174.306 Y101.729
G1 X173.780 Y102.084
G1 X173.135 Y102.213
G1 X172.489 Y102.084
G1 X171.963 Y101.729
G1 X171.608 Y101.203
G1 X171.479 Y100.557
G1 X171.608 Y99.912
G1 X171.963 Y99.386
G1 X172.489 Y99.031
G1 X173.135 Y98.901
G1 X173.780 Y99.026
G1 X174.306 Y99.372
G1 X174.661 Y99.897
G1 X174.791 Y100.557
G1 Z8

G0 X181.310 Y100.557
G1 Z0

G1 X181.180 Y101.203
G1 X180.826 Y101.729
G1 X180.299 Y102.084
G1 X179.654 Y102.213
G1 X179.009 Y102.084
G1 X178.482 Y101.729
G1 X178.128 Y101.203
G1 X177.998 Y100.557
G1 X178.128 Y99.912
G1 X178.482 Y99.386
G1 X179.009 Y99.031
G1 X179.654 Y98.901
G1 X180.299 Y99.011
G1 X180.826 Y99.359
G1 X181.180 Y99.892
G1 X181.310 Y100.557
G1 Z8

G0 X187.829 Y100.557
G1 Z0

G1 X187.700 Y101.203
G1 X187.345 Y101.729
G1 X186.819 Y102.084
G1 X186.173 Y102.213
G1 X185.528 Y102.084
G1 X185.002 Y101.729
G1 X184.647 Y101.203
G1 X184.517 Y100.557
G1 X184.647 Y99.912
G1 X185.002 Y99.386
G1 X185.528 Y99.031
G1 X186.173 Y98.901
G1 X186.819 Y99.026
G1 X187.345 Y99.372
G1 X187.700 Y99.897
G1 X187.829 Y100.557
G1 Z8

G0 X194.384 Y100.557
G1 Z0

G1 X194.254 Y101.203
G1 X193.899 Y101.729
G1 X193.373 Y102.084
G1 X192.728 Y102.213
G1 X192.082 Y102.084
G1 X191.556 Y101.729
G1 X191.201 Y101.203
G1 X191.071 Y100.557
G1 X191.201 Y99.912
G1 X191.556 Y99.386
G1 X192.082 Y99.031
G1 X192.728 Y98.901
G1 X193.373 Y99.011
G1 X193.899 Y99.359
G1 X194.254 Y99.892
G1 X194.384 Y100.557
G1 Z8

G0 X200.903 Y100.557
G1 Z0

G1 X200.773 Y101.203
G1 X200.419 Y101.729
G1 X199.892 Y102.084
G1 X199.247 Y102.213
G1 X198.602 Y102.084
G1 X198.075 Y101.729
G1 X197.721 Y101.203
G1 X197.591 Y100.557
G1 X197.721 Y99.912
G1 X198.075 Y99.386
G1 X198.602 Y99.031
G1 X199.247 Y98.901
G1 X199.892 Y99.026
G1 X200.419 Y99.372
G1 X200.773 Y99.897
G1 X200.903 Y100.557
G1 Z8

G0 X200.833 Y94.003
G1 Z0

G1 X200.709 Y93.383
G1 X200.370 Y92.880
G1 X199.866 Y92.541
G1 X199.247 Y92.417
G1 X198.627 Y92.541
G1 X198.124 Y92.880
G1 X197.785 Y93.383
G1 X197.661 Y94.003
G1 X197.785 Y94.622
G1 X198.124 Y95.126
G1 X198.627 Y95.465
G1 X199.247 Y95.589
G1 X199.866 Y95.465
G1 X200.370 Y95.126
G1 X200.709 Y94.622
G1 X200.833 Y94.003
G1 Z8

G0 X194.278 Y94.003
G1 Z0

G1 X194.154 Y93.383
G1 X193.816 Y92.880
G1 X193.312 Y92.541
G1 X192.692 Y92.417
G1 X192.073 Y92.541
G1 X191.569 Y92.880
G1 X191.231 Y93.383
G1 X191.107 Y94.003
G1 X191.231 Y94.622
G1 X191.569 Y95.126
G1 X192.073 Y95.465
G1 X192.692 Y95.589
G1 X193.312 Y95.465
G1 X193.816 Y95.126
G1 X194.154 Y94.622
G1 X194.278 Y94.003
G1 Z8

G0 X187.759 Y94.003
G1 Z0

G1 X187.635 Y93.383
G1 X187.296 Y92.880
G1 X186.793 Y92.541
G1 X186.173 Y92.417
G1 X185.554 Y92.541
G1 X185.050 Y92.880
G1 X184.711 Y93.383
G1 X184.587 Y94.003
G1 X184.711 Y94.622
G1 X185.050 Y95.126
G1 X185.554 Y95.465
G1 X186.173 Y95.589
G1 X186.793 Y95.465
G1 X187.296 Y95.126
G1 X187.635 Y94.622
G1 X187.759 Y94.003
G1 Z8

G0 X181.240 Y94.003
G1 Z0

G1 X181.116 Y93.383
G1 X180.777 Y92.880
G1 X180.273 Y92.541
G1 X179.654 Y92.417
G1 X179.035 Y92.541
G1 X178.531 Y92.880
G1 X178.192 Y93.383
G1 X178.068 Y94.003
G1 X178.192 Y94.622
G1 X178.531 Y95.126
G1 X179.035 Y95.465
G1 X179.654 Y95.589
G1 X180.273 Y95.465
G1 X180.777 Y95.126
G1 X181.116 Y94.622
G1 X181.240 Y94.003
G1 Z8

G0 X174.685 Y94.003
G1 Z0

G1 X174.561 Y93.383
G1 X174.223 Y92.880
G1 X173.719 Y92.541
G1 X173.100 Y92.417
G1 X172.480 Y92.541
G1 X171.976 Y92.880
G1 X171.638 Y93.383
G1 X171.514 Y94.003
G1 X171.638 Y94.622
G1 X171.976 Y95.126
G1 X172.480 Y95.465
G1 X173.100 Y95.589
G1 X173.719 Y95.465
G1 X174.223 Y95.126
G1 X174.561 Y94.622
G1 X174.685 Y94.003
G1 Z8

G0 X168.166 Y94.003
G1 Z0

G1 X168.042 Y93.383
G1 X167.704 Y92.880
G1 X167.200 Y92.541
G1 X166.580 Y92.417
G1 X165.961 Y92.541
G1 X165.457 Y92.880
G1 X165.118 Y93.383
G1 X164.995 Y94.003
G1 X165.118 Y94.622
G1 X165.457 Y95.126
G1 X165.961 Y95.465
G1 X166.580 Y95.589
G1 X167.200 Y95.465
G1 X167.704 Y95.126
G1 X168.042 Y94.622
G1 X168.166 Y94.003
G1 Z8

G0 X161.647 Y94.003
G1 Z0

G1 X161.523 Y93.383
G1 X161.184 Y92.880
G1 X160.680 Y92.541
G1 X160.061 Y92.417
G1 X159.442 Y92.541
G1 X158.938 Y92.880
G1 X158.599 Y93.383
G1 X158.475 Y94.003
G1 X158.599 Y94.622
G1 X158.938 Y95.126
G1 X159.442 Y95.465
G1 X160.061 Y95.589
G1 X160.680 Y95.465
G1 X161.184 Y95.126
G1 X161.523 Y94.622
G1 X161.647 Y94.003
G1 Z8

G0 X155.092 Y94.003
G1 Z0

G1 X154.968 Y93.383
G1 X154.630 Y92.880
G1 X154.126 Y92.541
G1 X153.507 Y92.417
G1 X152.887 Y92.541
G1 X152.383 Y92.880
G1 X152.045 Y93.383
G1 X151.921 Y94.003
G1 X152.045 Y94.622
G1 X152.383 Y95.126
G1 X152.887 Y95.465
G1 X153.507 Y95.589
G1 X154.126 Y95.465
G1 X154.630 Y95.126
G1 X154.968 Y94.622
G1 X155.092 Y94.003
G1 Z8

G0 X148.573 Y94.003
G1 Z0

G1 X148.449 Y93.383
G1 X148.111 Y92.880
G1 X147.607 Y92.541
G1 X146.987 Y92.417
G1 X146.368 Y92.541
G1 X145.864 Y92.880
G1 X145.525 Y93.383
G1 X145.402 Y94.003
G1 X145.525 Y94.622
G1 X145.864 Y95.126
G1 X146.368 Y95.465
G1 X146.987 Y95.589
G1 X147.607 Y95.465
G1 X148.111 Y95.126
G1 X148.449 Y94.622
G1 X148.573 Y94.003
G1 Z8

G0 X142.054 Y94.003
G1 Z0

G1 X141.930 Y93.383
G1 X141.591 Y92.880
G1 X141.088 Y92.541
G1 X140.468 Y92.417
G1 X139.849 Y92.541
G1 X139.345 Y92.880
G1 X139.006 Y93.383
G1 X138.882 Y94.003
G1 X139.006 Y94.622
G1 X139.345 Y95.126
G1 X139.849 Y95.465
G1 X140.468 Y95.589
G1 X141.088 Y95.465
G1 X141.591 Y95.126
G1 X141.930 Y94.622
G1 X142.054 Y94.003
G1 Z8

G0 X135.499 Y94.003
G1 Z0

G1 X135.376 Y93.383
G1 X135.037 Y92.880
G1 X134.533 Y92.541
G1 X133.914 Y92.417
G1 X133.294 Y92.541
G1 X132.790 Y92.880
G1 X132.452 Y93.383
G1 X132.328 Y94.003
G1 X132.452 Y94.622
G1 X132.790 Y95.126
G1 X133.294 Y95.465
G1 X133.914 Y95.589
G1 X134.533 Y95.465
G1 X135.037 Y95.126
G1 X135.376 Y94.622
G1 X135.499 Y94.003
G1 Z8

G0 X128.980 Y94.003
G1 Z0

G1 X128.856 Y93.383
G1 X128.518 Y92.880
G1 X128.014 Y92.541
G1 X127.394 Y92.417
G1 X126.775 Y92.541
G1 X126.271 Y92.880
G1 X125.933 Y93.383
G1 X125.809 Y94.003
G1 X125.933 Y94.622
G1 X126.271 Y95.126
G1 X126.775 Y95.465
G1 X127.394 Y95.589
G1 X128.014 Y95.465
G1 X128.518 Y95.126
G1 X128.856 Y94.622
G1 X128.980 Y94.003
G1 Z8

G0 X122.461 Y94.003
G1 Z0

G1 X122.337 Y93.383
G1 X121.998 Y92.880
G1 X121.495 Y92.541
G1 X120.875 Y92.417
G1 X120.256 Y92.541
G1 X119.752 Y92.880
G1 X119.413 Y93.383
G1 X119.289 Y94.003
G1 X119.413 Y94.622
G1 X119.752 Y95.126
G1 X120.256 Y95.465
G1 X120.875 Y95.589
G1 X121.495 Y95.465
G1 X121.998 Y95.126
G1 X122.337 Y94.622
G1 X122.461 Y94.003
G1 Z8

G0 X115.906 Y94.003
G1 Z0

G1 X115.783 Y93.383
G1 X115.444 Y92.880
G1 X114.940 Y92.541
G1 X114.321 Y92.417
G1 X113.701 Y92.541
G1 X113.197 Y92.880
G1 X112.859 Y93.383
G1 X112.735 Y94.003
G1 X112.859 Y94.622
G1 X113.197 Y95.126
G1 X113.701 Y95.465
G1 X114.321 Y95.589
G1 X114.940 Y95.465
G1 X115.444 Y95.126
G1 X115.783 Y94.622
G1 X115.906 Y94.003
G1 Z8

G0 X109.387 Y94.003
G1 Z0

G1 X109.263 Y93.383
G1 X108.925 Y92.880
G1 X108.421 Y92.541
G1 X107.801 Y92.417
G1 X107.182 Y92.541
G1 X106.678 Y92.880
G1 X106.340 Y93.383
G1 X106.216 Y94.003
G1 X106.340 Y94.622
G1 X106.678 Y95.126
G1 X107.182 Y95.465
G1 X107.801 Y95.589
G1 X108.421 Y95.465
G1 X108.925 Y95.126
G1 X109.263 Y94.622
G1 X109.387 Y94.003
G1 Z8

G0 X102.868 Y94.003
G1 Z0

G1 X102.739 Y93.383
G1 X102.392 Y92.880
G1 X101.887 Y92.541
G1 X101.282 Y92.417
G1 X100.663 Y92.541
G1 X100.159 Y92.880
G1 X99.820 Y93.383
G1 X99.697 Y94.003
G1 X99.820 Y94.622
G1 X100.159 Y95.126
G1 X100.663 Y95.465
G1 X101.282 Y95.589
G1 X101.902 Y95.465
G1 X102.406 Y95.126
G1 X102.744 Y94.622
G1 X102.868 Y94.003
G1 Z8

G0 X96.314 Y94.003
G1 Z0

G1 X96.190 Y93.383
G1 X95.851 Y92.880
G1 X95.347 Y92.541
G1 X94.728 Y92.417
G1 X94.108 Y92.541
G1 X93.605 Y92.880
G1 X93.266 Y93.383
G1 X93.142 Y94.003
G1 X93.266 Y94.622
G1 X93.605 Y95.126
G1 X94.108 Y95.465
G1 X94.728 Y95.589
G1 X95.347 Y95.465
G1 X95.851 Y95.126
G1 X96.190 Y94.622
G1 X96.314 Y94.003
G1 Z8

G0 X89.794 Y94.003
G1 Z0

G1 X89.670 Y93.383
G1 X89.332 Y92.880
G1 X88.828 Y92.541
G1 X88.209 Y92.417
G1 X87.589 Y92.541
G1 X87.085 Y92.880
G1 X86.747 Y93.383
G1 X86.623 Y94.003
G1 X86.747 Y94.622
G1 X87.085 Y95.126
G1 X87.589 Y95.465
G1 X88.209 Y95.589
G1 X88.828 Y95.465
G1 X89.332 Y95.126
G1 X89.670 Y94.622
G1 X89.794 Y94.003
G1 Z8

G0 X83.275 Y94.003
G1 Z0

G1 X83.146 Y93.383
G1 X82.799 Y92.880
G1 X82.294 Y92.541
G1 X81.689 Y92.417
G1 X81.070 Y92.541
G1 X80.566 Y92.880
G1 X80.227 Y93.383
G1 X80.104 Y94.003
G1 X80.227 Y94.622
G1 X80.566 Y95.126
G1 X81.070 Y95.465
G1 X81.689 Y95.589
G1 X82.309 Y95.465
G1 X82.813 Y95.126
G1 X83.151 Y94.622
G1 X83.275 Y94.003
G1 Z8

G0 X76.721 Y94.003
G1 Z0

G1 X76.597 Y93.383
G1 X76.258 Y92.880
G1 X75.754 Y92.541
G1 X75.135 Y92.417
G1 X74.515 Y92.541
G1 X74.012 Y92.880
G1 X73.673 Y93.383
G1 X73.549 Y94.003
G1 X73.673 Y94.622
G1 X74.012 Y95.126
G1 X74.515 Y95.465
G1 X75.135 Y95.589
G1 X75.754 Y95.465
G1 X76.258 Y95.126
G1 X76.597 Y94.622
G1 X76.721 Y94.003
G1 Z8

G0 X70.201 Y94.003
G1 Z0

G1 X70.078 Y93.383
G1 X69.739 Y92.880
G1 X69.235 Y92.541
G1 X68.616 Y92.417
G1 X67.996 Y92.541
G1 X67.492 Y92.880
G1 X67.154 Y93.383
G1 X67.030 Y94.003
G1 X67.154 Y94.622
G1 X67.492 Y95.126
G1 X67.996 Y95.465
G1 X68.616 Y95.589
G1 X69.235 Y95.465
G1 X69.739 Y95.126
G1 X70.078 Y94.622
G1 X70.201 Y94.003
G1 Z8

G0 X63.682 Y94.003
G1 Z0

G1 X63.553 Y93.383
G1 X63.206 Y92.880
G1 X62.701 Y92.541
G1 X62.096 Y92.417
G1 X61.477 Y92.541
G1 X60.973 Y92.880
G1 X60.635 Y93.383
G1 X60.511 Y94.003
G1 X60.635 Y94.622
G1 X60.973 Y95.126
G1 X61.477 Y95.465
G1 X62.096 Y95.589
G1 X62.716 Y95.465
G1 X63.220 Y95.126
G1 X63.558 Y94.622
G1 X63.682 Y94.003
G1 Z8

G0 X57.128 Y94.003
G1 Z0

G1 X57.004 Y93.383
G1 X56.665 Y92.880
G1 X56.161 Y92.541
G1 X55.542 Y92.417
G1 X54.923 Y92.541
G1 X54.419 Y92.880
G1 X54.080 Y93.383
G1 X53.956 Y94.003
G1 X54.080 Y94.622
G1 X54.419 Y95.126
G1 X54.923 Y95.465
G1 X55.542 Y95.589
G1 X56.161 Y95.465
G1 X56.665 Y95.126
G1 X57.004 Y94.622
G1 X57.128 Y94.003
G1 Z8

G0 X50.608 Y94.003
G1 Z0

G1 X50.485 Y93.383
G1 X50.146 Y92.880
G1 X49.642 Y92.541
G1 X49.023 Y92.417
G1 X48.403 Y92.541
G1 X47.899 Y92.880
G1 X47.561 Y93.383
G1 X47.437 Y94.003
G1 X47.561 Y94.622
G1 X47.899 Y95.126
G1 X48.403 Y95.465
G1 X49.023 Y95.589
G1 X49.642 Y95.465
G1 X50.146 Y95.126
G1 X50.485 Y94.622
G1 X50.608 Y94.003
G1 Z8

G0 X44.089 Y94.003
G1 Z0

G1 X43.960 Y93.383
G1 X43.614 Y92.880
G1 X43.108 Y92.541
G1 X42.503 Y92.417
G1 X41.884 Y92.541
G1 X41.380 Y92.880
G1 X41.042 Y93.383
G1 X40.918 Y94.003
G1 X41.042 Y94.622
G1 X41.380 Y95.126
G1 X41.884 Y95.465
G1 X42.503 Y95.589
G1 X43.123 Y95.465
G1 X43.627 Y95.126
G1 X43.965 Y94.622
G1 X44.089 Y94.003
G1 Z8

G0 X37.535 Y94.003
G1 Z0

G1 X37.411 Y93.383
G1 X37.072 Y92.880
G1 X36.568 Y92.541
G1 X35.949 Y92.417
G1 X35.330 Y92.541
G1 X34.826 Y92.880
G1 X34.487 Y93.383
G1 X34.363 Y94.003
G1 X34.487 Y94.622
G1 X34.826 Y95.126
G1 X35.330 Y95.465
G1 X35.949 Y95.589
G1 X36.568 Y95.465
G1 X37.072 Y95.126
G1 X37.411 Y94.622
G1 X37.535 Y94.003
G1 Z8

G0 X37.464 Y87.484
G1 Z0

G1 X37.347 Y88.057
G1 X37.028 Y88.527
G1 X36.557 Y88.846
G1 X35.984 Y88.964
G1 X35.411 Y88.846
G1 X34.940 Y88.527
G1 X34.621 Y88.057
G1 X34.504 Y87.484
G1 X34.621 Y86.910
G1 X34.940 Y86.440
G1 X35.411 Y86.121
G1 X35.984 Y86.004
G1 X36.557 Y86.121
G1 X37.028 Y86.440
G1 X37.347 Y86.910
G1 X37.464 Y87.484
G1 Z8

G0 X43.984 Y87.484
G1 Z0

G1 X43.866 Y88.057
G1 X43.547 Y88.527
G1 X43.077 Y88.846
G1 X42.503 Y88.964
G1 X41.930 Y88.846
G1 X41.460 Y88.527
G1 X41.141 Y88.057
G1 X41.023 Y87.484
G1 X41.141 Y86.910
G1 X41.460 Y86.440
G1 X41.930 Y86.121
G1 X42.503 Y86.004
G1 X43.077 Y86.121
G1 X43.547 Y86.440
G1 X43.866 Y86.910
G1 X43.984 Y87.484
G1 Z8

G0 X50.503 Y87.484
G1 Z0

G1 X50.385 Y88.057
G1 X50.067 Y88.527
G1 X49.596 Y88.846
G1 X49.023 Y88.964
G1 X48.450 Y88.846
G1 X47.979 Y88.527
G1 X47.660 Y88.057
G1 X47.543 Y87.484
G1 X47.660 Y86.910
G1 X47.979 Y86.440
G1 X48.450 Y86.121
G1 X49.023 Y86.004
G1 X49.596 Y86.121
G1 X50.067 Y86.440
G1 X50.385 Y86.910
G1 X50.503 Y87.484
G1 Z8

G0 X57.057 Y87.484
G1 Z0

G1 X56.940 Y88.057
G1 X56.621 Y88.527
G1 X56.150 Y88.846
G1 X55.577 Y88.964
G1 X55.004 Y88.846
G1 X54.533 Y88.527
G1 X54.214 Y88.057
G1 X54.097 Y87.484
G1 X54.214 Y86.910
G1 X54.533 Y86.440
G1 X55.004 Y86.121
G1 X55.577 Y86.004
G1 X56.150 Y86.121
G1 X56.621 Y86.440
G1 X56.940 Y86.910
G1 X57.057 Y87.484
G1 Z8

G0 X63.576 Y87.484
G1 Z0

G1 X63.459 Y88.057
G1 X63.140 Y88.527
G1 X62.670 Y88.846
G1 X62.096 Y88.964
G1 X61.523 Y88.846
G1 X61.052 Y88.527
G1 X60.734 Y88.057
G1 X60.616 Y87.484
G1 X60.734 Y86.910
G1 X61.052 Y86.440
G1 X61.523 Y86.121
G1 X62.096 Y86.004
G1 X62.670 Y86.121
G1 X63.140 Y86.440
G1 X63.459 Y86.910
G1 X63.576 Y87.484
G1 Z8

G0 X70.096 Y87.484
G1 Z0

G1 X69.978 Y88.057
G1 X69.660 Y88.527
G1 X69.189 Y88.846
G1 X68.616 Y88.964
G1 X68.042 Y88.846
G1 X67.572 Y88.527
G1 X67.253 Y88.057
G1 X67.136 Y87.484
G1 X67.253 Y86.910
G1 X67.572 Y86.440
G1 X68.042 Y86.121
G1 X68.616 Y86.004
G1 X69.189 Y86.121
G1 X69.660 Y86.440
G1 X69.978 Y86.910
G1 X70.096 Y87.484
G1 Z8

G0 X76.650 Y87.484
G1 Z0

G1 X76.533 Y88.057
G1 X76.214 Y88.527
G1 X75.743 Y88.846
G1 X75.170 Y88.964
G1 X74.597 Y88.846
G1 X74.126 Y88.527
G1 X73.807 Y88.057
G1 X73.690 Y87.484
G1 X73.807 Y86.910
G1 X74.126 Y86.440
G1 X74.597 Y86.121
G1 X75.170 Y86.004
G1 X75.743 Y86.121
G1 X76.214 Y86.440
G1 X76.533 Y86.910
G1 X76.650 Y87.484
G1 Z8

G0 X83.169 Y87.484
G1 Z0

G1 X83.052 Y88.057
G1 X82.733 Y88.527
G1 X82.263 Y88.846
G1 X81.689 Y88.964
G1 X81.116 Y88.846
G1 X80.645 Y88.527
G1 X80.327 Y88.057
G1 X80.209 Y87.484
G1 X80.327 Y86.910
G1 X80.645 Y86.440
G1 X81.116 Y86.121
G1 X81.689 Y86.004
G1 X82.263 Y86.121
G1 X82.733 Y86.440
G1 X83.052 Y86.910
G1 X83.169 Y87.484
G1 Z8

G0 X89.689 Y87.484
G1 Z0

G1 X89.571 Y88.057
G1 X89.253 Y88.527
G1 X88.782 Y88.846
G1 X88.209 Y88.964
G1 X87.635 Y88.846
G1 X87.165 Y88.527
G1 X86.846 Y88.057
G1 X86.729 Y87.484
G1 X86.846 Y86.910
G1 X87.165 Y86.440
G1 X87.635 Y86.121
G1 X88.209 Y86.004
G1 X88.782 Y86.121
G1 X89.253 Y86.440
G1 X89.571 Y86.910
G1 X89.689 Y87.484
G1 Z8

G0 X96.243 Y87.484
G1 Z0

G1 X96.126 Y88.057
G1 X95.807 Y88.527
G1 X95.336 Y88.846
G1 X94.763 Y88.964
G1 X94.190 Y88.846
G1 X93.719 Y88.527
G1 X93.400 Y88.057
G1 X93.283 Y87.484
G1 X93.400 Y86.910
G1 X93.719 Y86.440
G1 X94.190 Y86.121
G1 X94.763 Y86.004
G1 X95.336 Y86.121
G1 X95.807 Y86.440
G1 X96.126 Y86.910
G1 X96.243 Y87.484
G1 Z8

G0 X102.762 Y87.484
G1 Z0

G1 X102.645 Y88.057
G1 X102.326 Y88.527
G1 X101.855 Y88.846
G1 X101.282 Y88.964
G1 X100.709 Y88.846
G1 X100.238 Y88.527
G1 X99.919 Y88.057
G1 X99.802 Y87.484
G1 X99.919 Y86.910
G1 X100.238 Y86.440
G1 X100.709 Y86.121
G1 X101.282 Y86.004
G1 X101.855 Y86.121
G1 X102.326 Y86.440
G1 X102.645 Y86.910
G1 X102.762 Y87.484
G1 Z8

G0 X109.282 Y87.484
G1 Z0

G1 X109.164 Y88.057
G1 X108.845 Y88.527
G1 X108.375 Y88.846
G1 X107.801 Y88.964
G1 X107.228 Y88.846
G1 X106.758 Y88.527
G1 X106.439 Y88.057
G1 X106.321 Y87.484
G1 X106.439 Y86.910
G1 X106.758 Y86.440
G1 X107.228 Y86.121
G1 X107.801 Y86.004
G1 X108.375 Y86.121
G1 X108.845 Y86.440
G1 X109.164 Y86.910
G1 X109.282 Y87.484
G1 Z8

G0 X115.836 Y87.484
G1 Z0

G1 X115.719 Y88.057
G1 X115.400 Y88.527
G1 X114.929 Y88.846
G1 X114.356 Y88.964
G1 X113.783 Y88.846
G1 X113.312 Y88.527
G1 X112.993 Y88.057
G1 X112.876 Y87.484
G1 X112.993 Y86.910
G1 X113.312 Y86.440
G1 X113.783 Y86.121
G1 X114.356 Y86.004
G1 X114.929 Y86.121
G1 X115.400 Y86.440
G1 X115.719 Y86.910
G1 X115.836 Y87.484
G1 Z8

G0 X122.355 Y87.484
G1 Z0

G1 X122.238 Y88.057
G1 X121.919 Y88.527
G1 X121.448 Y88.846
G1 X120.875 Y88.964
G1 X120.302 Y88.846
G1 X119.831 Y88.527
G1 X119.512 Y88.057
G1 X119.395 Y87.484
G1 X119.512 Y86.910
G1 X119.831 Y86.440
G1 X120.302 Y86.121
G1 X120.875 Y86.004
G1 X121.448 Y86.121
G1 X121.919 Y86.440
G1 X122.238 Y86.910
G1 X122.355 Y87.484
G1 Z8

G0 X128.874 Y87.484
G1 Z0

G1 X128.757 Y88.057
G1 X128.438 Y88.527
G1 X127.968 Y88.846
G1 X127.394 Y88.964
G1 X126.821 Y88.846
G1 X126.350 Y88.527
G1 X126.032 Y88.057
G1 X125.914 Y87.484
G1 X126.032 Y86.910
G1 X126.350 Y86.440
G1 X126.821 Y86.121
G1 X127.394 Y86.004
G1 X127.968 Y86.121
G1 X128.438 Y86.440
G1 X128.757 Y86.910
G1 X128.874 Y87.484
G1 Z8

G0 X135.429 Y87.484
G1 Z0

G1 X135.312 Y88.057
G1 X134.993 Y88.527
G1 X134.522 Y88.846
G1 X133.949 Y88.964
G1 X133.376 Y88.846
G1 X132.905 Y88.527
G1 X132.586 Y88.057
G1 X132.469 Y87.484
G1 X132.586 Y86.910
G1 X132.905 Y86.440
G1 X133.376 Y86.121
G1 X133.949 Y86.004
G1 X134.522 Y86.121
G1 X134.993 Y86.440
G1 X135.312 Y86.910
G1 X135.429 Y87.484
G1 Z8

G0 X141.948 Y87.484
G1 Z0

G1 X141.831 Y88.057
G1 X141.512 Y88.527
G1 X141.041 Y88.846
G1 X140.468 Y88.964
G1 X139.895 Y88.846
G1 X139.424 Y88.527
G1 X139.105 Y88.057
G1 X138.988 Y87.484
G1 X139.105 Y86.910
G1 X139.424 Y86.440
G1 X139.895 Y86.121
G1 X140.468 Y86.004
G1 X141.041 Y86.121
G1 X141.512 Y86.440
G1 X141.831 Y86.910
G1 X141.948 Y87.484
G1 Z8

G0 X148.467 Y87.484
G1 Z0

G1 X148.350 Y88.057
G1 X148.031 Y88.527
G1 X147.561 Y88.846
G1 X146.987 Y88.964
G1 X146.414 Y88.846
G1 X145.943 Y88.527
G1 X145.625 Y88.057
G1 X145.507 Y87.484
G1 X145.625 Y86.910
G1 X145.943 Y86.440
G1 X146.414 Y86.121
G1 X146.987 Y86.004
G1 X147.561 Y86.121
G1 X148.031 Y86.440
G1 X148.350 Y86.910
G1 X148.467 Y87.484
G1 Z8

G0 X155.022 Y87.484
G1 Z0

G1 X154.905 Y88.057
G1 X154.586 Y88.527
G1 X154.115 Y88.846
G1 X153.542 Y88.964
G1 X152.969 Y88.846
G1 X152.498 Y88.527
G1 X152.179 Y88.057
G1 X152.062 Y87.484
G1 X152.179 Y86.910
G1 X152.498 Y86.440
G1 X152.969 Y86.121
G1 X153.542 Y86.004
G1 X154.115 Y86.121
G1 X154.586 Y86.440
G1 X154.905 Y86.910
G1 X155.022 Y87.484
G1 Z8

G0 X161.541 Y87.484
G1 Z0

G1 X161.424 Y88.057
G1 X161.105 Y88.527
G1 X160.634 Y88.846
G1 X160.061 Y88.964
G1 X159.488 Y88.846
G1 X159.017 Y88.527
G1 X158.698 Y88.057
G1 X158.581 Y87.484
G1 X158.698 Y86.910
G1 X159.017 Y86.440
G1 X159.488 Y86.121
G1 X160.061 Y86.004
G1 X160.634 Y86.121
G1 X161.105 Y86.440
G1 X161.424 Y86.910
G1 X161.541 Y87.484
G1 Z8

G0 X168.060 Y87.484
G1 Z0

G1 X167.943 Y88.057
G1 X167.624 Y88.527
G1 X167.153 Y88.846
G1 X166.580 Y88.964
G1 X166.007 Y88.846
G1 X165.536 Y88.527
G1 X165.218 Y88.057
G1 X165.100 Y87.484
G1 X165.218 Y86.910
G1 X165.536 Y86.440
G1 X166.007 Y86.121
G1 X166.580 Y86.004
G1 X167.153 Y86.121
G1 X167.624 Y86.440
G1 X167.943 Y86.910
G1 X168.060 Y87.484
G1 Z8

G0 X174.615 Y87.484
G1 Z0

G1 X174.498 Y88.057
G1 X174.179 Y88.527
G1 X173.708 Y88.846
G1 X173.135 Y88.964
G1 X172.562 Y88.846
G1 X172.091 Y88.527
G1 X171.772 Y88.057
G1 X171.655 Y87.484
G1 X171.772 Y86.910
G1 X172.091 Y86.440
G1 X172.562 Y86.121
G1 X173.135 Y86.004
G1 X173.708 Y86.121
G1 X174.179 Y86.440
G1 X174.498 Y86.910
G1 X174.615 Y87.484
G1 Z8

G0 X181.134 Y87.484
G1 Z0

G1 X181.017 Y88.057
G1 X180.698 Y88.527
G1 X180.227 Y88.846
G1 X179.654 Y88.964
G1 X179.081 Y88.846
G1 X178.610 Y88.527
G1 X178.291 Y88.057
G1 X178.174 Y87.484
G1 X178.291 Y86.910
G1 X178.610 Y86.440
G1 X179.081 Y86.121
G1 X179.654 Y86.004
G1 X180.227 Y86.121
G1 X180.698 Y86.440
G1 X181.017 Y86.910
G1 X181.134 Y87.484
G1 Z8

G0 X187.653 Y87.484
G1 Z0

G1 X187.536 Y88.057
G1 X187.217 Y88.527
G1 X186.746 Y88.846
G1 X186.173 Y88.964
G1 X185.600 Y88.846
G1 X185.129 Y88.527
G1 X184.810 Y88.057
G1 X184.693 Y87.484
G1 X184.810 Y86.910
G1 X185.129 Y86.440
G1 X185.600 Y86.121
G1 X186.173 Y86.004
G1 X186.746 Y86.121
G1 X187.217 Y86.440
G1 X187.536 Y86.910
G1 X187.653 Y87.484
G1 Z8

G0 X194.208 Y87.484
G1 Z0

G1 X194.090 Y88.057
G1 X193.772 Y88.527
G1 X193.301 Y88.846
G1 X192.728 Y88.964
G1 X192.154 Y88.846
G1 X191.684 Y88.527
G1 X191.365 Y88.057
G1 X191.248 Y87.484
G1 X191.365 Y86.910
G1 X191.684 Y86.440
G1 X192.154 Y86.121
G1 X192.728 Y86.004
G1 X193.301 Y86.121
G1 X193.772 Y86.440
G1 X194.090 Y86.910
G1 X194.208 Y87.484
G1 Z8

G0 X200.727 Y87.484
G1 Z0

G1 X200.610 Y88.057
G1 X200.291 Y88.527
G1 X199.820 Y88.846
G1 X199.247 Y88.964
G1 X198.674 Y88.846
G1 X198.203 Y88.527
G1 X197.884 Y88.057
G1 X197.767 Y87.484
G1 X197.884 Y86.910
G1 X198.203 Y86.440
G1 X198.674 Y86.121
G1 X199.247 Y86.004
G1 X199.820 Y86.121
G1 X200.291 Y86.440
G1 X200.610 Y86.910
G1 X200.727 Y87.484
G1 Z8

G0 X200.656 Y80.964
G1 Z0

G1 X200.545 Y80.417
G1 X200.242 Y79.969
G1 X199.794 Y79.666
G1 X199.247 Y79.555
G1 X198.700 Y79.666
G1 X198.251 Y79.969
G1 X197.949 Y80.417
G1 X197.837 Y80.964
G1 X197.949 Y81.512
G1 X198.251 Y81.960
G1 X198.700 Y82.263
G1 X199.247 Y82.374
G1 X199.794 Y82.263
G1 X200.242 Y81.960
G1 X200.545 Y81.512
G1 X200.656 Y80.964
G1 Z8

G0 X194.102 Y80.964
G1 Z0

G1 X193.991 Y80.417
G1 X193.688 Y79.969
G1 X193.240 Y79.666
G1 X192.692 Y79.555
G1 X192.145 Y79.666
G1 X191.697 Y79.969
G1 X191.394 Y80.417
G1 X191.283 Y80.964
G1 X191.394 Y81.512
G1 X191.697 Y81.960
G1 X192.145 Y82.263
G1 X192.692 Y82.374
G1 X193.240 Y82.263
G1 X193.688 Y81.960
G1 X193.991 Y81.512
G1 X194.102 Y80.964
G1 Z8

G0 X187.583 Y80.964
G1 Z0

G1 X187.472 Y80.417
G1 X187.169 Y79.969
G1 X186.721 Y79.666
G1 X186.173 Y79.555
G1 X185.626 Y79.666
G1 X185.178 Y79.969
G1 X184.875 Y80.417
G1 X184.764 Y80.964
G1 X184.875 Y81.512
G1 X185.178 Y81.960
G1 X185.626 Y82.263
G1 X186.173 Y82.374
G1 X186.721 Y82.263
G1 X187.169 Y81.960
G1 X187.472 Y81.512
G1 X187.583 Y80.964
G1 Z8

G0 X181.064 Y80.964
G1 Z0

G1 X180.952 Y80.417
G1 X180.649 Y79.969
G1 X180.201 Y79.666
G1 X179.654 Y79.555
G1 X179.107 Y79.666
G1 X178.658 Y79.969
G1 X178.356 Y80.417
G1 X178.244 Y80.964
G1 X178.356 Y81.512
G1 X178.658 Y81.960
G1 X179.107 Y82.263
G1 X179.654 Y82.374
G1 X180.201 Y82.263
G1 X180.649 Y81.960
G1 X180.952 Y81.512
G1 X181.064 Y80.964
G1 Z8

G0 X174.509 Y80.964
G1 Z0

G1 X174.398 Y80.417
G1 X174.095 Y79.969
G1 X173.647 Y79.666
G1 X173.100 Y79.555
G1 X172.552 Y79.666
G1 X172.104 Y79.969
G1 X171.801 Y80.417
G1 X171.690 Y80.964
G1 X171.801 Y81.512
G1 X172.104 Y81.960
G1 X172.552 Y82.263
G1 X173.100 Y82.374
G1 X173.647 Y82.263
G1 X174.095 Y81.960
G1 X174.398 Y81.512
G1 X174.509 Y80.964
G1 Z8

G0 X167.990 Y80.964
G1 Z0

G1 X167.879 Y80.417
G1 X167.576 Y79.969
G1 X167.128 Y79.666
G1 X166.580 Y79.555
G1 X166.033 Y79.666
G1 X165.585 Y79.969
G1 X165.282 Y80.417
G1 X165.171 Y80.964
G1 X165.282 Y81.512
G1 X165.585 Y81.960
G1 X166.033 Y82.263
G1 X166.580 Y82.374
G1 X167.128 Y82.263
G1 X167.576 Y81.960
G1 X167.879 Y81.512
G1 X167.990 Y80.964
G1 Z8

G0 X161.471 Y80.964
G1 Z0

G1 X161.359 Y80.417
G1 X161.057 Y79.969
G1 X160.608 Y79.666
G1 X160.061 Y79.555
G1 X159.514 Y79.666
G1 X159.066 Y79.969
G1 X158.763 Y80.417
G1 X158.651 Y80.964
G1 X158.763 Y81.512
G1 X159.066 Y81.960
G1 X159.514 Y82.263
G1 X160.061 Y82.374
G1 X160.608 Y82.263
G1 X161.057 Y81.960
G1 X161.359 Y81.512
G1 X161.471 Y80.964
G1 Z8

G0 X154.916 Y80.964
G1 Z0

G1 X154.805 Y80.417
G1 X154.502 Y79.969
G1 X154.054 Y79.666
G1 X153.507 Y79.555
G1 X152.959 Y79.666
G1 X152.511 Y79.969
G1 X152.208 Y80.417
G1 X152.097 Y80.964
G1 X152.208 Y81.512
G1 X152.511 Y81.960
G1 X152.959 Y82.263
G1 X153.507 Y82.374
G1 X154.054 Y82.263
G1 X154.502 Y81.960
G1 X154.805 Y81.512
G1 X154.916 Y80.964
G1 Z8

G0 X148.397 Y80.964
G1 Z0

G1 X148.286 Y80.417
G1 X147.983 Y79.969
G1 X147.535 Y79.666
G1 X146.987 Y79.555
G1 X146.440 Y79.666
G1 X145.992 Y79.969
G1 X145.689 Y80.417
G1 X145.578 Y80.964
G1 X145.689 Y81.512
G1 X145.992 Y81.960
G1 X146.440 Y82.263
G1 X146.987 Y82.374
G1 X147.535 Y82.263
G1 X147.983 Y81.960
G1 X148.286 Y81.512
G1 X148.397 Y80.964
G1 Z8

G0 X141.878 Y80.964
G1 Z0

G1 X141.766 Y80.417
G1 X141.464 Y79.969
G1 X141.015 Y79.666
G1 X140.468 Y79.555
G1 X139.921 Y79.666
G1 X139.473 Y79.969
G1 X139.170 Y80.417
G1 X139.059 Y80.964
G1 X139.170 Y81.512
G1 X139.473 Y81.960
G1 X139.921 Y82.263
G1 X140.468 Y82.374
G1 X141.015 Y82.263
G1 X141.464 Y81.960
G1 X141.766 Y81.512
G1 X141.878 Y80.964
G1 Z8

G0 X135.323 Y80.964
G1 Z0

G1 X135.212 Y80.417
G1 X134.909 Y79.969
G1 X134.461 Y79.666
G1 X133.914 Y79.555
G1 X133.366 Y79.666
G1 X132.918 Y79.969
G1 X132.615 Y80.417
G1 X132.504 Y80.964
G1 X132.615 Y81.512
G1 X132.918 Y81.960
G1 X133.366 Y82.263
G1 X133.914 Y82.374
G1 X134.461 Y82.263
G1 X134.909 Y81.960
G1 X135.212 Y81.512
G1 X135.323 Y80.964
G1 Z8

G0 X128.804 Y80.964
G1 Z0

G1 X128.693 Y80.417
G1 X128.390 Y79.969
G1 X127.942 Y79.666
G1 X127.394 Y79.555
G1 X126.847 Y79.666
G1 X126.399 Y79.969
G1 X126.096 Y80.417
G1 X125.985 Y80.964
G1 X126.096 Y81.512
G1 X126.399 Y81.960
G1 X126.847 Y82.263
G1 X127.394 Y82.374
G1 X127.942 Y82.263
G1 X128.390 Y81.960
G1 X128.693 Y81.512
G1 X128.804 Y80.964
G1 Z8

G0 X122.285 Y80.964
G1 Z0

G1 X122.174 Y80.417
G1 X121.871 Y79.969
G1 X121.423 Y79.666
G1 X120.875 Y79.555
G1 X120.328 Y79.666
G1 X119.880 Y79.969
G1 X119.577 Y80.417
G1 X119.466 Y80.964
G1 X119.577 Y81.512
G1 X119.880 Y81.960
G1 X120.328 Y82.263
G1 X120.875 Y82.374
G1 X121.423 Y82.263
G1 X121.871 Y81.960
G1 X122.174 Y81.512
G1 X122.285 Y80.964
G1 Z8

G0 X115.730 Y80.964
G1 Z0

G1 X115.619 Y80.417
G1 X115.316 Y79.969
G1 X114.868 Y79.666
G1 X114.321 Y79.555
G1 X113.773 Y79.666
G1 X113.325 Y79.969
G1 X113.022 Y80.417
G1 X112.911 Y80.964
G1 X113.022 Y81.512
G1 X113.325 Y81.960
G1 X113.773 Y82.263
G1 X114.321 Y82.374
G1 X114.868 Y82.263
G1 X115.316 Y81.960
G1 X115.619 Y81.512
G1 X115.730 Y80.964
G1 Z8

G0 X109.211 Y80.964
G1 Z0

G1 X109.100 Y80.417
G1 X108.797 Y79.969
G1 X108.349 Y79.666
G1 X107.801 Y79.555
G1 X107.254 Y79.666
G1 X106.806 Y79.969
G1 X106.503 Y80.417
G1 X106.392 Y80.964
G1 X106.503 Y81.512
G1 X106.806 Y81.960
G1 X107.254 Y82.263
G1 X107.801 Y82.374
G1 X108.349 Y82.263
G1 X108.797 Y81.960
G1 X109.100 Y81.512
G1 X109.211 Y80.964
G1 Z8

G0 X102.692 Y80.964
G1 Z0

G1 X102.581 Y80.417
G1 X102.278 Y79.969
G1 X101.830 Y79.666
G1 X101.282 Y79.555
G1 X100.735 Y79.666
G1 X100.287 Y79.969
G1 X99.984 Y80.417
G1 X99.873 Y80.964
G1 X99.984 Y81.512
G1 X100.287 Y81.960
G1 X100.735 Y82.263
G1 X101.282 Y82.374
G1 X101.830 Y82.263
G1 X102.278 Y81.960
G1 X102.581 Y81.512
G1 X102.692 Y80.964
G1 Z8

G0 X96.137 Y80.964
G1 Z0

G1 X96.026 Y80.417
G1 X95.723 Y79.969
G1 X95.275 Y79.666
G1 X94.728 Y79.555
G1 X94.180 Y79.666
G1 X93.732 Y79.969
G1 X93.429 Y80.417
G1 X93.318 Y80.964
G1 X93.429 Y81.512
G1 X93.732 Y81.960
G1 X94.180 Y82.263
G1 X94.728 Y82.374
G1 X95.275 Y82.263
G1 X95.723 Y81.960
G1 X96.026 Y81.512
G1 X96.137 Y80.964
G1 Z8

G0 X89.618 Y80.964
G1 Z0

G1 X89.507 Y80.417
G1 X89.204 Y79.969
G1 X88.756 Y79.666
G1 X88.209 Y79.555
G1 X87.661 Y79.666
G1 X87.213 Y79.969
G1 X86.910 Y80.417
G1 X86.799 Y80.964
G1 X86.910 Y81.512
G1 X87.213 Y81.960
G1 X87.661 Y82.263
G1 X88.209 Y82.374
G1 X88.756 Y82.263
G1 X89.204 Y81.960
G1 X89.507 Y81.512
G1 X89.618 Y80.964
G1 Z8

G0 X83.099 Y80.964
G1 Z0

G1 X82.988 Y80.417
G1 X82.685 Y79.969
G1 X82.237 Y79.666
G1 X81.689 Y79.555
G1 X81.142 Y79.666
G1 X80.694 Y79.969
G1 X80.391 Y80.417
G1 X80.280 Y80.964
G1 X80.391 Y81.512
G1 X80.694 Y81.960
G1 X81.142 Y82.263
G1 X81.689 Y82.374
G1 X82.237 Y82.263
G1 X82.685 Y81.960
G1 X82.988 Y81.512
G1 X83.099 Y80.964
G1 Z8

G0 X76.544 Y80.964
G1 Z0

G1 X76.433 Y80.417
G1 X76.130 Y79.969
G1 X75.682 Y79.666
G1 X75.135 Y79.555
G1 X74.588 Y79.666
G1 X74.139 Y79.969
G1 X73.837 Y80.417
G1 X73.725 Y80.964
G1 X73.837 Y81.512
G1 X74.139 Y81.960
G1 X74.588 Y82.263
G1 X75.135 Y82.374
G1 X75.682 Y82.263
G1 X76.130 Y81.960
G1 X76.433 Y81.512
G1 X76.544 Y80.964
G1 Z8

G0 X70.025 Y80.964
G1 Z0

G1 X69.914 Y80.417
G1 X69.611 Y79.969
G1 X69.163 Y79.666
G1 X68.616 Y79.555
G1 X68.068 Y79.666
G1 X67.620 Y79.969
G1 X67.317 Y80.417
G1 X67.206 Y80.964
G1 X67.317 Y81.512
G1 X67.620 Y81.960
G1 X68.068 Y82.263
G1 X68.616 Y82.374
G1 X69.163 Y82.263
G1 X69.611 Y81.960
G1 X69.914 Y81.512
G1 X70.025 Y80.964
G1 Z8

G0 X63.506 Y80.964
G1 Z0

G1 X63.395 Y80.417
G1 X63.092 Y79.969
G1 X62.644 Y79.666
G1 X62.096 Y79.555
G1 X61.549 Y79.666
G1 X61.101 Y79.969
G1 X60.798 Y80.417
G1 X60.687 Y80.964
G1 X60.798 Y81.512
G1 X61.101 Y81.960
G1 X61.549 Y82.263
G1 X62.096 Y82.374
G1 X62.644 Y82.263
G1 X63.092 Y81.960
G1 X63.395 Y81.512
G1 X63.506 Y80.964
G1 Z8

G0 X56.952 Y80.964
G1 Z0

G1 X56.840 Y80.417
G1 X56.537 Y79.969
G1 X56.089 Y79.666
G1 X55.542 Y79.555
G1 X54.995 Y79.666
G1 X54.546 Y79.969
G1 X54.244 Y80.417
G1 X54.132 Y80.964
G1 X54.244 Y81.512
G1 X54.546 Y81.960
G1 X54.995 Y82.263
G1 X55.542 Y82.374
G1 X56.089 Y82.263
G1 X56.537 Y81.960
G1 X56.840 Y81.512
G1 X56.952 Y80.964
G1 Z8

G0 X50.432 Y80.964
G1 Z0

G1 X50.321 Y80.417
G1 X50.018 Y79.969
G1 X49.570 Y79.666
G1 X49.023 Y79.555
G1 X48.475 Y79.666
G1 X48.027 Y79.969
G1 X47.724 Y80.417
G1 X47.613 Y80.964
G1 X47.724 Y81.512
G1 X48.027 Y81.960
G1 X48.475 Y82.263
G1 X49.023 Y82.374
G1 X49.570 Y82.263
G1 X50.018 Y81.960
G1 X50.321 Y81.512
G1 X50.432 Y80.964
G1 Z8

G0 X43.913 Y80.964
G1 Z0

G1 X43.802 Y80.417
G1 X43.499 Y79.969
G1 X43.051 Y79.666
G1 X42.503 Y79.555
G1 X41.956 Y79.666
G1 X41.508 Y79.969
G1 X41.205 Y80.417
G1 X41.094 Y80.964
G1 X41.205 Y81.512
G1 X41.508 Y81.960
G1 X41.956 Y82.263
G1 X42.503 Y82.374
G1 X43.051 Y82.263
G1 X43.499 Y81.960
G1 X43.802 Y81.512
G1 X43.913 Y80.964
G1 Z8

G0 X37.359 Y80.964
G1 Z0

G1 X37.247 Y80.417
G1 X36.945 Y79.969
G1 X36.496 Y79.666
G1 X35.949 Y79.555
G1 X35.402 Y79.666
G1 X34.954 Y79.969
G1 X34.651 Y80.417
G1 X34.539 Y80.964
G1 X34.651 Y81.512
G1 X34.954 Y81.960
G1 X35.402 Y82.263
G1 X35.949 Y82.374
G1 X36.496 Y82.263
G1 X36.945 Y81.960
G1 X37.247 Y81.512
G1 X37.359 Y80.964
G1 Z8

G0 X37.288 Y74.410
G1 Z0

G1 X37.183 Y74.926
G1 X36.900 Y75.339
G1 X36.485 Y75.614
G1 X35.984 Y75.714
G1 X35.468 Y75.609
G1 X35.055 Y75.326
G1 X34.780 Y74.911
G1 X34.680 Y74.410
G1 X34.785 Y73.909
G1 X35.068 Y73.494
G1 X35.483 Y73.211
G1 X35.984 Y73.106
G1 X36.485 Y73.211
G1 X36.900 Y73.494
G1 X37.183 Y73.909
G1 X37.288 Y74.410
G1 Z8

G0 X43.807 Y74.410
G1 Z0

G1 X43.703 Y74.926
G1 X43.420 Y75.339
G1 X43.005 Y75.614
G1 X42.503 Y75.714
G1 X42.002 Y75.609
G1 X41.587 Y75.326
G1 X41.304 Y74.911
G1 X41.200 Y74.410
G1 X41.304 Y73.909
G1 X41.587 Y73.494
G1 X42.002 Y73.211
G1 X42.503 Y73.106
G1 X43.005 Y73.211
G1 X43.420 Y73.494
G1 X43.703 Y73.909
G1 X43.807 Y74.410
G1 Z8

G0 X50.327 Y74.410
G1 Z0

G1 X50.222 Y74.926
G1 X49.939 Y75.339
G1 X49.524 Y75.614
G1 X49.023 Y75.714
G1 X48.507 Y75.609
G1 X48.093 Y75.326
G1 X47.819 Y74.911
G1 X47.719 Y74.410
G1 X47.823 Y73.909
G1 X48.106 Y73.494
G1 X48.522 Y73.211
G1 X49.023 Y73.106
G1 X49.539 Y73.211
G1 X49.952 Y73.494
G1 X50.227 Y73.909
G1 X50.327 Y74.410
G1 Z8

G0 X56.881 Y74.410
G1 Z0

G1 X56.776 Y74.926
G1 X56.493 Y75.339
G1 X56.078 Y75.614
G1 X55.577 Y75.714
G1 X55.061 Y75.609
G1 X54.648 Y75.326
G1 X54.373 Y74.911
G1 X54.273 Y74.410
G1 X54.378 Y73.909
G1 X54.661 Y73.494
G1 X55.076 Y73.211
G1 X55.577 Y73.106
G1 X56.078 Y73.211
G1 X56.493 Y73.494
G1 X56.776 Y73.909
G1 X56.881 Y74.410
G1 Z8

G0 X63.400 Y74.410
G1 Z0

G1 X63.296 Y74.926
G1 X63.013 Y75.339
G1 X62.597 Y75.614
G1 X62.096 Y75.714
G1 X61.580 Y75.609
G1 X61.167 Y75.326
G1 X60.892 Y74.911
G1 X60.793 Y74.410
G1 X60.897 Y73.909
G1 X61.180 Y73.494
G1 X61.595 Y73.211
G1 X62.096 Y73.106
G1 X62.597 Y73.211
G1 X63.013 Y73.494
G1 X63.296 Y73.909
G1 X63.400 Y74.410
G1 Z8

G0 X69.919 Y74.410
G1 Z0

G1 X69.815 Y74.926
G1 X69.532 Y75.339
G1 X69.117 Y75.614
G1 X68.616 Y75.714
G1 X68.100 Y75.609
G1 X67.686 Y75.326
G1 X67.411 Y74.911
G1 X67.312 Y74.410
G1 X67.416 Y73.909
G1 X67.699 Y73.494
G1 X68.115 Y73.211
G1 X68.616 Y73.106
G1 X69.132 Y73.211
G1 X69.545 Y73.494
G1 X69.820 Y73.909
G1 X69.919 Y74.410
G1 Z8

G0 X76.474 Y74.410
G1 Z0

G1 X76.369 Y74.926
G1 X76.086 Y75.339
G1 X75.671 Y75.614
G1 X75.170 Y75.714
G1 X74.654 Y75.609
G1 X74.241 Y75.326
G1 X73.966 Y74.911
G1 X73.866 Y74.410
G1 X73.971 Y73.909
G1 X74.254 Y73.494
G1 X74.669 Y73.211
G1 X75.170 Y73.106
G1 X75.671 Y73.211
G1 X76.086 Y73.494
G1 X76.369 Y73.909
G1 X76.474 Y74.410
G1 Z8

G0 X82.993 Y74.410
G1 Z0

G1 X82.889 Y74.926
G1 X82.606 Y75.339
G1 X82.190 Y75.614
G1 X81.689 Y75.714
G1 X81.173 Y75.609
G1 X80.760 Y75.326
G1 X80.485 Y74.911
G1 X80.385 Y74.410
G1 X80.490 Y73.909
G1 X80.773 Y73.494
G1 X81.188 Y73.211
G1 X81.689 Y73.106
G1 X82.190 Y73.211
G1 X82.606 Y73.494
G1 X82.889 Y73.909
G1 X82.993 Y74.410
G1 Z8

G0 X89.512 Y74.410
G1 Z0

G1 X89.408 Y74.926
G1 X89.125 Y75.339
G1 X88.710 Y75.614
G1 X88.209 Y75.714
G1 X87.693 Y75.609
G1 X87.279 Y75.326
G1 X87.004 Y74.911
G1 X86.905 Y74.410
G1 X87.009 Y73.909
G1 X87.292 Y73.494
G1 X87.708 Y73.211
G1 X88.209 Y73.106
G1 X88.724 Y73.211
G1 X89.138 Y73.494
G1 X89.413 Y73.909
G1 X89.512 Y74.410
G1 Z8

G0 X96.067 Y74.410
G1 Z0

G1 X95.962 Y74.926
G1 X95.679 Y75.339
G1 X95.264 Y75.614
G1 X94.763 Y75.714
G1 X94.247 Y75.609
G1 X93.834 Y75.326
G1 X93.559 Y74.911
G1 X93.459 Y74.410
G1 X93.564 Y73.909
G1 X93.847 Y73.494
G1 X94.262 Y73.211
G1 X94.763 Y73.106
G1 X95.264 Y73.211
G1 X95.679 Y73.494
G1 X95.962 Y73.909
G1 X96.067 Y74.410
G1 Z8

G0 X102.586 Y74.410
G1 Z0

G1 X102.481 Y74.926
G1 X102.198 Y75.339
G1 X101.783 Y75.614
G1 X101.282 Y75.714
G1 X100.766 Y75.609
G1 X100.353 Y75.326
G1 X100.078 Y74.911
G1 X99.978 Y74.410
G1 X100.083 Y73.909
G1 X100.366 Y73.494
G1 X100.781 Y73.211
G1 X101.282 Y73.106
G1 X101.783 Y73.211
G1 X102.198 Y73.494
G1 X102.481 Y73.909
G1 X102.586 Y74.410
G1 Z8

G0 X109.105 Y74.410
G1 Z0

G1 X109.001 Y74.926
G1 X108.718 Y75.339
G1 X108.303 Y75.614
G1 X107.801 Y75.714
G1 X107.286 Y75.609
G1 X106.872 Y75.326
G1 X106.597 Y74.911
G1 X106.498 Y74.410
G1 X106.602 Y73.909
G1 X106.885 Y73.494
G1 X107.300 Y73.211
G1 X107.801 Y73.106
G1 X108.317 Y73.211
G1 X108.731 Y73.494
G1 X109.006 Y73.909
G1 X109.105 Y74.410
G1 Z8

G0 X115.660 Y74.410
G1 Z0

G1 X115.555 Y74.926
G1 X115.272 Y75.339
G1 X114.857 Y75.614
G1 X114.356 Y75.714
G1 X113.840 Y75.609
G1 X113.427 Y75.326
G1 X113.152 Y74.911
G1 X113.052 Y74.410
G1 X113.157 Y73.909
G1 X113.440 Y73.494
G1 X113.855 Y73.211
G1 X114.356 Y73.106
G1 X114.857 Y73.211
G1 X115.272 Y73.494
G1 X115.555 Y73.909
G1 X115.660 Y74.410
G1 Z8

G0 X122.179 Y74.410
G1 Z0

G1 X122.074 Y74.926
G1 X121.791 Y75.339
G1 X121.376 Y75.614
G1 X120.875 Y75.714
G1 X120.374 Y75.609
G1 X119.959 Y75.326
G1 X119.676 Y74.911
G1 X119.571 Y74.410
G1 X119.676 Y73.909
G1 X119.959 Y73.494
G1 X120.374 Y73.211
G1 X120.875 Y73.106
G1 X121.376 Y73.211
G1 X121.791 Y73.494
G1 X122.074 Y73.909
G1 X122.179 Y74.410
G1 Z8

G0 X128.698 Y74.410
G1 Z0

G1 X128.594 Y74.926
G1 X128.311 Y75.339
G1 X127.895 Y75.614
G1 X127.394 Y75.714
G1 X126.893 Y75.609
G1 X126.478 Y75.326
G1 X126.195 Y74.911
G1 X126.091 Y74.410
G1 X126.195 Y73.909
G1 X126.478 Y73.494
G1 X126.893 Y73.211
G1 X127.394 Y73.106
G1 X127.895 Y73.211
G1 X128.311 Y73.494
G1 X128.594 Y73.909
G1 X128.698 Y74.410
G1 Z8

G0 X135.253 Y74.410
G1 Z0

G1 X135.148 Y74.926
G1 X134.865 Y75.339
G1 X134.450 Y75.614
G1 X133.949 Y75.714
G1 X133.433 Y75.609
G1 X133.019 Y75.326
G1 X132.745 Y74.911
G1 X132.645 Y74.410
G1 X132.750 Y73.909
G1 X133.033 Y73.494
G1 X133.448 Y73.211
G1 X133.949 Y73.106
G1 X134.450 Y73.211
G1 X134.865 Y73.494
G1 X135.148 Y73.909
G1 X135.253 Y74.410
G1 Z8

G0 X141.772 Y74.410
G1 Z0

G1 X141.667 Y74.926
G1 X141.384 Y75.339
G1 X140.969 Y75.614
G1 X140.468 Y75.714
G1 X139.967 Y75.609
G1 X139.552 Y75.326
G1 X139.269 Y74.911
G1 X139.164 Y74.410
G1 X139.269 Y73.909
G1 X139.552 Y73.494
G1 X139.967 Y73.211
G1 X140.468 Y73.106
G1 X140.969 Y73.211
G1 X141.384 Y73.494
G1 X141.667 Y73.909
G1 X141.772 Y74.410
G1 Z8

G0 X148.291 Y74.410
G1 Z0

G1 X148.187 Y74.926
G1 X147.904 Y75.339
G1 X147.488 Y75.614
G1 X146.987 Y75.714
G1 X146.486 Y75.609
G1 X146.071 Y75.326
G1 X145.788 Y74.911
G1 X145.684 Y74.410
G1 X145.788 Y73.909
G1 X146.071 Y73.494
G1 X146.486 Y73.211
G1 X146.987 Y73.106
G1 X147.488 Y73.211
G1 X147.904 Y73.494
G1 X148.187 Y73.909
G1 X148.291 Y74.410
G1 Z8

G0 X154.846 Y74.410
G1 Z0

G1 X154.741 Y74.926
G1 X154.458 Y75.339
G1 X154.043 Y75.614
G1 X153.542 Y75.714
G1 X153.026 Y75.609
G1 X152.612 Y75.326
G1 X152.338 Y74.911
G1 X152.238 Y74.410
G1 X152.343 Y73.909
G1 X152.626 Y73.494
G1 X153.041 Y73.211
