(GCode generated by: DrawingBotV3 Premium 1.6.20 Stable)
(Time: 2025-01-29 at 11:22:14 CET)
G21 (programming in millimeters, mm)
G90 (programming in absolute positioning)
G1 F3000 (set speed)
G1 Z8


G0 X15.450 Y231.469
G1 Z0

G1 X15.450 Y65.531
G1 Z8

G0 X17.060 Y65.538
G1 Z0

G1 X17.222 Y231.469
G1 Z8

G0 X18.994 Y231.469
G1 Z0

G1 X18.670 Y65.545
G1 Z8

G0 X20.280 Y65.552
G1 Z0

G1 X20.773 Y231.469
G1 Z8

G0 X22.545 Y231.469
G1 Z0

G1 X21.891 Y65.559
G1 Z8

G0 X23.501 Y65.566
G1 Z0

G1 X24.316 Y231.469
G1 Z8

G0 X26.088 Y231.469
G1 Z0

G1 X25.111 Y65.573
G1 Z8

G0 X26.721 Y65.588
G1 Z0

G1 X27.860 Y231.462
G1 Z8

G0 X29.639 Y231.462
G1 Z0

G1 X28.331 Y65.595
G1 Z8

G0 X29.941 Y65.602
G1 Z0

G1 X31.411 Y231.462
G1 Z8

G0 X33.183 Y231.462
G1 Z0

G1 X31.552 Y65.609
G1 Z8

G0 X33.162 Y65.616
G1 Z0

G1 X34.955 Y231.462
G1 Z8

G0 X36.727 Y231.462
G1 Z0

G1 X34.772 Y65.623
G1 Z8

G0 X36.382 Y65.630
G1 Z0

G1 X38.505 Y231.462
G1 Z8

G0 X40.277 Y231.462
G1 Z0

G1 X37.992 Y65.637
G1 Z8

G0 X39.602 Y65.644
G1 Z0

G1 X42.049 Y231.462
G1 Z8

G0 X43.821 Y231.462
G1 Z0

G1 X41.212 Y65.651
G1 Z8

G0 X42.823 Y65.658
G1 Z0

G1 X45.593 Y231.462
G1 Z8

G0 X47.372 Y231.462
G1 Z0

G1 X44.433 Y65.665
G1 Z8

G0 X46.043 Y65.672
G1 Z0

G1 X49.144 Y231.455
G1 Z8

G0 X50.916 Y231.455
G1 Z0

G1 X47.653 Y65.679
G1 Z8

G0 X49.263 Y65.693
G1 Z0

G1 X52.688 Y231.455
G1 Z8

G0 X54.459 Y231.455
G1 Z0

G1 X50.873 Y65.700
G1 Z8

G0 X52.484 Y65.707
G1 Z0

G1 X56.238 Y231.455
G1 Z8

G0 X58.010 Y231.455
G1 Z0

G1 X54.094 Y65.714
G1 Z8

G0 X55.704 Y65.721
G1 Z0

G1 X59.782 Y231.455
G1 Z8

G0 X61.554 Y231.455
G1 Z0

G1 X57.314 Y65.728
G1 Z8

G0 X58.924 Y65.735
G1 Z0

G1 X63.326 Y231.455
G1 Z8

G0 X65.105 Y231.455
G1 Z0

G1 X60.534 Y65.742
G1 Z8

G0 X62.145 Y65.749
G1 Z0

G1 X66.877 Y231.455
G1 Z8

G0 X68.648 Y231.455
G1 Z0

G1 X63.755 Y65.756
G1 Z8

G0 X65.365 Y65.763
G1 Z0

G1 X70.420 Y231.448
G1 Z8

G0 X72.192 Y231.448
G1 Z0

G1 X66.975 Y65.770
G1 Z8

G0 X68.585 Y65.777
G1 Z0

G1 X73.971 Y231.448
G1 Z8

G0 X75.743 Y231.448
G1 Z0

G1 X70.195 Y65.784
G1 Z8

G0 X71.805 Y65.798
G1 Z0

G1 X77.515 Y231.448
G1 Z8

G0 X79.287 Y231.448
G1 Z0

G1 X73.416 Y65.805
G1 Z8

G0 X75.026 Y65.812
G1 Z0

G1 X81.059 Y231.448
G1 Z8

G0 X82.838 Y231.448
G1 Z0

G1 X76.636 Y65.820
G1 Z8

G0 X78.246 Y65.827
G1 Z0

G1 X84.609 Y231.448
G1 Z8

G0 X86.381 Y231.448
G1 Z0

G1 X79.856 Y65.834
G1 Z8

G0 X81.466 Y65.841
G1 Z0

G1 X88.153 Y231.448
G1 Z8

G0 X89.925 Y231.448
G1 Z0

G1 X83.070 Y65.848
G1 Z8

G0 X84.680 Y65.855
G1 Z0

G1 X91.704 Y231.441
G1 Z8

G0 X93.476 Y231.441
G1 Z0

G1 X86.290 Y65.862
G1 Z8

G0 X87.900 Y65.869
G1 Z0

G1 X95.248 Y231.441
G1 Z8

G0 X97.020 Y231.441
G1 Z0

G1 X89.510 Y65.876
G1 Z8

G0 X91.120 Y65.883
G1 Z0

G1 X98.791 Y231.441
G1 Z8

G0 X100.570 Y231.441
G1 Z0

G1 X92.730 Y65.897
G1 Z8

G0 X94.341 Y65.904
G1 Z0

G1 X102.342 Y231.441
G1 Z8

G0 X104.114 Y231.441
G1 Z0

G1 X95.951 Y65.911
G1 Z8

G0 X97.561 Y65.918
G1 Z0

G1 X105.886 Y231.441
G1 Z8

G0 X107.658 Y231.441
G1 Z0

G1 X99.171 Y65.925
G1 Z8

G0 X100.781 Y65.932
G1 Z0

G1 X109.437 Y231.441
G1 Z8

G0 X111.209 Y231.441
G1 Z0

G1 X102.391 Y65.939
G1 Z8

G0 X104.002 Y65.946
G1 Z0

G1 X112.980 Y231.434
G1 Z8

G0 X114.752 Y231.434
G1 Z0

G1 X105.612 Y65.953
G1 Z8

G0 X107.222 Y65.960
G1 Z0

G1 X116.524 Y231.434
G1 Z8

G0 X118.303 Y231.434
G1 Z0

G1 X108.832 Y65.967
G1 Z8

G0 X110.442 Y65.974
G1 Z0

G1 X120.075 Y231.434
G1 Z8

G0 X121.847 Y231.434
G1 Z0

G1 X112.052 Y65.981
G1 Z8

G0 X113.662 Y65.988
G1 Z0

G1 X123.619 Y231.434
G1 Z8

G0 X125.391 Y231.434
G1 Z0

G1 X115.273 Y66.002
G1 Z8

G0 X116.883 Y66.009
G1 Z0

G1 X127.170 Y231.434
G1 Z8

G0 X128.941 Y231.434
G1 Z0

G1 X118.493 Y66.016
G1 Z8

G0 X120.103 Y66.023
G1 Z0

G1 X130.713 Y231.434
G1 Z8

G0 X132.485 Y231.434
G1 Z0

G1 X121.713 Y66.030
G1 Z8

G0 X123.323 Y66.037
G1 Z0

G1 X134.257 Y231.427
G1 Z8

G0 X136.036 Y231.427
G1 Z0

G1 X124.934 Y66.045
G1 Z8

G0 X126.544 Y66.052
G1 Z0

G1 X137.808 Y231.427
G1 Z8

G0 X139.580 Y231.427
G1 Z0

G1 X128.154 Y66.059
G1 Z8

G0 X129.764 Y66.066
G1 Z0

G1 X141.352 Y231.427
G1 Z8

G0 X143.123 Y231.427
G1 Z0

G1 X131.374 Y66.073
G1 Z8

G0 X132.984 Y66.080
G1 Z0

G1 X144.902 Y231.427
G1 Z8

G0 X146.674 Y231.427
G1 Z0

G1 X134.595 Y66.087
G1 Z8

G0 X136.205 Y66.094
G1 Z0

G1 X148.446 Y231.427
G1 Z8

G0 X150.218 Y231.427
G1 Z0

G1 X137.815 Y66.108
G1 Z8

G0 X139.425 Y66.115
G1 Z0

G1 X151.990 Y231.427
G1 Z8

G0 X153.769 Y231.427
G1 Z0

G1 X141.035 Y66.122
G1 Z8

G0 X142.645 Y66.129
G1 Z0

G1 X155.541 Y231.420
G1 Z8

G0 X157.312 Y231.420
G1 Z0

G1 X144.255 Y66.136
G1 Z8

G0 X145.866 Y66.143
G1 Z0

G1 X159.084 Y231.420
G1 Z8

G0 X160.856 Y231.420
G1 Z0

G1 X147.476 Y66.150
G1 Z8

G0 X149.086 Y66.157
G1 Z0

G1 X162.635 Y231.420
G1 Z8

G0 X164.407 Y231.420
G1 Z0

G1 X150.696 Y66.164
G1 Z8

G0 X152.306 Y66.171
G1 Z0

G1 X166.179 Y231.420
G1 Z8

G0 X167.951 Y231.420
G1 Z0

G1 X153.916 Y66.178
G1 Z8

G0 X155.527 Y66.185
G1 Z0

G1 X169.723 Y231.420
G1 Z8

G0 X171.502 Y231.420
G1 Z0

G1 X157.137 Y66.192
G1 Z8

G0 X158.747 Y66.199
G1 Z0

G1 X173.273 Y231.420
G1 Z8

G0 X175.045 Y231.420
G1 Z0

G1 X160.357 Y66.213
G1 Z8

G0 X161.967 Y66.220
G1 Z0

G1 X176.817 Y231.412
G1 Z8

G0 X178.589 Y231.412
G1 Z0

G1 X163.577 Y66.227
G1 Z8

G0 X165.188 Y66.234
G1 Z0

G1 X180.368 Y231.412
G1 Z8

G0 X182.140 Y231.412
G1 Z0

G1 X166.798 Y66.241
G1 Z8

G0 X168.408 Y66.248
G1 Z0

G1 X183.912 Y231.412
G1 Z8

G0 X185.684 Y231.412
G1 Z0

G1 X170.018 Y66.255
G1 Z8

G0 X171.628 Y66.262
G1 Z0

G1 X187.455 Y231.412
G1 Z8

G0 X189.234 Y231.412
G1 Z0

G1 X173.238 Y66.270
G1 Z8

G0 X174.848 Y66.277
G1 Z0

G1 X191.006 Y231.412
G1 Z8

G0 X192.778 Y231.412
G1 Z0

G1 X176.459 Y66.284
G1 Z8

G0 X178.069 Y66.291
G1 Z0

G1 X194.550 Y231.412
G1 Z8


G0 Z8


(Distance Moved: 17314.588 mm)
(Distance Moved - Pen Up: 402.767 mm)
(Distance Moved - Pen Down: 16911.822 mm)
(Points Plotted: 102 points)
(Pen Lifted: 103 times)
(Pen Dropped: 102 times)
(Min X: 15.450 Max X: 194.550)
(Min Y: 65.531 Max Y: 231.469)
