(GCode generated by: DrawingBotV3 Premium 1.6.20 Stable)
(Time: 2025-01-30 at 10:44:10 CET)
G21 (programming in millimeters, mm)
G90 (programming in absolute positioning)
G1 F3000 (set speed)
G1 Z8


G0 X42.045 Y132.977
G1 Z0

G1 X46.338 Y135.111
G1 X50.746 Y137.013
G1 X55.256 Y138.676
G1 X59.852 Y140.091
G1 X64.518 Y141.250
G1 X69.239 Y142.145
G1 X73.999 Y142.767
G1 X78.782 Y143.108
G1 X83.574 Y143.161
G1 X88.359 Y142.916
G1 X93.121 Y142.365
G1 X97.844 Y141.501
G1 X102.514 Y140.314
G1 X107.115 Y138.797
G1 X111.631 Y136.942
G1 X116.047 Y134.739
G1 X123.470 Y130.995
G1 X127.222 Y129.313
G1 X131.024 Y127.779
G1 X134.892 Y126.411
G1 X138.843 Y125.225
G1 X142.892 Y124.236
G1 X147.058 Y123.463
G1 X153.661 Y122.831
G1 X160.239 Y122.769
G1 X166.768 Y123.252
G1 X173.223 Y124.256
G1 X179.578 Y125.755
G1 X185.810 Y127.724
G1 X191.893 Y130.140
G1 X197.802 Y132.977
G1 Z8

G0 X197.802 Y132.272
G1 Z0

G1 X193.510 Y130.143
G1 X189.101 Y128.250
G1 X184.591 Y126.601
G1 X179.995 Y125.203
G1 X175.329 Y124.060
G1 X170.609 Y123.179
G1 X165.849 Y122.567
G1 X161.065 Y122.229
G1 X156.274 Y122.172
G1 X151.489 Y122.403
G1 X146.727 Y122.926
G1 X142.003 Y123.749
G1 X137.333 Y124.877
G1 X132.732 Y126.318
G1 X128.216 Y128.076
G1 X123.800 Y130.158
G1 X119.175 Y132.757
G1 X116.813 Y133.974
G1 X114.285 Y135.092
G1 X112.876 Y136.149
G1 X108.542 Y137.863
G1 X104.138 Y139.306
G1 X99.676 Y140.482
G1 X95.168 Y141.391
G1 X90.628 Y142.035
G1 X86.067 Y142.417
G1 X81.497 Y142.540
G1 X76.932 Y142.404
G1 X72.383 Y142.012
G1 X67.864 Y141.366
G1 X63.385 Y140.468
G1 X58.960 Y139.320
G1 X54.601 Y137.925
G1 X50.321 Y136.284
G1 X46.132 Y134.399
G1 X42.045 Y132.272
G1 Z8

G0 X42.045 Y131.920
G1 Z0

G1 X46.746 Y134.277
G1 X51.582 Y136.326
G1 X56.534 Y138.061
G1 X61.581 Y139.480
G1 X66.702 Y140.579
G1 X71.877 Y141.354
G1 X77.086 Y141.802
G1 X82.306 Y141.919
G1 X87.518 Y141.702
G1 X92.702 Y141.146
G1 X97.835 Y140.249
G1 X102.899 Y139.006
G1 X107.872 Y137.415
G1 X112.733 Y135.471
G1 X117.462 Y133.171
G1 X122.038 Y130.510
G1 X126.524 Y128.354
G1 X131.118 Y126.510
G1 X135.804 Y124.973
G1 X140.566 Y123.743
G1 X145.388 Y122.817
G1 X150.253 Y122.191
G1 X155.147 Y121.864
G1 X160.052 Y121.833
G1 X164.953 Y122.095
G1 X169.835 Y122.647
G1 X174.679 Y123.488
G1 X179.472 Y124.613
G1 X184.197 Y126.022
G1 X188.837 Y127.711
G1 X193.378 Y129.678
G1 X197.802 Y131.920
G1 Z8

G0 X197.802 Y131.215
G1 Z0

G1 X193.242 Y128.962
G1 X188.557 Y126.967
G1 X183.766 Y125.238
G1 X178.883 Y123.787
G1 X173.926 Y122.624
G1 X168.912 Y121.756
G1 X163.856 Y121.196
G1 X158.775 Y120.952
G1 X153.686 Y121.034
G1 X148.605 Y121.452
G1 X143.549 Y122.216
G1 X138.534 Y123.336
G1 X133.578 Y124.821
G1 X128.695 Y126.682
G1 X123.903 Y128.927
G1 X119.219 Y131.568
G1 X115.781 Y133.552
G1 X112.331 Y135.284
G1 X108.856 Y136.777
G1 X105.344 Y138.043
G1 X101.782 Y139.094
G1 X98.158 Y139.942
G1 X94.460 Y140.601
G1 X90.675 Y141.082
G1 X84.336 Y141.511
G1 X78.022 Y141.473
G1 X71.758 Y140.964
G1 X65.567 Y139.981
G1 X59.476 Y138.518
G1 X53.509 Y136.573
G1 X47.691 Y134.140
G1 X42.045 Y131.215
G1 Z8

G0 X42.045 Y130.863
G1 Z0

G1 X46.338 Y133.055
G1 X50.746 Y135.001
G1 X55.256 Y136.695
G1 X59.852 Y138.131
G1 X64.518 Y139.303
G1 X69.239 Y140.204
G1 X73.999 Y140.829
G1 X78.782 Y141.170
G1 X83.574 Y141.223
G1 X88.359 Y140.980
G1 X93.121 Y140.436
G1 X97.844 Y139.585
G1 X102.514 Y138.419
G1 X107.115 Y136.933
G1 X111.631 Y135.121
G1 X116.047 Y132.977
G1 X122.622 Y129.382
G1 X129.262 Y126.150
G1 X132.669 Y124.742
G1 X136.167 Y123.512
G1 X139.780 Y122.489
G1 X143.534 Y121.701
G1 X150.664 Y120.794
G1 X157.762 Y120.456
G1 X164.793 Y120.697
G1 X168.274 Y121.037
G1 X171.725 Y121.524
G1 X175.144 Y122.161
G1 X178.525 Y122.946
G1 X181.865 Y123.883
G1 X185.160 Y124.971
G1 X188.405 Y126.212
G1 X191.597 Y127.607
G1 X194.730 Y129.157
G1 X197.802 Y130.863
G1 Z8

G0 X197.802 Y130.158
G1 Z0

G1 X191.893 Y127.321
G1 X185.810 Y124.905
G1 X179.578 Y122.935
G1 X173.223 Y121.436
G1 X166.768 Y120.433
G1 X160.239 Y119.950
G1 X153.661 Y120.012
G1 X147.058 Y120.644
G1 X142.630 Y121.434
G1 X138.325 Y122.477
G1 X134.136 Y123.759
G1 X130.055 Y125.269
G1 X126.073 Y126.993
G1 X122.181 Y128.919
G1 X118.372 Y131.036
G1 X114.638 Y133.330
G1 X110.288 Y135.230
G1 X105.838 Y136.836
G1 X101.305 Y138.150
G1 X96.704 Y139.177
G1 X92.052 Y139.919
G1 X87.364 Y140.379
G1 X82.656 Y140.560
G1 X77.945 Y140.465
G1 X73.246 Y140.098
G1 X68.576 Y139.462
G1 X63.950 Y138.559
G1 X59.384 Y137.393
G1 X54.895 Y135.967
G1 X50.498 Y134.284
G1 X46.209 Y132.346
G1 X42.045 Y130.158
G1 Z8

G0 X42.045 Y129.806
G1 Z0

G1 X46.209 Y131.998
G1 X50.498 Y133.944
G1 X54.895 Y135.640
G1 X59.384 Y137.079
G1 X63.950 Y138.256
G1 X68.576 Y139.165
G1 X73.246 Y139.801
G1 X77.945 Y140.157
G1 X82.656 Y140.228
G1 X87.364 Y140.009
G1 X92.052 Y139.494
G1 X96.704 Y138.676
G1 X101.305 Y137.551
G1 X105.838 Y136.112
G1 X110.288 Y134.355
G1 X114.638 Y132.272
G1 X123.178 Y127.912
G1 X127.528 Y125.905
G1 X131.949 Y124.079
G1 X136.452 Y122.485
G1 X141.051 Y121.172
G1 X145.756 Y120.189
G1 X150.582 Y119.586
G1 X156.687 Y119.389
G1 X162.816 Y119.597
G1 X168.929 Y120.218
G1 X174.985 Y121.260
G1 X180.941 Y122.732
G1 X186.757 Y124.641
G1 X192.391 Y126.996
G1 X197.802 Y129.806
G1 Z8

G0 X197.802 Y129.101
G1 Z0

G1 X192.516 Y126.502
G1 X187.230 Y124.167
G1 X181.355 Y122.251
G1 X175.381 Y120.732
G1 X169.341 Y119.608
G1 X163.268 Y118.882
G1 X156.799 Y118.763
G1 X150.367 Y119.190
G1 X144.010 Y120.145
G1 X137.764 Y121.613
G1 X131.666 Y123.576
G1 X125.755 Y126.017
G1 X120.066 Y128.922
G1 X114.638 Y132.272
G1 X110.288 Y134.176
G1 X105.838 Y135.793
G1 X101.305 Y137.123
G1 X96.704 Y138.169
G1 X92.052 Y138.933
G1 X87.364 Y139.415
G1 X82.656 Y139.617
G1 X77.945 Y139.540
G1 X73.246 Y139.188
G1 X68.576 Y138.560
G1 X63.950 Y137.658
G1 X59.384 Y136.485
G1 X54.895 Y135.041
G1 X50.498 Y133.328
G1 X46.209 Y131.347
G1 X42.045 Y129.101
G1 Z8

G0 X42.045 Y128.749
G1 Z0

G1 X46.411 Y130.998
G1 X50.908 Y132.986
G1 X55.517 Y134.707
G1 X60.221 Y136.154
G1 X65.001 Y137.323
G1 X69.840 Y138.207
G1 X74.718 Y138.802
G1 X79.619 Y139.100
G1 X84.524 Y139.097
G1 X89.415 Y138.787
G1 X94.274 Y138.164
G1 X99.083 Y137.222
G1 X103.824 Y135.957
G1 X108.479 Y134.361
G1 X113.029 Y132.430
G1 X117.457 Y130.158
G1 X121.979 Y127.378
G1 X126.676 Y124.981
G1 X131.525 Y122.962
G1 X136.503 Y121.315
G1 X141.585 Y120.036
G1 X146.750 Y119.120
G1 X151.974 Y118.560
G1 X157.233 Y118.353
G1 X162.505 Y118.493
G1 X167.766 Y118.974
G1 X172.992 Y119.792
G1 X178.162 Y120.941
G1 X183.251 Y122.416
G1 X188.236 Y124.213
G1 X193.094 Y126.325
G1 X197.802 Y128.749
G1 Z8

G0 X197.802 Y128.044
G1 Z0

G1 X193.937 Y126.130
G1 X190.005 Y124.366
G1 X186.008 Y122.766
G1 X181.945 Y121.348
G1 X177.815 Y120.129
G1 X173.619 Y119.124
G1 X169.358 Y118.350
G1 X165.030 Y117.824
G1 X159.738 Y117.643
G1 X154.414 Y117.692
G1 X149.024 Y118.072
G1 X143.534 Y118.882
G1 X139.546 Y119.801
G1 X135.748 Y120.952
G1 X132.099 Y122.301
G1 X128.557 Y123.815
G1 X121.631 Y127.207
G1 X114.638 Y130.863
G1 X110.288 Y133.003
G1 X105.838 Y134.803
G1 X101.305 Y136.270
G1 X96.704 Y137.410
G1 X92.052 Y138.229
G1 X87.364 Y138.736
G1 X82.656 Y138.936
G1 X77.945 Y138.836
G1 X73.246 Y138.442
G1 X68.576 Y137.763
G1 X63.950 Y136.803
G1 X59.384 Y135.571
G1 X54.895 Y134.072
G1 X50.498 Y132.313
G1 X46.209 Y130.301
G1 X42.045 Y128.044
G1 Z8

G0 X42.045 Y127.691
G1 Z0

G1 X45.930 Y129.710
G1 X49.910 Y131.532
G1 X53.977 Y133.152
G1 X58.118 Y134.563
G1 X62.323 Y135.759
G1 X66.581 Y136.735
G1 X70.882 Y137.484
G1 X75.214 Y137.999
G1 X79.567 Y138.274
G1 X83.930 Y138.304
G1 X88.291 Y138.082
G1 X92.641 Y137.602
G1 X96.968 Y136.858
G1 X101.261 Y135.843
G1 X105.511 Y134.552
G1 X109.704 Y132.977
G1 X112.551 Y131.698
G1 X115.299 Y130.274
G1 X120.629 Y127.207
G1 X125.958 Y124.206
G1 X128.706 Y122.865
G1 X131.553 Y121.701
G1 X135.676 Y120.308
G1 X139.848 Y119.169
G1 X144.058 Y118.278
G1 X148.297 Y117.632
G1 X152.554 Y117.227
G1 X156.819 Y117.061
G1 X161.084 Y117.129
G1 X165.338 Y117.428
G1 X169.571 Y117.954
G1 X173.774 Y118.703
G1 X177.937 Y119.673
G1 X182.049 Y120.858
G1 X186.102 Y122.257
G1 X190.085 Y123.864
G1 X193.988 Y125.677
G1 X197.802 Y127.691
G1 Z8

G0 X197.802 Y126.987
G1 Z0

G1 X193.708 Y124.852
G1 X189.497 Y122.947
G1 X185.183 Y121.276
G1 X180.783 Y119.845
G1 X176.310 Y118.660
G1 X171.780 Y117.726
G1 X167.207 Y117.049
G1 X162.607 Y116.635
G1 X157.995 Y116.489
G1 X153.385 Y116.618
G1 X148.793 Y117.026
G1 X144.233 Y117.720
G1 X139.721 Y118.705
G1 X135.271 Y119.986
G1 X130.899 Y121.570
G1 X126.619 Y123.463
G1 X116.708 Y128.969
G1 X111.703 Y131.540
G1 X109.145 Y132.679
G1 X106.533 Y133.682
G1 X102.299 Y134.981
G1 X98.031 Y136.149
G1 X93.698 Y137.052
G1 X89.266 Y137.558
G1 X83.161 Y137.769
G1 X77.031 Y137.591
G1 X70.918 Y137.001
G1 X64.863 Y135.973
G1 X58.906 Y134.482
G1 X53.091 Y132.504
G1 X47.456 Y130.014
G1 X44.720 Y128.569
G1 X42.045 Y126.987
G1 Z8

G0 X42.045 Y126.634
G1 Z0

G1 X47.294 Y129.358
G1 X52.716 Y131.705
G1 X58.287 Y133.665
G1 X63.982 Y135.224
G1 X69.775 Y136.370
G1 X75.644 Y137.090
G1 X81.561 Y137.373
G1 X87.504 Y137.206
G1 X93.577 Y136.468
G1 X99.617 Y135.268
G1 X105.591 Y133.539
G1 X108.543 Y132.455
G1 X111.466 Y131.215
G1 X116.587 Y128.622
G1 X121.509 Y125.797
G1 X126.432 Y123.039
G1 X128.955 Y121.777
G1 X131.553 Y120.644
G1 X135.676 Y119.251
G1 X139.848 Y118.111
G1 X144.058 Y117.220
G1 X148.297 Y116.575
G1 X152.554 Y116.170
G1 X156.819 Y116.004
G1 X161.084 Y116.072
G1 X165.338 Y116.371
G1 X169.571 Y116.897
G1 X173.774 Y117.646
G1 X177.937 Y118.615
G1 X182.049 Y119.801
G1 X186.102 Y121.199
G1 X190.085 Y122.807
G1 X193.988 Y124.620
G1 X197.802 Y126.634
G1 Z8

G0 X197.802 Y125.929
G1 Z0

G1 X194.396 Y124.092
G1 X190.922 Y122.416
G1 X187.384 Y120.903
G1 X183.789 Y119.559
G1 X180.143 Y118.386
G1 X176.450 Y117.387
G1 X172.717 Y116.568
G1 X168.950 Y115.930
G1 X165.154 Y115.479
G1 X161.334 Y115.217
G1 X157.497 Y115.147
G1 X153.649 Y115.275
G1 X149.794 Y115.603
G1 X145.938 Y116.135
G1 X142.088 Y116.874
G1 X138.248 Y117.824
G1 X135.123 Y118.844
G1 X132.081 Y120.032
G1 X126.179 Y122.802
G1 X120.408 Y125.902
G1 X114.638 Y129.101
G1 X110.284 Y131.183
G1 X105.824 Y132.939
G1 X101.275 Y134.375
G1 X96.655 Y135.493
G1 X91.981 Y136.301
G1 X87.271 Y136.800
G1 X82.543 Y136.998
G1 X77.813 Y136.898
G1 X73.100 Y136.504
G1 X68.421 Y135.822
G1 X63.794 Y134.856
G1 X59.235 Y133.610
G1 X54.764 Y132.090
G1 X50.397 Y130.301
G1 X46.151 Y128.245
G1 X42.045 Y125.929
G1 Z8

G0 X42.045 Y125.577
G1 Z0

G1 X46.814 Y128.033
G1 X51.648 Y130.158
G1 X56.615 Y132.019
G1 X61.779 Y133.682
G1 X68.166 Y135.180
G1 X71.442 Y135.763
G1 X74.818 Y136.149
G1 X78.788 Y136.341
G1 X82.791 Y136.369
G1 X86.860 Y136.198
G1 X91.028 Y135.796
G1 X97.244 Y134.794
G1 X103.229 Y133.330
G1 X109.016 Y131.336
G1 X111.846 Y130.121
G1 X114.638 Y128.749
G1 X119.885 Y125.605
G1 X125.166 Y122.626
G1 X130.644 Y119.977
G1 X133.509 Y118.829
G1 X136.486 Y117.824
G1 X142.594 Y116.340
G1 X148.743 Y115.330
G1 X154.908 Y114.808
G1 X161.065 Y114.785
G1 X167.190 Y115.274
G1 X173.256 Y116.288
G1 X179.240 Y117.839
G1 X185.116 Y119.939
G1 X185.645 Y120.093
G1 X186.173 Y120.115
G1 X186.702 Y120.137
G1 X187.230 Y120.291
G1 X192.516 Y122.802
G1 X195.159 Y124.107
G1 X197.802 Y125.577
G1 Z8

G0 X197.802 Y124.872
G1 Z0

G1 X193.840 Y122.734
G1 X189.760 Y120.817
G1 X185.578 Y119.127
G1 X181.306 Y117.670
G1 X176.960 Y116.453
G1 X172.554 Y115.482
G1 X168.103 Y114.762
G1 X163.620 Y114.300
G1 X159.121 Y114.103
G1 X154.620 Y114.177
G1 X150.132 Y114.527
G1 X145.670 Y115.159
G1 X141.250 Y116.081
G1 X136.885 Y117.299
G1 X132.591 Y118.817
G1 X128.381 Y120.644
G1 X121.867 Y124.013
G1 X115.387 Y127.515
G1 X112.086 Y129.192
G1 X108.708 Y130.753
G1 X105.222 Y132.149
G1 X101.599 Y133.330
G1 X96.167 Y134.584
G1 X90.714 Y135.438
G1 X85.252 Y135.888
G1 X79.795 Y135.928
G1 X74.355 Y135.556
G1 X68.943 Y134.767
G1 X63.572 Y133.556
G1 X58.255 Y131.920
G1 X57.727 Y131.766
G1 X57.198 Y131.744
G1 X56.670 Y131.722
G1 X56.141 Y131.568
G1 X52.501 Y130.175
G1 X48.961 Y128.616
G1 X45.487 Y126.860
G1 X42.045 Y124.872
G1 Z8

G0 X42.045 Y124.520
G1 Z0

G1 X47.662 Y127.438
G1 X53.410 Y129.894
G1 X59.290 Y131.953
G1 X65.303 Y133.682
G1 X68.530 Y134.354
G1 X71.822 Y134.827
G1 X78.342 Y135.444
G1 X81.504 Y135.564
G1 X84.648 Y135.532
G1 X90.868 Y135.025
G1 X96.980 Y133.957
G1 X102.965 Y132.361
G1 X108.801 Y130.268
G1 X114.467 Y127.713
G1 X119.944 Y124.729
G1 X125.210 Y121.348
G1 X129.501 Y119.324
G1 X133.908 Y117.611
G1 X138.411 Y116.205
G1 X142.994 Y115.104
G1 X147.639 Y114.305
G1 X152.329 Y113.804
G1 X157.045 Y113.598
G1 X161.770 Y113.684
G1 X166.487 Y114.059
G1 X171.179 Y114.720
G1 X175.827 Y115.664
G1 X180.414 Y116.888
G1 X184.922 Y118.389
G1 X189.335 Y120.163
G1 X193.634 Y122.208
G1 X197.802 Y124.520
G1 Z8

G0 X197.802 Y123.815
G1 Z0

G1 X193.937 Y121.800
G1 X190.005 Y119.983
G1 X186.008 Y118.364
G1 X181.945 Y116.943
G1 X177.815 Y115.721
G1 X173.619 Y114.697
G1 X169.358 Y113.871
G1 X165.030 Y113.243
G1 X160.538 Y112.965
G1 X156.055 Y112.935
G1 X151.588 Y113.169
G1 X147.146 Y113.684
G1 X142.737 Y114.496
G1 X138.369 Y115.622
G1 X134.051 Y117.078
G1 X129.791 Y118.882
G1 X126.267 Y120.555
G1 X122.809 Y122.361
G1 X115.959 Y126.106
G1 X112.502 Y127.912
G1 X108.978 Y129.585
G1 X105.355 Y131.061
G1 X101.599 Y132.272
G1 X97.756 Y133.169
G1 X93.895 Y133.875
G1 X90.024 Y134.391
G1 X86.149 Y134.717
G1 X82.279 Y134.853
G1 X78.420 Y134.800
G1 X74.580 Y134.556
G1 X70.765 Y134.122
G1 X66.984 Y133.499
G1 X63.243 Y132.685
G1 X59.549 Y131.682
G1 X55.910 Y130.488
G1 X52.333 Y129.105
G1 X48.825 Y127.532
G1 X45.393 Y125.768
G1 X42.045 Y123.815
G1 Z8

G0 X42.045 Y123.463
G1 Z0

G1 X46.209 Y125.782
G1 X50.498 Y127.848
G1 X54.895 Y129.652
G1 X59.384 Y131.188
G1 X63.950 Y132.449
G1 X68.576 Y133.429
G1 X73.246 Y134.122
G1 X77.945 Y134.519
G1 X82.656 Y134.615
G1 X87.364 Y134.403
G1 X92.052 Y133.875
G1 X96.704 Y133.027
G1 X101.305 Y131.850
G1 X105.838 Y130.338
G1 X110.288 Y128.484
G1 X114.638 Y126.282
G1 X124.549 Y120.908
G1 X129.554 Y118.353
G1 X134.724 Y116.062
G1 X138.176 Y114.972
G1 X141.662 Y114.075
G1 X145.180 Y113.368
G1 X148.732 Y112.847
G1 X152.316 Y112.508
G1 X155.934 Y112.346
G1 X159.584 Y112.358
G1 X163.268 Y112.539
G1 X167.859 Y113.066
G1 X172.380 Y113.849
G1 X176.827 Y114.880
G1 X181.196 Y116.151
G1 X185.482 Y117.652
G1 X189.681 Y119.377
G1 X193.789 Y121.317
G1 X197.802 Y123.463
G1 Z8

G0 X197.802 Y122.758
G1 Z0

G1 X190.853 Y119.328
G1 X187.309 Y117.821
G1 X183.706 Y116.459
G1 X180.038 Y115.245
G1 X176.295 Y114.185
G1 X172.470 Y113.281
G1 X168.554 Y112.539
G1 X164.473 Y112.009
G1 X160.421 Y111.735
G1 X156.394 Y111.708
G1 X152.388 Y111.922
G1 X148.398 Y112.366
G1 X144.420 Y113.034
G1 X140.451 Y113.916
G1 X136.486 Y115.005
G1 X133.138 Y116.106
G1 X129.791 Y117.472
G1 X124.373 Y120.203
G1 X121.812 Y121.734
G1 X119.219 Y123.463
G1 X114.659 Y126.165
G1 X109.977 Y128.462
G1 X105.192 Y130.363
G1 X100.322 Y131.876
G1 X95.386 Y133.009
G1 X90.403 Y133.770
G1 X85.390 Y134.168
G1 X80.368 Y134.211
G1 X75.354 Y133.906
G1 X70.366 Y133.264
G1 X65.424 Y132.290
G1 X60.546 Y130.995
G1 X55.750 Y129.386
G1 X51.056 Y127.471
G1 X46.482 Y125.259
G1 X42.045 Y122.758
G1 Z8

G0 X42.045 Y122.405
G1 Z0

G1 X48.961 Y126.017
G1 X52.501 Y127.658
G1 X56.141 Y129.101
G1 X56.670 Y129.255
G1 X57.198 Y129.277
G1 X57.727 Y129.299
G1 X58.255 Y129.453
G1 X61.839 Y130.646
G1 X65.452 Y131.595
G1 X69.089 Y132.321
G1 X72.747 Y132.845
G1 X76.422 Y133.187
G1 X80.109 Y133.368
G1 X87.504 Y133.330
G1 X91.055 Y132.996
G1 X94.568 Y132.515
G1 X98.040 Y131.868
G1 X101.467 Y131.039
G1 X104.845 Y130.012
G1 X108.168 Y128.771
G1 X111.434 Y127.298
G1 X114.638 Y125.577
G1 X119.610 Y122.538
G1 X124.549 Y119.763
G1 X129.554 Y117.252
G1 X134.724 Y115.005
G1 X139.013 Y113.761
G1 X143.402 Y112.715
G1 X147.856 Y111.933
G1 X152.344 Y111.481
G1 X158.286 Y111.315
G1 X164.204 Y111.602
G1 X170.072 Y112.336
G1 X175.866 Y113.508
G1 X181.560 Y115.108
G1 X187.131 Y117.131
G1 X192.553 Y119.566
G1 X197.802 Y122.405
G1 Z8

G0 X197.802 Y121.701
G1 Z0

G1 X191.892 Y118.631
G1 X185.804 Y116.040
G1 X179.560 Y113.945
G1 X173.179 Y112.362
G1 X166.682 Y111.308
G1 X160.091 Y110.799
G1 X153.425 Y110.851
G1 X146.705 Y111.481
G1 X141.824 Y112.392
G1 X137.185 Y113.744
G1 X132.737 Y115.452
G1 X128.425 Y117.428
G1 X119.995 Y121.838
G1 X111.466 Y126.282
G1 X107.253 Y128.228
G1 X102.948 Y129.843
G1 X98.567 Y131.134
G1 X94.128 Y132.107
G1 X89.645 Y132.771
G1 X85.134 Y133.133
G1 X80.612 Y133.199
G1 X76.095 Y132.977
G1 X71.599 Y132.475
G1 X67.139 Y131.698
G1 X62.732 Y130.656
G1 X58.393 Y129.354
G1 X54.139 Y127.801
G1 X49.986 Y126.002
G1 X45.949 Y123.967
G1 X42.045 Y121.701
G1 Z8

G0 X42.045 Y121.348
G1 Z0

G1 X46.814 Y123.909
G1 X51.648 Y126.238
G1 X56.615 Y128.236
G1 X61.779 Y129.806
G1 X63.629 Y130.180
G1 X65.479 Y130.687
G1 X67.329 Y131.193
G1 X69.179 Y131.568
G1 X74.201 Y132.074
G1 X79.223 Y132.449
G1 X84.244 Y132.559
G1 X89.266 Y132.272
G1 X95.807 Y131.105
G1 X102.216 Y129.541
G1 X105.371 Y128.528
G1 X108.493 Y127.317
G1 X111.582 Y125.874
G1 X114.638 Y124.167
G1 X119.546 Y121.350
G1 X124.499 Y118.744
G1 X129.511 Y116.393
G1 X134.592 Y114.345
G1 X139.756 Y112.642
G1 X145.015 Y111.333
G1 X150.381 Y110.461
G1 X155.868 Y110.072
G1 X161.398 Y110.137
G1 X166.880 Y110.595
G1 X172.295 Y111.441
G1 X177.628 Y112.671
G1 X182.861 Y114.281
G1 X187.979 Y116.266
G1 X192.965 Y118.623
G1 X197.802 Y121.348
G1 Z8

G0 X197.802 Y120.644
G1 Z0

G1 X192.141 Y117.674
G1 X186.278 Y115.126
G1 X180.241 Y113.024
G1 X174.060 Y111.393
G1 X167.763 Y110.258
G1 X161.379 Y109.642
G1 X154.938 Y109.572
G1 X148.467 Y110.072
G1 X144.558 Y110.727
G1 X140.715 Y111.613
G1 X136.872 Y112.698
G1 X132.962 Y113.948
G1 X130.116 Y115.113
G1 X127.374 Y116.459
G1 X122.082 Y119.498
G1 X116.857 Y122.670
G1 X114.197 Y124.181
G1 X111.466 Y125.577
G1 X107.253 Y127.403
G1 X102.948 Y128.921
G1 X98.567 Y130.134
G1 X94.128 Y131.050
G1 X89.645 Y131.672
G1 X85.134 Y132.007
G1 X80.612 Y132.058
G1 X76.095 Y131.832
G1 X71.599 Y131.333
G1 X67.139 Y130.567
G1 X62.732 Y129.538
G1 X58.393 Y128.253
G1 X54.139 Y126.716
G1 X49.986 Y124.931
G1 X45.949 Y122.906
G1 X42.045 Y120.644
G1 Z8

G0 X42.045 Y120.291
G1 Z0

G1 X47.839 Y123.477
G1 X53.839 Y126.155
G1 X60.021 Y128.313
G1 X66.360 Y129.938
G1 X72.831 Y131.018
G1 X79.410 Y131.540
G1 X86.071 Y131.493
G1 X92.790 Y130.863
G1 X96.954 Y130.071
G1 X100.999 Y129.024
G1 X104.937 Y127.728
G1 X108.779 Y126.194
G1 X112.539 Y124.428
G1 X116.229 Y122.438
G1 X119.861 Y120.235
G1 X123.448 Y117.824
G1 X128.381 Y115.710
G1 X129.791 Y114.653
G1 X132.379 Y113.761
G1 X134.900 Y112.803
G1 X137.422 Y111.977
G1 X140.010 Y111.481
G1 X140.715 Y111.129
G1 X141.420 Y110.777
G1 X145.119 Y110.016
G1 X148.814 Y109.451
G1 X152.501 Y109.078
G1 X156.176 Y108.893
G1 X159.834 Y108.895
G1 X163.472 Y109.079
G1 X167.084 Y109.443
G1 X170.668 Y109.984
G1 X174.219 Y110.698
G1 X177.732 Y111.582
G1 X181.205 Y112.633
G1 X184.632 Y113.849
G1 X188.009 Y115.226
G1 X191.332 Y116.760
G1 X194.598 Y118.450
G1 X197.802 Y120.291
G1 Z8

G0 X197.802 Y119.586
G1 Z0

G1 X193.206 Y117.032
G1 X188.425 Y114.791
G1 X183.485 Y112.874
G1 X178.415 Y111.289
G1 X173.244 Y110.044
G1 X168.001 Y109.149
G1 X162.713 Y108.612
G1 X157.409 Y108.442
G1 X152.118 Y108.648
G1 X146.867 Y109.238
G1 X141.686 Y110.222
G1 X136.602 Y111.608
G1 X131.644 Y113.405
G1 X126.840 Y115.621
G1 X122.219 Y118.266
G1 X117.809 Y121.348
G1 X111.599 Y124.476
G1 X108.444 Y125.957
G1 X105.123 Y127.339
G1 X101.159 Y128.534
G1 X97.195 Y129.497
G1 X93.230 Y130.263
G1 X89.266 Y130.863
G1 X85.303 Y131.144
G1 X81.348 Y131.199
G1 X77.410 Y131.030
G1 X73.496 Y130.643
G1 X69.616 Y130.040
G1 X65.777 Y129.228
G1 X61.987 Y128.208
G1 X58.255 Y126.987
G1 X57.727 Y126.832
G1 X57.198 Y126.810
G1 X56.670 Y126.788
G1 X56.141 Y126.634
G1 X48.961 Y123.375
G1 X45.487 Y121.580
G1 X42.045 Y119.586
G1 Z8

G0 X42.045 Y119.234
G1 Z0

G1 X46.769 Y121.901
G1 X51.671 Y124.216
G1 X56.724 Y126.173
G1 X61.900 Y127.768
G1 X67.171 Y128.996
G1 X72.509 Y129.851
G1 X77.887 Y130.328
G1 X83.275 Y130.422
G1 X88.647 Y130.128
G1 X93.975 Y129.441
G1 X99.230 Y128.355
G1 X104.386 Y126.865
G1 X109.413 Y124.967
G1 X114.284 Y122.655
G1 X118.972 Y119.923
G1 X123.448 Y116.767
G1 X127.418 Y114.780
G1 X131.420 Y113.023
G1 X135.490 Y111.465
G1 X139.658 Y110.072
G1 X144.166 Y109.031
G1 X148.699 Y108.288
G1 X153.248 Y107.842
G1 X157.806 Y107.693
G1 X162.363 Y107.842
G1 X166.913 Y108.288
G1 X171.446 Y109.031
G1 X175.954 Y110.072
G1 X181.697 Y111.801
G1 X187.274 Y113.860
G1 X192.654 Y116.316
G1 X197.802 Y119.234
G1 Z8

G0 X197.802 Y118.882
G1 Z0

G1 X193.486 Y116.330
G1 X189.011 Y114.094
G1 X184.398 Y112.176
G1 X179.671 Y110.578
G1 X174.850 Y109.303
G1 X169.958 Y108.351
G1 X165.018 Y107.726
G1 X160.052 Y107.429
G1 X155.082 Y107.462
G1 X150.130 Y107.828
G1 X145.217 Y108.528
G1 X140.368 Y109.565
G1 X135.603 Y110.941
G1 X130.945 Y112.657
G1 X126.416 Y114.716
G1 X122.038 Y117.120
G1 X117.628 Y120.148
G1 X113.007 Y122.760
G1 X108.204 Y124.962
G1 X103.246 Y126.761
G1 X98.162 Y128.161
G1 X92.980 Y129.168
G1 X87.730 Y129.788
G1 X82.438 Y130.026
G1 X77.134 Y129.889
G1 X71.846 Y129.381
G1 X66.603 Y128.509
G1 X61.432 Y127.278
G1 X56.363 Y125.695
G1 X51.423 Y123.763
G1 X46.641 Y121.491
G1 X42.045 Y118.882
G1 Z8

G0 X42.045 Y118.177
G1 Z0

G1 X46.769 Y120.844
G1 X51.671 Y123.158
G1 X56.724 Y125.116
G1 X61.900 Y126.711
G1 X67.171 Y127.939
G1 X72.509 Y128.794
G1 X77.887 Y129.271
G1 X83.275 Y129.365
G1 X88.647 Y129.071
G1 X93.975 Y128.384
G1 X99.230 Y127.298
G1 X104.386 Y125.808
G1 X109.413 Y123.910
G1 X114.284 Y121.597
G1 X118.972 Y118.866
G1 X123.448 Y115.710
G1 X130.187 Y112.500
G1 X133.656 Y111.095
G1 X137.191 Y109.852
G1 X140.792 Y108.790
G1 X144.459 Y107.930
G1 X148.192 Y107.293
G1 X151.991 Y106.900
G1 X158.050 Y106.734
G1 X164.055 Y107.027
G1 X169.986 Y107.774
G1 X175.822 Y108.971
G1 X181.542 Y110.613
G1 X187.126 Y112.698
G1 X192.553 Y115.221
G1 X197.802 Y118.177
G1 Z8

G0 X197.802 Y117.824
G1 Z0

G1 X193.486 Y115.269
G1 X189.011 Y113.022
G1 X184.398 Y111.089
G1 X179.671 Y109.472
G1 X174.850 Y108.175
G1 X169.958 Y107.201
G1 X165.018 Y106.555
G1 X160.052 Y106.240
G1 X155.082 Y106.259
G1 X150.130 Y106.616
G1 X145.217 Y107.315
G1 X140.368 Y108.359
G1 X135.603 Y109.753
G1 X130.945 Y111.499
G1 X126.416 Y113.601
G1 X122.038 Y116.062
G1 X119.993 Y117.701
G1 X117.831 Y119.190
G1 X113.228 Y121.789
G1 X108.361 Y123.991
G1 X103.361 Y125.929
G1 X100.146 Y126.810
G1 X96.666 Y127.691
G1 X93.037 Y128.382
G1 X89.419 Y128.872
G1 X85.817 Y129.166
G1 X82.234 Y129.272
G1 X78.674 Y129.193
G1 X75.141 Y128.936
G1 X71.637 Y128.507
G1 X68.166 Y127.912
G1 X64.733 Y127.155
G1 X61.341 Y126.243
G1 X57.993 Y125.181
G1 X54.693 Y123.975
G1 X48.251 Y121.154
G1 X42.045 Y117.824
G1 Z8

G0 X42.045 Y117.120
G1 Z0

G1 X46.814 Y119.834
G1 X51.648 Y122.185
G1 X56.615 Y124.206
G1 X61.779 Y125.929
G1 X65.479 Y126.942
G1 X69.179 Y127.691
G1 X71.294 Y127.691
G1 X74.799 Y128.250
G1 X78.304 Y128.605
G1 X81.804 Y128.763
G1 X85.290 Y128.726
G1 X88.756 Y128.500
G1 X92.194 Y128.088
G1 X95.596 Y127.494
G1 X98.956 Y126.722
G1 X102.267 Y125.777
G1 X105.521 Y124.663
G1 X108.711 Y123.383
G1 X111.830 Y121.943
G1 X114.870 Y120.345
G1 X117.825 Y118.595
G1 X120.686 Y116.696
G1 X123.448 Y114.653
G1 X127.813 Y112.323
G1 X132.308 Y110.351
G1 X136.913 Y108.730
G1 X141.607 Y107.456
G1 X146.371 Y106.523
G1 X151.186 Y105.925
G1 X156.032 Y105.656
G1 X160.889 Y105.711
G1 X165.738 Y106.084
G1 X170.559 Y106.769
G1 X175.333 Y107.761
G1 X180.039 Y109.053
G1 X184.659 Y110.641
G1 X189.173 Y112.519
G1 X193.560 Y114.680
G1 X197.802 Y117.120
G1 Z8

G0 X197.802 Y116.767
G1 Z0

G1 X193.544 Y114.212
G1 X189.112 Y111.965
G1 X184.529 Y110.032
G1 X179.819 Y108.414
G1 X175.006 Y107.117
G1 X170.113 Y106.144
G1 X165.165 Y105.498
G1 X160.184 Y105.182
G1 X155.196 Y105.202
G1 X150.222 Y105.559
G1 X145.288 Y106.258
G1 X140.417 Y107.302
G1 X135.633 Y108.696
G1 X130.959 Y110.441
G1 X126.420 Y112.543
G1 X122.038 Y115.005
G1 X118.227 Y117.748
G1 X114.214 Y120.164
G1 X110.027 Y122.259
G1 X105.696 Y124.035
G1 X101.249 Y125.498
G1 X96.715 Y126.651
G1 X92.124 Y127.498
G1 X87.504 Y128.044
G1 X81.480 Y128.159
G1 X75.522 Y127.912
G1 X69.565 Y127.201
G1 X63.541 Y125.929
G1 X57.903 Y124.151
G1 X52.529 Y122.009
G1 X47.287 Y119.537
G1 X42.045 Y116.767
G1 Z8

G0 X42.045 Y116.062
G1 Z0

G1 X46.081 Y118.448
G1 X50.249 Y120.580
G1 X54.533 Y122.452
G1 X58.916 Y124.057
G1 X63.382 Y125.390
G1 X67.913 Y126.444
G1 X72.494 Y127.213
G1 X77.108 Y127.691
G1 X81.739 Y127.872
G1 X86.370 Y127.749
G1 X90.984 Y127.317
G1 X95.565 Y126.568
G1 X100.096 Y125.497
G1 X104.562 Y124.099
G1 X108.945 Y122.365
G1 X113.228 Y120.291
G1 X117.820 Y117.549
G1 X122.214 Y114.741
G1 X126.608 Y112.065
G1 X131.200 Y109.719
G1 X134.961 Y108.260
G1 X138.821 Y107.032
G1 X142.747 Y106.003
G1 X146.705 Y105.138
G1 X150.074 Y104.692
G1 X153.439 Y104.408
G1 X156.796 Y104.284
G1 X160.140 Y104.318
G1 X163.468 Y104.506
G1 X166.775 Y104.847
G1 X170.058 Y105.338
G1 X173.311 Y105.975
G1 X179.715 Y107.681
G1 X185.953 Y109.945
G1 X191.993 Y112.746
G1 X197.802 Y116.062
G1 Z8

G0 X197.802 Y115.710
G1 Z0

G1 X193.261 Y112.973
G1 X188.511 Y110.582
G1 X183.585 Y108.542
G1 X178.514 Y106.862
G1 X173.330 Y105.547
G1 X168.063 Y104.604
G1 X162.746 Y104.039
G1 X157.409 Y103.861
G1 X152.085 Y104.075
G1 X146.805 Y104.688
G1 X141.601 Y105.706
G1 X136.503 Y107.137
G1 X131.543 Y108.987
G1 X126.753 Y111.263
G1 X122.165 Y113.972
G1 X117.809 Y117.120
G1 X113.432 Y119.694
G1 X108.903 Y121.872
G1 X104.244 Y123.663
G1 X99.480 Y125.076
G1 X94.630 Y126.119
G1 X89.718 Y126.801
G1 X84.766 Y127.132
G1 X79.795 Y127.119
G1 X74.829 Y126.771
G1 X69.889 Y126.098
G1 X64.998 Y125.108
G1 X60.177 Y123.810
G1 X55.449 Y122.212
G1 X50.837 Y120.323
G1 X46.361 Y118.153
G1 X42.045 Y115.710
G1 Z8

G0 X42.045 Y115.005
G1 Z0

G1 X47.194 Y118.078
G1 X52.573 Y120.688
G1 X58.151 Y122.835
G1 X63.894 Y124.520
G1 X69.769 Y125.742
G1 X75.743 Y126.502
G1 X81.783 Y126.799
G1 X87.856 Y126.634
G1 X93.193 Y126.083
G1 X98.373 Y124.999
G1 X103.404 Y123.444
G1 X108.295 Y121.480
G1 X113.053 Y119.170
G1 X117.688 Y116.575
G1 X122.207 Y113.756
G1 X126.619 Y110.777
G1 X130.845 Y108.702
G1 X135.185 Y106.969
G1 X139.620 Y105.570
G1 X144.134 Y104.500
G1 X148.708 Y103.751
G1 X153.323 Y103.319
G1 X157.962 Y103.196
G1 X162.607 Y103.376
G1 X167.240 Y103.854
G1 X171.842 Y104.623
G1 X176.395 Y105.678
G1 X180.882 Y107.010
G1 X185.284 Y108.616
G1 X189.584 Y110.487
G1 X193.762 Y112.619
G1 X197.802 Y115.005
G1 Z8

G0 X197.802 Y114.653
G1 Z0

G1 X194.450 Y112.626
G1 X191.008 Y110.776
G1 X187.482 Y109.107
G1 X183.883 Y107.622
G1 X180.217 Y106.324
G1 X176.493 Y105.219
G1 X172.720 Y104.308
G1 X168.906 Y103.597
G1 X165.059 Y103.087
G1 X161.187 Y102.784
G1 X157.298 Y102.690
G1 X153.401 Y102.809
G1 X149.504 Y103.145
G1 X145.615 Y103.702
G1 X141.743 Y104.482
G1 X137.896 Y105.491
G1 X134.548 Y106.592
G1 X131.200 Y107.957
G1 X126.487 Y110.160
G1 X124.213 Y111.426
G1 X122.038 Y112.891
G1 X118.682 Y115.286
G1 X115.228 Y117.450
G1 X111.686 Y119.383
G1 X108.064 Y121.084
G1 X104.371 Y122.554
G1 X100.618 Y123.793
G1 X96.813 Y124.801
G1 X92.966 Y125.577
G1 X89.086 Y126.122
G1 X85.182 Y126.436
G1 X81.263 Y126.519
G1 X77.340 Y126.370
G1 X73.420 Y125.990
G1 X69.514 Y125.379
G1 X65.631 Y124.536
G1 X61.779 Y123.463
G1 X59.929 Y122.780
G1 X58.079 Y122.229
G1 X56.229 Y121.679
G1 X54.379 Y120.996
G1 X48.080 Y117.957
G1 X45.013 Y116.387
G1 X42.045 Y114.653
G1 Z8

G0 X42.045 Y113.948
G1 Z0

G1 X45.809 Y116.197
G1 X49.693 Y118.193
G1 X53.685 Y119.950
G1 X57.771 Y121.480
G1 X61.940 Y122.796
G1 X66.179 Y123.909
G1 X70.475 Y124.832
G1 X74.818 Y125.577
G1 X79.821 Y125.938
G1 X84.784 Y125.951
G1 X89.697 Y125.602
G1 X94.552 Y124.872
G1 X99.341 Y123.746
G1 X104.055 Y122.207
G1 X108.687 Y120.239
G1 X113.228 Y117.824
G1 X121.609 Y112.830
G1 X125.803 Y110.459
G1 X130.055 Y108.266
G1 X134.406 Y106.320
G1 X138.898 Y104.692
G1 X143.571 Y103.453
G1 X148.467 Y102.672
G1 X154.952 Y102.159
G1 X161.429 Y102.204
G1 X167.856 Y102.802
G1 X174.192 Y103.949
G1 X180.396 Y105.641
G1 X186.426 Y107.875
G1 X192.242 Y110.645
G1 X195.057 Y112.230
G1 X197.802 Y113.948
G1 Z8

G0 X197.802 Y113.596
G1 Z0

G1 X194.278 Y111.349
G1 X192.549 Y110.276
G1 X190.754 Y109.367
G1 X183.354 Y106.195
G1 X179.961 Y105.019
G1 X176.525 Y104.003
G1 X173.054 Y103.149
G1 X169.556 Y102.462
G1 X166.037 Y101.945
G1 X162.504 Y101.599
G1 X158.965 Y101.429
G1 X155.427 Y101.438
G1 X151.898 Y101.629
G1 X148.383 Y102.004
G1 X144.892 Y102.567
G1 X141.431 Y103.321
G1 X138.006 Y104.270
G1 X134.626 Y105.415
G1 X131.298 Y106.761
G1 X128.029 Y108.310
G1 X126.443 Y109.191
G1 X124.857 Y110.072
G1 X120.492 Y113.007
G1 X116.103 Y115.710
G1 X111.663 Y118.149
G1 X107.150 Y120.291
G1 X102.537 Y122.103
G1 X97.800 Y123.551
G1 X92.915 Y124.602
G1 X87.856 Y125.225
G1 X81.797 Y125.375
G1 X75.792 Y125.043
G1 X69.862 Y124.240
G1 X64.026 Y122.978
G1 X58.306 Y121.271
G1 X52.722 Y119.129
G1 X47.295 Y116.567
G1 X42.045 Y113.596
G1 Z8

G0 X42.045 Y112.891
G1 Z0

G1 X45.398 Y114.922
G1 X48.845 Y116.784
G1 X52.384 Y118.472
G1 X56.009 Y119.983
G1 X59.717 Y121.312
G1 X63.503 Y122.455
G1 X67.363 Y123.408
G1 X71.294 Y124.167
G1 X75.941 Y124.619
G1 X80.456 Y124.872
G1 X84.971 Y124.861
G1 X89.618 Y124.520
G1 X95.917 Y123.419
G1 X101.952 Y122.053
G1 X107.590 Y119.746
G1 X112.964 Y117.076
G1 X118.206 Y114.075
G1 X123.448 Y110.777
G1 X126.636 Y108.691
G1 X129.862 Y106.911
G1 X133.129 Y105.412
G1 X136.442 Y104.169
G1 X139.804 Y103.158
G1 X143.220 Y102.352
G1 X146.694 Y101.729
G1 X150.229 Y101.262
G1 X156.451 Y100.894
G1 X162.668 Y101.097
G1 X168.843 Y101.844
G1 X174.941 Y103.112
G1 X180.922 Y104.875
G1 X186.751 Y107.110
G1 X192.390 Y109.790
G1 X197.802 Y112.891
G1 Z8

G0 X197.802 Y112.539
G1 Z0

G1 X193.198 Y109.682
G1 X188.393 Y107.196
G1 X183.415 Y105.086
G1 X178.294 Y103.360
G1 X173.059 Y102.024
G1 X167.741 Y101.085
G1 X162.367 Y100.550
G1 X156.969 Y100.425
G1 X151.574 Y100.717
G1 X146.213 Y101.433
G1 X140.915 Y102.580
G1 X135.710 Y104.164
G1 X130.626 Y106.191
G1 X125.693 Y108.670
G1 X120.942 Y111.605
G1 X116.400 Y115.005
G1 X114.814 Y115.886
G1 X113.228 Y116.767
G1 X108.687 Y118.964
G1 X104.055 Y120.798
G1 X99.341 Y122.268
G1 X94.552 Y123.375
G1 X89.697 Y124.118
G1 X84.784 Y124.498
G1 X79.821 Y124.514
G1 X74.818 Y124.167
G1 X70.475 Y123.523
G1 X66.179 Y122.648
G1 X61.940 Y121.541
G1 X57.771 Y120.203
G1 X53.685 Y118.634
G1 X49.693 Y116.833
G1 X45.809 Y114.802
G1 X42.045 Y112.539
G1 Z8

G0 X42.045 Y111.834
G1 Z0

G1 X46.715 Y114.744
G1 X51.585 Y117.263
G1 X56.624 Y119.387
G1 X61.801 Y121.112
G1 X67.086 Y122.433
G1 X72.447 Y123.349
G1 X77.854 Y123.855
G1 X83.275 Y123.947
G1 X88.680 Y123.622
G1 X94.037 Y122.877
G1 X99.315 Y121.707
G1 X104.485 Y120.109
G1 X109.513 Y118.080
G1 X114.371 Y115.616
G1 X119.026 Y112.713
G1 X123.448 Y109.367
G1 X128.166 Y106.966
G1 X132.918 Y104.698
G1 X135.358 Y103.696
G1 X137.868 Y102.826
G1 X140.469 Y102.121
G1 X143.182 Y101.614
G1 X143.886 Y101.262
G1 X144.591 Y100.910
G1 X146.915 Y100.794
G1 X149.172 Y100.513
G1 X153.753 Y99.852
G1 X157.453 Y99.764
G1 X161.153 Y99.941
G1 X168.554 Y100.557
G1 X170.877 Y100.937
G1 X173.135 Y101.482
G1 X177.716 Y102.672
G1 X182.936 Y104.400
G1 X188.023 Y106.460
G1 X192.979 Y108.916
G1 X197.802 Y111.834
G1 Z8

G0 X197.802 Y111.481
G1 Z0

G1 X193.187 Y108.625
G1 X188.350 Y106.138
G1 X183.324 Y104.029
G1 X178.145 Y102.303
G1 X172.847 Y100.967
G1 X167.462 Y100.028
G1 X162.026 Y99.493
G1 X156.572 Y99.368
G1 X151.135 Y99.660
G1 X145.749 Y100.376
G1 X140.447 Y101.523
G1 X135.264 Y103.107
G1 X130.233 Y105.134
G1 X125.390 Y107.613
G1 X120.767 Y110.548
G1 X116.400 Y113.948
G1 X112.430 Y115.991
G1 X108.427 Y117.868
G1 X104.358 Y119.548
G1 X100.190 Y120.996
G1 X96.416 Y121.934
G1 X92.633 Y122.639
G1 X88.845 Y123.117
G1 X85.059 Y123.375
G1 X81.282 Y123.417
G1 X77.518 Y123.251
G1 X73.776 Y122.882
G1 X70.060 Y122.317
G1 X66.378 Y121.563
G1 X62.735 Y120.624
G1 X59.137 Y119.508
G1 X55.590 Y118.221
G1 X52.102 Y116.768
G1 X48.677 Y115.157
G1 X45.323 Y113.392
G1 X42.045 Y111.481
G1 Z8

G0 X42.045 Y110.777
G1 Z0

G1 X46.661 Y113.629
G1 X51.498 Y116.105
G1 X56.523 Y118.199
G1 X61.702 Y119.906
G1 X67.001 Y121.220
G1 X72.385 Y122.137
G1 X77.821 Y122.651
G1 X83.275 Y122.758
G1 X88.712 Y122.451
G1 X94.099 Y121.727
G1 X99.401 Y120.579
G1 X104.584 Y119.003
G1 X109.614 Y116.993
G1 X114.458 Y114.544
G1 X119.080 Y111.652
G1 X123.448 Y108.310
G1 X126.784 Y106.412
G1 X130.187 Y104.692
G1 X133.656 Y103.162
G1 X137.191 Y101.835
G1 X140.792 Y100.722
G1 X144.459 Y99.836
G1 X148.192 Y99.190
G1 X151.991 Y98.795
G1 X158.538 Y98.691
G1 X164.986 Y99.016
G1 X168.183 Y99.391
G1 X171.367 Y99.935
G1 X174.544 Y100.669
G1 X177.716 Y101.614
G1 X182.936 Y103.492
G1 X188.023 Y105.535
G1 X192.979 Y107.908
G1 X197.802 Y110.777
G1 Z8

G0 X197.802 Y110.424
G1 Z0

G1 X193.894 Y108.030
G1 X189.846 Y105.875
G1 X185.676 Y103.967
G1 X181.399 Y102.314
G1 X177.034 Y100.922
G1 X172.597 Y99.801
G1 X168.106 Y98.957
G1 X163.576 Y98.399
G1 X159.026 Y98.134
G1 X154.473 Y98.170
G1 X149.932 Y98.514
G1 X145.423 Y99.175
G1 X140.960 Y100.160
G1 X136.563 Y101.477
G1 X132.246 Y103.134
G1 X128.029 Y105.138
G1 X126.443 Y106.019
G1 X124.857 Y106.900
G1 X117.275 Y111.938
G1 X113.491 Y114.216
G1 X109.660 Y116.283
G1 X105.748 Y118.102
G1 X101.715 Y119.636
G1 X97.526 Y120.848
G1 X93.142 Y121.701
G1 X89.605 Y122.147
G1 X86.122 Y122.427
G1 X82.680 Y122.543
G1 X79.267 Y122.494
G1 X75.870 Y122.279
G1 X72.478 Y121.899
G1 X69.077 Y121.354
G1 X65.656 Y120.644
G1 X61.779 Y119.586
G1 X56.615 Y117.659
G1 X51.648 Y115.534
G1 X46.814 Y113.144
G1 X42.045 Y110.424
G1 Z8

G0 X42.045 Y109.719
G1 Z0

G1 X46.222 Y112.331
G1 X50.547 Y114.620
G1 X55.004 Y116.595
G1 X59.577 Y118.265
G1 X64.249 Y119.637
G1 X69.003 Y120.721
G1 X73.824 Y121.523
G1 X78.694 Y122.053
G1 X81.861 Y122.169
G1 X85.014 Y122.123
G1 X88.148 Y121.918
G1 X91.259 Y121.558
G1 X94.341 Y121.044
G1 X97.389 Y120.381
G1 X100.397 Y119.571
G1 X103.361 Y118.617
G1 X109.136 Y116.292
G1 X114.671 Y113.431
G1 X119.925 Y110.057
G1 X124.857 Y106.195
G1 X129.157 Y103.873
G1 X133.585 Y101.924
G1 X138.122 Y100.340
G1 X142.747 Y99.115
G1 X147.440 Y98.240
G1 X152.181 Y97.709
G1 X156.949 Y97.515
G1 X161.726 Y97.650
G1 X166.490 Y98.107
G1 X171.222 Y98.879
G1 X175.901 Y99.959
G1 X180.507 Y101.339
G1 X185.021 Y103.012
G1 X189.421 Y104.972
G1 X193.688 Y107.210
G1 X197.802 Y109.719
G1 Z8

G0 X197.802 Y109.367
G1 Z0

G1 X194.450 Y107.321
G1 X191.002 Y105.419
G1 X187.464 Y103.674
G1 X183.839 Y102.099
G1 X180.131 Y100.705
G1 X176.345 Y99.506
G1 X172.484 Y98.512
G1 X168.554 Y97.738
G1 X166.439 Y97.738
G1 X160.924 Y97.060
G1 X155.482 Y96.874
G1 X150.123 Y97.174
G1 X144.855 Y97.958
G1 X139.687 Y99.221
G1 X134.625 Y100.959
G1 X129.679 Y103.168
G1 X124.857 Y105.843
G1 X116.752 Y111.085
G1 X112.766 Y113.623
G1 X108.647 Y116.062
G1 X107.799 Y116.475
G1 X106.885 Y116.723
G1 X105.123 Y117.120
G1 X101.190 Y118.554
G1 X97.195 Y119.692
G1 X93.152 Y120.541
G1 X89.073 Y121.112
G1 X84.971 Y121.411
G1 X80.860 Y121.449
G1 X76.752 Y121.235
G1 X72.659 Y120.776
G1 X68.596 Y120.081
G1 X64.574 Y119.160
G1 X60.607 Y118.021
G1 X56.708 Y116.674
G1 X52.889 Y115.125
G1 X49.164 Y113.386
G1 X45.545 Y111.463
G1 X42.045 Y109.367
G1 Z8

G0 X42.045 Y108.662
G1 Z0

G1 X46.059 Y111.172
G1 X50.172 Y113.414
G1 X54.385 Y115.383
G1 X58.696 Y117.076
G1 X63.106 Y118.487
G1 X67.616 Y119.614
G1 X72.224 Y120.451
G1 X76.932 Y120.996
G1 X80.169 Y121.116
G1 X83.400 Y121.081
G1 X86.619 Y120.891
G1 X89.822 Y120.550
G1 X93.002 Y120.058
G1 X96.153 Y119.416
G1 X99.271 Y118.627
G1 X102.348 Y117.692
G1 X105.380 Y116.613
G1 X108.362 Y115.390
G1 X111.286 Y114.026
G1 X114.148 Y112.522
G1 X116.942 Y110.880
G1 X119.662 Y109.101
G1 X122.302 Y107.186
G1 X124.857 Y105.138
G1 X126.861 Y104.235
G1 X128.734 Y103.200
G1 X130.606 Y102.165
G1 X132.610 Y101.262
G1 X134.251 Y100.585
G1 X135.958 Y100.073
G1 X139.305 Y99.148
G1 X143.083 Y98.089
G1 X146.878 Y97.287
G1 X150.683 Y96.734
G1 X154.491 Y96.422
G1 X158.295 Y96.343
G1 X162.088 Y96.490
G1 X165.862 Y96.855
G1 X169.611 Y97.430
G1 X173.326 Y98.207
G1 X177.001 Y99.179
G1 X180.629 Y100.337
G1 X184.202 Y101.675
G1 X187.713 Y103.184
G1 X191.155 Y104.857
G1 X194.520 Y106.685
G1 X197.802 Y108.662
G1 Z8

G0 X197.802 Y108.310
G1 Z0

G1 X193.750 Y105.731
G1 X189.537 Y103.418
G1 X185.182 Y101.381
G1 X180.706 Y99.632
G1 X176.128 Y98.180
G1 X171.470 Y97.036
G1 X166.751 Y96.210
G1 X161.990 Y95.712
G1 X157.210 Y95.553
G1 X152.428 Y95.742
G1 X147.667 Y96.291
G1 X142.945 Y97.210
G1 X138.283 Y98.508
G1 X133.701 Y100.197
G1 X129.219 Y102.286
G1 X124.857 Y104.786
G1 X115.299 Y111.129
G1 X110.536 Y114.003
G1 X108.057 Y115.279
G1 X105.476 Y116.415
G1 X101.561 Y117.665
G1 X97.679 Y118.749
G1 X93.731 Y119.636
G1 X89.618 Y120.291
G1 X82.394 Y120.555
G1 X75.170 Y120.291
G1 X70.712 Y119.646
G1 X66.327 Y118.766
G1 X62.026 Y117.646
G1 X57.815 Y116.283
G1 X53.703 Y114.671
G1 X49.699 Y112.808
G1 X45.810 Y110.689
G1 X42.045 Y108.310
G1 Z8

G0 X42.045 Y107.605
G1 Z0

G1 X45.059 Y109.574
G1 X48.151 Y111.384
G1 X51.316 Y113.032
G1 X54.550 Y114.515
G1 X57.847 Y115.831
G1 X61.205 Y116.977
G1 X64.616 Y117.951
G1 X68.078 Y118.749
G1 X71.586 Y119.370
G1 X75.134 Y119.811
G1 X78.718 Y120.070
G1 X82.334 Y120.142
G1 X85.976 Y120.027
G1 X89.641 Y119.722
G1 X93.323 Y119.223
G1 X97.018 Y118.529
G1 X97.723 Y118.177
G1 X98.428 Y117.824
G1 X102.180 Y116.873
G1 X105.779 Y115.627
G1 X109.237 Y114.126
G1 X112.568 Y112.406
G1 X115.782 Y110.505
G1 X118.894 Y108.458
G1 X124.857 Y104.081
G1 X129.103 Y101.755
G1 X133.498 Y99.795
G1 X138.021 Y98.196
G1 X142.647 Y96.951
G1 X147.354 Y96.055
G1 X152.119 Y95.502
G1 X156.917 Y95.287
G1 X161.726 Y95.404
G1 X166.523 Y95.847
G1 X171.284 Y96.610
G1 X175.986 Y97.688
G1 X180.607 Y99.076
G1 X185.121 Y100.767
G1 X189.508 Y102.756
G1 X193.742 Y105.037
G1 X197.802 Y107.605
G1 Z8

G0 X197.802 Y107.253
G1 Z0

G1 X195.781 Y105.639
G1 X193.529 Y104.389
G1 X188.992 Y102.319
G1 X185.292 Y100.425
G1 X181.592 Y98.795
G1 X181.064 Y98.641
G1 X180.535 Y98.619
G1 X180.006 Y98.597
G1 X179.478 Y98.443
G1 X176.213 Y97.345
G1 X172.899 Y96.428
G1 X169.544 Y95.695
G1 X166.159 Y95.145
G1 X162.750 Y94.778
G1 X159.328 Y94.596
G1 X155.900 Y94.599
G1 X152.476 Y94.787
G1 X149.064 Y95.161
G1 X145.674 Y95.721
G1 X142.313 Y96.468
G1 X138.991 Y97.402
G1 X135.717 Y98.525
G1 X132.499 Y99.835
G1 X129.346 Y101.335
G1 X126.267 Y103.024
G1 X123.419 Y104.683
G1 X120.662 Y106.449
G1 X115.255 Y110.072
G1 X112.522 Y111.813
G1 X109.715 Y113.431
G1 X106.793 Y114.866
G1 X103.714 Y116.062
G1 X99.748 Y117.268
G1 X95.774 Y118.237
G1 X91.783 Y118.968
G1 X87.768 Y119.454
G1 X83.720 Y119.693
G1 X79.630 Y119.680
G1 X75.491 Y119.411
G1 X71.294 Y118.882
G1 X65.656 Y117.604
G1 X60.017 Y116.062
G1 X55.326 Y114.289
G1 X50.767 Y112.186
G1 X46.340 Y109.819
G1 X42.045 Y107.253
G1 Z8

G0 X42.045 Y106.548
G1 Z0

G1 X45.195 Y108.525
G1 X48.429 Y110.355
G1 X51.740 Y112.033
G1 X55.122 Y113.552
G1 X58.568 Y114.905
G1 X62.072 Y116.087
G1 X65.626 Y117.092
G1 X69.224 Y117.912
G1 X72.858 Y118.543
G1 X76.524 Y118.978
G1 X80.213 Y119.210
G1 X83.919 Y119.234
G1 X87.636 Y119.043
G1 X91.356 Y118.631
G1 X95.073 Y117.992
G1 X98.780 Y117.120
G1 X102.416 Y115.965
G1 X105.927 Y114.620
G1 X109.323 Y113.093
G1 X112.612 Y111.393
G1 X115.801 Y109.528
G1 X118.900 Y107.506
G1 X121.916 Y105.335
G1 X124.857 Y103.024
G1 X129.103 Y100.644
G1 X133.498 Y98.651
G1 X138.021 Y97.038
G1 X142.647 Y95.794
G1 X147.354 Y94.912
G1 X152.119 Y94.383
G1 X156.917 Y94.197
G1 X161.726 Y94.346
G1 X166.523 Y94.822
G1 X171.284 Y95.615
G1 X175.986 Y96.716
G1 X180.607 Y98.118
G1 X185.121 Y99.811
G1 X189.508 Y101.786
G1 X193.742 Y104.034
G1 X197.802 Y106.548
G1 Z8

G0 X197.802 Y106.195
G1 Z0

G1 X195.781 Y104.577
G1 X193.529 Y103.288
G1 X191.211 Y102.132
G1 X188.992 Y100.910
G1 X185.116 Y99.148
G1 X179.621 Y97.002
G1 X173.994 Y95.332
G1 X168.267 Y94.149
G1 X162.475 Y93.465
G1 X156.649 Y93.294
G1 X150.824 Y93.647
G1 X145.032 Y94.537
G1 X139.305 Y95.976
G1 X135.958 Y97.077
G1 X132.610 Y98.443
G1 X128.023 Y100.800
G1 X123.668 Y103.553
G1 X114.990 Y109.719
G1 X113.405 Y110.600
G1 X111.819 Y111.481
G1 X107.601 Y113.547
G1 X103.285 Y115.258
G1 X98.887 Y116.620
G1 X94.425 Y117.643
G1 X89.915 Y118.333
G1 X85.375 Y118.698
G1 X80.821 Y118.746
G1 X76.271 Y118.485
G1 X71.742 Y117.923
G1 X67.250 Y117.067
G1 X62.813 Y115.925
G1 X58.448 Y114.504
G1 X54.172 Y112.813
G1 X50.001 Y110.860
G1 X45.953 Y108.651
G1 X42.045 Y106.195
G1 Z8

G0 X42.045 Y105.491
G1 Z0

G1 X47.144 Y108.723
G1 X52.441 Y111.525
G1 X58.002 Y113.865
G1 X60.902 Y114.852
G1 X63.894 Y115.710
G1 X68.518 Y116.765
G1 X73.138 Y117.544
G1 X77.750 Y118.033
G1 X82.350 Y118.221
G1 X86.933 Y118.095
G1 X91.496 Y117.643
G1 X96.033 Y116.852
G1 X100.542 Y115.710
G1 X103.885 Y114.542
G1 X107.067 Y113.172
G1 X110.125 Y111.628
G1 X113.096 Y109.940
G1 X118.927 Y106.245
G1 X124.857 Y102.319
G1 X129.531 Y99.439
G1 X134.300 Y97.121
G1 X139.160 Y95.332
G1 X144.107 Y94.038
G1 X149.136 Y93.207
G1 X154.243 Y92.805
G1 X159.425 Y92.799
G1 X164.677 Y93.157
G1 X169.136 Y93.817
G1 X173.520 Y94.737
G1 X177.822 Y95.914
G1 X182.033 Y97.342
G1 X186.144 Y99.018
G1 X190.149 Y100.937
G1 X194.037 Y103.096
G1 X197.802 Y105.491
G1 Z8

G0 X197.802 Y105.138
G1 Z0

G1 X196.419 Y104.026
G1 X194.928 Y103.046
G1 X191.723 Y101.350
G1 X188.387 Y99.786
G1 X185.116 Y98.090
G1 X181.939 Y96.736
G1 X178.729 Y95.712
G1 X172.078 Y93.862
G1 X169.566 Y93.281
G1 X167.051 Y92.849
G1 X161.990 Y92.364
G1 X156.864 Y92.276
G1 X151.639 Y92.452
G1 X148.115 Y93.025
G1 X144.591 Y93.862
G1 X140.054 Y94.655
G1 X135.781 Y95.976
G1 X132.951 Y97.128
G1 X130.253 Y98.448
G1 X125.122 Y101.482
G1 X114.990 Y108.310
G1 X111.020 Y110.705
G1 X107.017 Y112.671
G1 X102.948 Y114.306
G1 X98.780 Y115.710
G1 X95.135 Y116.586
G1 X91.556 Y117.164
G1 X84.332 Y117.824
G1 X78.685 Y117.713
G1 X73.116 Y117.131
G1 X67.638 Y116.102
G1 X62.264 Y114.653
G1 X57.005 Y112.807
G1 X51.874 Y110.589
G1 X46.883 Y108.025
G1 X42.045 Y105.138
G1 Z8

G0 X42.045 Y104.434
G1 Z0

G1 X45.383 Y106.596
G1 X48.796 Y108.585
G1 X52.291 Y110.393
G1 X55.877 Y112.010
G1 X59.562 Y113.429
G1 X63.354 Y114.642
G1 X67.262 Y115.640
G1 X71.294 Y116.415
G1 X73.408 Y116.415
G1 X76.967 Y116.895
G1 X80.504 Y117.151
G1 X84.014 Y117.188
G1 X87.493 Y117.015
G1 X90.934 Y116.637
G1 X94.333 Y116.062
G1 X97.684 Y115.295
G1 X100.983 Y114.345
G1 X104.224 Y113.216
G1 X107.401 Y111.917
G1 X110.511 Y110.454
G1 X113.548 Y108.833
G1 X116.506 Y107.061
G1 X119.380 Y105.146
G1 X122.166 Y103.093
G1 X124.857 Y100.910
G1 X129.018 Y98.666
G1 X133.298 Y96.703
G1 X137.686 Y95.037
G1 X142.168 Y93.686
G1 X146.734 Y92.664
G1 X151.369 Y91.990
G1 X156.062 Y91.679
G1 X160.801 Y91.747
G1 X165.773 Y92.206
G1 X170.646 Y93.036
G1 X175.420 Y94.213
G1 X180.094 Y95.712
G1 X184.670 Y97.508
G1 X189.147 Y99.577
G1 X193.524 Y101.894
G1 X197.802 Y104.434
G1 Z8

G0 X197.802 Y104.081
G1 Z0

G1 X195.508 Y102.443
G1 X193.127 Y100.954
G1 X188.155 Y98.355
G1 X182.985 Y96.152
G1 X177.716 Y94.214
G1 X172.689 Y92.876
G1 X167.629 Y91.968
G1 X162.502 Y91.390
G1 X157.277 Y91.043
G1 X151.788 Y91.301
G1 X146.397 Y92.056
G1 X141.073 Y93.273
G1 X135.781 Y94.919
G1 X132.951 Y96.070
G1 X130.253 Y97.391
G1 X125.122 Y100.425
G1 X114.990 Y107.253
G1 X110.729 Y109.815
G1 X106.401 Y111.960
G1 X102.007 Y113.701
G1 X97.547 Y115.049
G1 X93.021 Y116.018
G1 X88.429 Y116.619
G1 X83.771 Y116.864
G1 X79.046 Y116.767
G1 X74.074 Y116.309
G1 X69.201 Y115.479
G1 X64.428 Y114.302
G1 X59.753 Y112.803
G1 X55.177 Y111.006
G1 X50.701 Y108.938
G1 X46.324 Y106.621
G1 X42.045 Y104.081
G1 Z8

G0 X42.045 Y103.376
G1 Z0

G1 X44.736 Y105.262
G1 X47.518 Y106.966
G1 X50.383 Y108.505
G1 X53.322 Y109.896
G1 X59.390 Y112.296
G1 X65.656 Y114.300
G1 X69.605 Y115.125
G1 X73.529 Y115.743
G1 X77.437 Y116.146
G1 X81.337 Y116.327
G1 X85.237 Y116.276
G1 X89.145 Y115.985
G1 X93.069 Y115.447
G1 X97.018 Y114.653
G1 X102.178 Y113.183
G1 X107.106 Y111.349
G1 X111.835 Y109.053
G1 X114.136 Y107.701
G1 X116.400 Y106.195
G1 X121.862 Y102.126
G1 X127.324 Y98.487
G1 X130.138 Y96.880
G1 X133.050 Y95.442
G1 X136.095 Y94.194
G1 X139.305 Y93.157
G1 X146.221 Y91.659
G1 X149.761 Y91.076
G1 X153.401 Y90.690
G1 X160.003 Y90.701
G1 X163.293 Y90.926
G1 X166.571 Y91.307
G1 X169.833 Y91.853
G1 X173.074 Y92.573
G1 X176.290 Y93.475
G1 X179.478 Y94.567
G1 X180.006 Y94.721
G1 X180.535 Y94.743
G1 X181.064 Y94.765
G1 X181.592 Y94.919
G1 X188.992 Y98.090
G1 X191.310 Y99.263
G1 X193.529 Y100.601
G1 X197.802 Y103.376
G1 Z8

G0 X197.802 Y103.024
G1 Z0

G1 X194.080 Y100.560
G1 X190.196 Y98.329
G1 X186.168 Y96.339
G1 X182.016 Y94.600
G1 X177.759 Y93.121
G1 X173.415 Y91.911
G1 X169.004 Y90.981
G1 X164.545 Y90.338
G1 X160.057 Y89.993
G1 X155.560 Y89.954
G1 X151.072 Y90.231
G1 X146.612 Y90.833
G1 X142.199 Y91.770
G1 X137.854 Y93.051
G1 X133.594 Y94.685
G1 X129.438 Y96.681
G1 X127.853 Y97.694
G1 X126.267 Y98.443
G1 X123.266 Y100.354
G1 X120.496 Y102.363
G1 X114.990 Y106.548
G1 X107.238 Y110.777
G1 X103.890 Y112.142
G1 X100.542 Y113.243
G1 X94.722 Y114.620
G1 X88.869 Y115.534
G1 X82.950 Y115.919
G1 X79.956 Y115.893
G1 X76.932 Y115.710
G1 X74.113 Y115.226
G1 X71.294 Y115.005
G1 X67.363 Y114.331
G1 X63.503 Y113.381
G1 X59.717 Y112.174
G1 X56.009 Y110.733
G1 X52.384 Y109.076
G1 X48.845 Y107.225
G1 X45.398 Y105.201
G1 X42.045 Y103.024
G1 Z8

G0 X42.045 Y102.319
G1 Z0

G1 X47.357 Y105.769
G1 X52.953 Y108.712
G1 X58.789 Y111.134
G1 X64.819 Y113.023
G1 X70.997 Y114.367
G1 X77.279 Y115.154
G1 X83.619 Y115.371
G1 X89.971 Y115.005
G1 X95.013 Y114.206
G1 X99.854 Y112.907
G1 X104.521 Y111.171
G1 X109.044 Y109.059
G1 X113.451 Y106.633
G1 X117.771 Y103.955
G1 X126.267 Y98.090
G1 X130.892 Y95.227
G1 X133.254 Y94.077
G1 X135.781 Y93.157
G1 X139.746 Y91.913
G1 X143.710 Y90.866
G1 X147.675 Y90.085
G1 X151.639 Y89.633
G1 X155.339 Y89.440
G1 X159.039 Y89.413
G1 X162.739 Y89.584
G1 X166.439 Y89.986
G1 X171.340 Y90.861
G1 X176.042 Y91.968
G1 X180.612 Y93.405
G1 X185.116 Y95.271
G1 X188.992 Y97.033
G1 X193.529 Y99.676
G1 X197.802 Y102.319
G1 Z8

G0 X197.802 Y101.967
G1 Z0

G1 X193.726 Y99.224
G1 X189.444 Y96.808
G1 X184.980 Y94.713
G1 X180.359 Y92.937
G1 X175.606 Y91.474
G1 X170.745 Y90.321
G1 X165.802 Y89.474
G1 X160.801 Y88.928
G1 X156.458 Y88.813
G1 X152.156 Y88.994
G1 X147.904 Y89.473
G1 X143.710 Y90.250
G1 X139.582 Y91.323
G1 X135.528 Y92.695
G1 X131.557 Y94.363
G1 X127.676 Y96.329
G1 X123.932 Y98.817
G1 X120.452 Y101.438
G1 X116.972 Y104.059
G1 X113.228 Y106.548
G1 X110.289 Y108.269
G1 X107.287 Y109.747
G1 X104.228 Y111.002
G1 X101.115 Y112.054
G1 X97.952 Y112.925
G1 X94.744 Y113.634
G1 X88.209 Y114.653
G1 X82.019 Y114.888
G1 X75.891 Y114.554
G1 X69.855 Y113.674
G1 X63.938 Y112.274
G1 X58.169 Y110.379
G1 X52.579 Y108.013
G1 X47.194 Y105.200
G1 X42.045 Y101.967
G1 Z8

G0 X42.045 Y101.262
G1 Z0

G1 X44.487 Y103.133
G1 X47.045 Y104.797
G1 X49.702 Y106.279
G1 X52.441 Y107.605
G1 X58.101 Y109.885
G1 X63.894 Y111.834
G1 X67.594 Y112.847
G1 X71.294 Y113.596
G1 X75.996 Y114.047
G1 X80.632 Y114.300
G1 X85.268 Y114.289
G1 X89.971 Y113.948
G1 X96.137 Y112.803
G1 X99.188 Y112.065
G1 X102.304 Y111.129
G1 X105.661 Y109.843
G1 X108.873 Y108.376
G1 X111.961 Y106.743
G1 X114.946 Y104.962
G1 X120.689 Y101.020
G1 X126.267 Y96.681
G1 X130.500 Y94.367
G1 X134.862 Y92.441
G1 X139.331 Y90.893
G1 X143.886 Y89.716
G1 X148.508 Y88.900
G1 X153.175 Y88.436
G1 X157.867 Y88.317
G1 X162.563 Y88.532
G1 X167.243 Y89.073
G1 X171.885 Y89.933
G1 X176.469 Y91.100
G1 X180.975 Y92.568
G1 X185.382 Y94.327
G1 X189.670 Y96.368
G1 X193.816 Y98.682
G1 X197.802 Y101.262
G1 Z8

G0 X197.802 Y100.910
G1 Z0

G1 X196.022 Y99.433
G1 X194.130 Y98.146
G1 X190.094 Y95.976
G1 X185.859 Y94.071
G1 X181.592 Y92.100
G1 X181.064 Y91.946
G1 X180.535 Y91.924
G1 X180.006 Y91.902
G1 X179.478 Y91.747
G1 X176.142 Y90.454
G1 X172.749 Y89.457
G1 X169.307 Y88.725
G1 X165.823 Y88.224
G1 X162.306 Y87.921
G1 X158.764 Y87.783
G1 X151.639 Y87.871
G1 X146.303 Y88.556
G1 X141.133 Y89.782
G1 X136.128 Y91.495
G1 X131.288 Y93.642
G1 X126.614 Y96.168
G1 X122.104 Y99.021
G1 X117.760 Y102.146
G1 X113.581 Y105.491
G1 X109.347 Y107.747
G1 X104.986 Y109.630
G1 X100.517 Y111.148
G1 X95.961 Y112.307
G1 X91.339 Y113.116
G1 X86.672 Y113.581
G1 X81.980 Y113.709
G1 X77.284 Y113.508
G1 X72.605 Y112.984
G1 X67.963 Y112.146
G1 X63.378 Y111.000
G1 X58.872 Y109.554
G1 X54.465 Y107.815
G1 X50.178 Y105.789
G1 X46.031 Y103.485
G1 X42.045 Y100.910
G1 Z8

G0 X42.045 Y100.205
G1 Z0

G1 X44.534 Y101.989
G1 X47.108 Y103.641
G1 X52.479 Y106.553
G1 X58.107 Y108.945
G1 X63.938 Y110.821
G1 X69.917 Y112.184
G1 X75.991 Y113.040
G1 X82.106 Y113.391
G1 X88.209 Y113.243
G1 X91.325 Y112.858
G1 X94.375 Y112.274
G1 X100.542 Y110.777
G1 X104.237 Y109.428
G1 X107.898 Y107.913
G1 X111.494 Y106.069
G1 X114.990 Y103.729
G1 X118.960 Y100.763
G1 X122.963 Y97.975
G1 X127.032 Y95.410
G1 X131.200 Y93.113
G1 X135.501 Y91.130
G1 X139.966 Y89.506
G1 X144.630 Y88.288
G1 X149.525 Y87.519
G1 X152.757 Y87.266
G1 X155.978 Y87.168
G1 X162.370 Y87.420
G1 X168.671 Y88.250
G1 X174.853 Y89.633
G1 X180.885 Y91.545
G1 X186.740 Y93.961
G1 X192.389 Y96.856
G1 X197.802 Y100.205
G1 Z8

G0 X197.802 Y99.852
G1 Z0

G1 X194.987 Y97.879
G1 X192.093 Y96.056
G1 X189.126 Y94.386
G1 X186.091 Y92.871
G1 X182.991 Y91.512
G1 X179.832 Y90.313
G1 X176.619 Y89.275
G1 X173.355 Y88.400
G1 X170.046 Y87.690
G1 X166.696 Y87.147
G1 X163.310 Y86.774
G1 X159.893 Y86.572
G1 X156.448 Y86.543
G1 X152.982 Y86.690
G1 X149.498 Y87.015
G1 X146.001 Y87.519
G1 X141.384 Y88.520
G1 X137.020 Y89.914
G1 X132.862 Y91.663
G1 X128.866 Y93.730
G1 X124.985 Y96.077
G1 X121.174 Y98.669
G1 X113.581 Y104.434
G1 X111.995 Y105.315
G1 X110.409 Y106.195
G1 X106.258 Y108.250
G1 X102.008 Y109.927
G1 X97.678 Y111.237
G1 X93.285 Y112.192
G1 X88.847 Y112.802
G1 X84.380 Y113.077
G1 X79.904 Y113.030
G1 X75.434 Y112.671
G1 X70.990 Y112.010
G1 X66.587 Y111.058
G1 X62.245 Y109.827
G1 X57.980 Y108.326
G1 X53.810 Y106.568
G1 X49.753 Y104.562
G1 X45.825 Y102.320
G1 X42.045 Y99.852
G1 Z8

G0 X42.045 Y99.148
G1 Z0

G1 X44.075 Y100.669
G1 X46.191 Y102.071
G1 X50.635 Y104.566
G1 X55.277 Y106.730
G1 X60.017 Y108.662
G1 X65.953 Y110.507
G1 X68.999 Y111.220
G1 X72.087 Y111.790
G1 X75.207 Y112.210
G1 X78.353 Y112.478
G1 X81.515 Y112.589
G1 X84.685 Y112.539
G1 X89.646 Y112.082
G1 X94.508 Y111.261
G1 X99.303 Y110.110
G1 X104.066 Y108.662
G1 X107.145 Y107.363
G1 X110.062 Y105.871
G1 X112.856 Y104.221
G1 X115.563 Y102.451
G1 X120.865 Y98.702
G1 X126.267 Y94.919
G1 X130.544 Y92.271
G1 X134.911 Y90.123
G1 X139.362 Y88.446
G1 X143.886 Y87.210
G1 X148.477 Y86.388
G1 X153.126 Y85.950
G1 X157.824 Y85.866
G1 X162.563 Y86.109
G1 X167.286 Y86.684
G1 X171.934 Y87.601
G1 X176.500 Y88.841
G1 X180.975 Y90.382
G1 X185.351 Y92.204
G1 X189.620 Y94.286
G1 X193.773 Y96.607
G1 X197.802 Y99.148
G1 Z8

G0 X197.802 Y98.795
G1 Z0

G1 X194.037 Y96.168
G1 X190.143 Y93.834
G1 X186.126 Y91.789
G1 X181.989 Y90.030
G1 X177.736 Y88.550
G1 X173.372 Y87.348
G1 X168.900 Y86.418
G1 X164.325 Y85.757
G1 X161.052 Y85.458
G1 X157.833 Y85.349
G1 X154.656 Y85.422
G1 X151.507 Y85.669
G1 X148.374 Y86.080
G1 X145.246 Y86.649
G1 X138.953 Y88.224
G1 X135.377 Y89.438
G1 X132.015 Y90.933
G1 X128.819 Y92.659
G1 X125.738 Y94.567
G1 X119.726 Y98.729
G1 X113.581 Y103.024
G1 X108.892 Y105.787
G1 X104.083 Y108.013
G1 X99.166 Y109.726
G1 X94.155 Y110.953
G1 X89.061 Y111.717
G1 X83.897 Y112.043
G1 X78.675 Y111.956
G1 X73.408 Y111.481
G1 X69.112 Y110.691
G1 X64.940 Y109.648
G1 X60.883 Y108.366
G1 X56.934 Y106.856
G1 X53.084 Y105.132
G1 X49.324 Y103.206
G1 X45.648 Y101.089
G1 X42.045 Y98.795
G1 Z8

G0 X42.045 Y98.090
G1 Z0

G1 X45.709 Y100.703
G1 X49.550 Y103.002
G1 X53.548 Y105.003
G1 X57.683 Y106.724
G1 X61.933 Y108.180
G1 X66.278 Y109.389
G1 X70.697 Y110.366
G1 X75.170 Y111.129
G1 X80.422 Y111.574
G1 X85.604 Y111.580
G1 X90.712 Y111.141
G1 X95.741 Y110.248
G1 X100.687 Y108.892
G1 X105.547 Y107.065
G1 X110.316 Y104.760
G1 X114.990 Y101.967
G1 X126.267 Y93.509
G1 X129.389 Y91.632
G1 X132.478 Y90.118
G1 X138.953 Y87.519
G1 X144.988 Y86.153
G1 X151.287 Y85.052
G1 X154.992 Y84.859
G1 X158.731 Y84.832
G1 X162.536 Y85.002
G1 X166.439 Y85.404
G1 X170.735 Y86.195
G1 X174.908 Y87.238
G1 X178.964 Y88.520
G1 X182.914 Y90.030
G1 X186.764 Y91.754
G1 X190.523 Y93.680
G1 X194.200 Y95.797
G1 X197.802 Y98.090
G1 Z8

G0 X197.802 Y97.738
G1 Z0

G1 X195.508 Y96.085
G1 X193.127 Y94.556
G1 X188.155 Y91.836
G1 X182.985 Y89.512
G1 X177.716 Y87.519
G1 X173.840 Y86.462
G1 X169.215 Y85.437
G1 X164.595 Y84.744
G1 X159.983 Y84.380
G1 X155.383 Y84.347
G1 X150.800 Y84.645
G1 X146.237 Y85.272
G1 X141.700 Y86.230
G1 X137.191 Y87.519
G1 X133.878 Y88.833
G1 X130.776 Y90.371
G1 X127.831 Y92.090
G1 X124.989 Y93.950
G1 X119.401 Y97.925
G1 X113.581 Y101.967
G1 X111.053 Y103.602
G1 X108.488 Y105.072
G1 X105.881 Y106.377
G1 X103.229 Y107.517
G1 X100.528 Y108.492
G1 X97.773 Y109.301
G1 X94.960 Y109.945
G1 X92.085 Y110.424
G1 X87.383 Y110.821
G1 X82.747 Y110.953
G1 X78.110 Y110.821
G1 X73.408 Y110.424
G1 X70.027 Y109.780
G1 X66.713 Y108.971
G1 X60.017 Y107.253
G1 X58.167 Y106.608
G1 X56.317 Y105.799
G1 X52.617 Y104.081
G1 X49.974 Y102.644
G1 X47.331 Y101.042
G1 X42.045 Y97.738
G1 Z8

G0 X42.045 Y97.033
G1 Z0

G1 X45.973 Y99.777
G1 X50.079 Y102.198
G1 X54.341 Y104.306
G1 X58.740 Y106.107
G1 X63.254 Y107.612
G1 X67.864 Y108.827
G1 X72.547 Y109.762
G1 X77.284 Y110.424
G1 X81.379 Y110.571
G1 X85.461 Y110.479
G1 X89.518 Y110.139
G1 X93.538 Y109.543
G1 X97.509 Y108.683
G1 X101.418 Y107.550
G1 X105.252 Y106.136
G1 X109.000 Y104.434
G1 X113.531 Y101.669
G1 X117.765 Y98.707
G1 X126.267 Y92.452
G1 X129.438 Y90.575
G1 X132.610 Y89.060
G1 X138.953 Y86.462
G1 X142.923 Y85.327
G1 X146.926 Y84.523
G1 X150.995 Y83.984
G1 X155.163 Y83.642
G1 X160.825 Y83.770
G1 X166.434 Y84.397
G1 X171.968 Y85.495
G1 X177.407 Y87.034
G1 X182.731 Y88.987
G1 X187.919 Y91.324
G1 X192.949 Y94.015
G1 X197.802 Y97.033
G1 Z8

G0 X197.802 Y96.681
G1 Z0

G1 X194.500 Y94.398
G1 X191.078 Y92.310
G1 X187.548 Y90.423
G1 X183.921 Y88.741
G1 X180.210 Y87.270
G1 X176.425 Y86.014
G1 X172.580 Y84.980
G1 X168.686 Y84.171
G1 X164.754 Y83.594
G1 X160.798 Y83.253
G1 X156.827 Y83.154
G1 X152.856 Y83.301
G1 X148.894 Y83.700
G1 X144.955 Y84.357
G1 X141.050 Y85.276
G1 X137.191 Y86.462
G1 X133.731 Y87.923
G1 X130.457 Y89.628
G1 X127.323 Y91.522
G1 X124.285 Y93.553
G1 X118.310 Y97.810
G1 X112.171 Y101.967
G1 X109.115 Y103.703
G1 X106.021 Y105.215
G1 X102.886 Y106.513
G1 X99.705 Y107.605
G1 X96.475 Y108.498
G1 X93.192 Y109.202
G1 X89.850 Y109.724
G1 X86.447 Y110.072
G1 X80.506 Y110.075
G1 X74.603 Y109.565
G1 X68.774 Y108.560
G1 X63.057 Y107.076
G1 X57.488 Y105.130
G1 X52.105 Y102.738
G1 X46.945 Y99.916
G1 X42.045 Y96.681
G1 Z8

G0 X42.045 Y95.976
G1 Z0

G1 X44.861 Y97.957
G1 X47.755 Y99.802
G1 X50.721 Y101.503
G1 X53.757 Y103.057
G1 X56.856 Y104.458
G1 X60.015 Y105.701
G1 X63.229 Y106.781
G1 X66.492 Y107.693
G1 X69.802 Y108.431
G1 X73.151 Y108.991
G1 X76.537 Y109.367
G1 X79.955 Y109.554
G1 X83.399 Y109.547
G1 X86.866 Y109.341
G1 X90.350 Y108.930
G1 X93.847 Y108.310
G1 X99.012 Y107.302
G1 X103.978 Y105.799
G1 X106.408 Y104.831
G1 X108.812 Y103.701
G1 X111.201 Y102.398
G1 X113.581 Y100.910
G1 X120.629 Y95.624
G1 X127.676 Y90.338
G1 X130.732 Y88.718
G1 X133.821 Y87.293
G1 X136.943 Y86.058
G1 X140.098 Y85.008
G1 X143.286 Y84.140
G1 X146.507 Y83.450
G1 X149.761 Y82.933
G1 X153.048 Y82.585
G1 X159.331 Y82.585
G1 X165.514 Y83.114
G1 X171.632 Y84.171
G1 X177.716 Y85.757
G1 X183.084 Y87.800
G1 X188.155 Y90.206
G1 X193.028 Y92.942
G1 X197.802 Y95.976
G1 Z8

G0 X197.802 Y95.624
G1 Z0

G1 X194.962 Y93.490
G1 X191.999 Y91.571
G1 X188.919 Y89.851
G1 X185.733 Y88.312
G1 X182.447 Y86.938
G1 X179.070 Y85.713
G1 X172.078 Y83.642
G1 X168.641 Y82.832
G1 X165.200 Y82.249
G1 X161.752 Y81.889
G1 X158.290 Y81.748
G1 X154.812 Y81.822
G1 X151.314 Y82.106
G1 X147.791 Y82.597
G1 X144.239 Y83.290
G1 X140.335 Y84.419
G1 X136.530 Y85.713
G1 X132.792 Y87.205
G1 X129.086 Y88.928
G1 X126.784 Y90.311
G1 X124.609 Y91.797
G1 X120.496 Y94.963
G1 X116.449 Y98.195
G1 X112.171 Y101.262
G1 X110.585 Y102.143
G1 X109.000 Y103.024
G1 X104.914 Y104.896
G1 X100.732 Y106.421
G1 X96.469 Y107.605
G1 X92.145 Y108.458
G1 X87.778 Y108.987
G1 X83.386 Y109.200
G1 X78.986 Y109.103
G1 X74.597 Y108.706
G1 X70.238 Y108.016
G1 X65.925 Y107.040
G1 X61.677 Y105.786
G1 X57.512 Y104.263
G1 X53.448 Y102.477
G1 X49.504 Y100.437
G1 X45.697 Y98.150
G1 X42.045 Y95.624
G1 Z8

G0 X42.045 Y94.919
G1 Z0

G1 X45.911 Y97.688
G1 X49.961 Y100.175
G1 X54.173 Y102.370
G1 X58.525 Y104.263
G1 X62.995 Y105.844
G1 X67.560 Y107.103
G1 X72.198 Y108.031
G1 X76.888 Y108.618
G1 X81.606 Y108.854
G1 X86.332 Y108.729
G1 X91.041 Y108.233
G1 X95.713 Y107.357
G1 X100.326 Y106.091
G1 X104.856 Y104.425
G1 X109.281 Y102.348
G1 X113.581 Y99.852
G1 X120.629 Y94.567
G1 X127.676 Y89.281
G1 X130.853 Y87.557
G1 X134.063 Y86.065
G1 X137.340 Y84.771
G1 X140.715 Y83.642
G1 X147.008 Y82.282
G1 X150.136 Y81.803
G1 X153.269 Y81.484
G1 X156.418 Y81.347
G1 X159.595 Y81.413
G1 X162.814 Y81.701
G1 X166.087 Y82.233
G1 X168.201 Y82.233
G1 X172.248 Y83.226
G1 X176.196 Y84.364
G1 X180.045 Y85.658
G1 X183.795 Y87.122
G1 X187.445 Y88.768
G1 X190.997 Y90.608
G1 X194.449 Y92.654
G1 X197.802 Y94.919
G1 Z8

G0 X197.802 Y94.567
G1 Z0

G1 X194.842 Y92.461
G1 X191.783 Y90.511
G1 X188.630 Y88.720
G1 X185.391 Y87.095
G1 X182.074 Y85.641
G1 X178.686 Y84.364
G1 X175.234 Y83.271
G1 X171.725 Y82.365
G1 X168.167 Y81.654
G1 X164.566 Y81.142
G1 X160.930 Y80.836
G1 X157.266 Y80.741
G1 X153.582 Y80.863
G1 X149.884 Y81.207
G1 X146.180 Y81.779
G1 X142.477 Y82.585
G1 X138.898 Y83.709
G1 X135.517 Y84.964
G1 X132.268 Y86.351
G1 X129.086 Y87.871
G1 X126.784 Y89.254
G1 X124.609 Y90.740
G1 X120.496 Y93.906
G1 X116.449 Y97.138
G1 X112.171 Y100.205
G1 X110.585 Y101.086
G1 X109.000 Y101.967
G1 X104.164 Y104.216
G1 X99.188 Y105.953
G1 X94.096 Y107.195
G1 X88.913 Y107.957
G1 X83.665 Y108.258
G1 X78.375 Y108.112
G1 X73.068 Y107.536
G1 X67.770 Y106.548
G1 X63.894 Y105.491
G1 X58.151 Y103.437
G1 X52.573 Y100.954
G1 X47.194 Y98.008
G1 X42.045 Y94.567
G1 Z8

G0 X42.045 Y93.862
G1 Z0

G1 X46.121 Y96.736
G1 X50.404 Y99.280
G1 X54.868 Y101.493
G1 X59.489 Y103.376
G1 X64.242 Y104.929
G1 X69.102 Y106.151
G1 X74.045 Y107.043
G1 X79.046 Y107.605
G1 X81.899 Y107.748
G1 X84.685 Y107.693
G1 X90.323 Y107.253
G1 X94.282 Y106.586
G1 X98.208 Y105.623
G1 X102.067 Y104.329
G1 X105.828 Y102.672
G1 X109.704 Y100.998
G1 X111.676 Y99.996
G1 X113.581 Y98.795
G1 X120.629 Y93.509
G1 X127.676 Y88.224
G1 X130.469 Y86.518
G1 X133.298 Y85.085
G1 X136.169 Y83.900
G1 X139.085 Y82.938
G1 X142.051 Y82.174
G1 X145.070 Y81.583
G1 X151.287 Y80.823
G1 X156.158 Y80.463
G1 X160.988 Y80.449
G1 X165.769 Y80.799
G1 X170.492 Y81.528
G1 X175.149 Y82.654
G1 X179.731 Y84.193
G1 X184.231 Y86.162
G1 X188.640 Y88.576
G1 X189.697 Y88.928
G1 X190.754 Y89.281
G1 X194.278 Y91.571
G1 X197.802 Y93.862
G1 Z8

G0 X197.802 Y93.509
G1 Z0

G1 X193.719 Y90.628
G1 X189.418 Y88.069
G1 X184.929 Y85.841
G1 X180.282 Y83.951
G1 X175.507 Y82.408
G1 X170.634 Y81.220
G1 X165.692 Y80.395
G1 X160.713 Y79.942
G1 X155.725 Y79.869
G1 X150.759 Y80.185
G1 X145.845 Y80.896
G1 X141.012 Y82.013
G1 X136.291 Y83.542
G1 X131.711 Y85.493
G1 X127.302 Y87.873
G1 X123.095 Y90.690
G1 X118.692 Y94.553
G1 X113.966 Y97.936
G1 X108.960 Y100.824
G1 X103.714 Y103.200
G1 X98.270 Y105.047
G1 X92.669 Y106.350
G1 X86.952 Y107.090
G1 X81.161 Y107.253
G1 X75.896 Y106.807
G1 X70.688 Y105.997
G1 X65.563 Y104.824
G1 X60.546 Y103.288
G1 X55.661 Y101.389
G1 X50.932 Y99.126
G1 X46.386 Y96.499
G1 X42.045 Y93.509
G1 Z8

G0 X42.045 Y92.805
G1 Z0

G1 X45.911 Y95.582
G1 X49.961 Y98.090
G1 X54.173 Y100.316
G1 X58.525 Y102.248
G1 X62.995 Y103.871
G1 X67.560 Y105.175
G1 X72.198 Y106.145
G1 X76.888 Y106.768
G1 X81.606 Y107.032
G1 X86.332 Y106.924
G1 X91.041 Y106.431
G1 X95.713 Y105.540
G1 X100.326 Y104.238
G1 X104.856 Y102.513
G1 X109.281 Y100.350
G1 X113.581 Y97.738
G1 X120.629 Y92.452
G1 X127.676 Y87.166
G1 X129.659 Y85.940
G1 X131.646 Y84.887
G1 X135.649 Y83.202
G1 X139.718 Y81.914
G1 X143.886 Y80.823
G1 X147.457 Y80.025
G1 X151.030 Y79.474
G1 X154.599 Y79.161
G1 X158.158 Y79.078
G1 X161.700 Y79.216
G1 X165.220 Y79.566
G1 X168.710 Y80.119
G1 X172.166 Y80.867
G1 X175.580 Y81.801
G1 X178.946 Y82.912
G1 X182.259 Y84.191
G1 X185.512 Y85.630
G1 X188.699 Y87.220
G1 X191.814 Y88.951
G1 X194.850 Y90.816
G1 X197.802 Y92.805
G1 Z8

G0 X197.802 Y92.452
G1 Z0

G1 X194.710 Y90.285
G1 X191.519 Y88.281
G1 X188.236 Y86.447
G1 X184.868 Y84.788
G1 X181.424 Y83.310
G1 X177.912 Y82.021
G1 X174.339 Y80.926
G1 X170.712 Y80.030
G1 X167.040 Y79.342
G1 X163.330 Y78.866
G1 X159.591 Y78.609
G1 X155.829 Y78.577
G1 X152.053 Y78.776
G1 X148.270 Y79.213
G1 X144.488 Y79.893
G1 X140.715 Y80.823
G1 X137.109 Y82.038
G1 X133.673 Y83.538
G1 X130.376 Y85.277
G1 X127.192 Y87.210
G1 X121.041 Y91.478
G1 X114.990 Y95.976
G1 X110.737 Y98.840
G1 X106.320 Y101.230
G1 X101.766 Y103.160
G1 X97.101 Y104.643
G1 X92.351 Y105.692
G1 X87.543 Y106.321
G1 X82.703 Y106.543
G1 X77.857 Y106.372
G1 X73.032 Y105.821
G1 X68.254 Y104.903
G1 X63.549 Y103.632
G1 X58.944 Y102.022
G1 X54.464 Y100.085
G1 X50.137 Y97.836
G1 X45.989 Y95.287
G1 X42.045 Y92.452
G1 Z8

G0 X42.045 Y91.747
G1 Z0

G1 X44.861 Y93.791
G1 X47.755 Y95.689
G1 X50.721 Y97.438
G1 X53.757 Y99.032
G1 X56.856 Y100.467
G1 X60.015 Y101.739
G1 X63.229 Y102.842
G1 X66.492 Y103.773
G1 X69.802 Y104.526
G1 X73.151 Y105.096
G1 X76.537 Y105.480
G1 X79.955 Y105.672
G1 X83.399 Y105.669
G1 X86.866 Y105.464
G1 X90.350 Y105.054
G1 X93.847 Y104.434
G1 X98.742 Y103.486
G1 X103.405 Y102.143
G1 X105.661 Y101.281
G1 X107.871 Y100.271
G1 X110.040 Y99.095
G1 X112.171 Y97.738
G1 X117.897 Y93.730
G1 X120.595 Y91.544
G1 X123.095 Y88.928
G1 X126.565 Y86.768
G1 X130.105 Y84.793
G1 X133.719 Y83.025
G1 X137.411 Y81.484
G1 X141.186 Y80.191
G1 X145.048 Y79.166
G1 X149.001 Y78.430
G1 X153.048 Y78.004
G1 X159.854 Y78.015
G1 X163.207 Y78.240
G1 X166.527 Y78.621
G1 X169.815 Y79.167
G1 X173.069 Y79.887
G1 X176.290 Y80.789
G1 X179.478 Y81.881
G1 X184.224 Y84.017
G1 X188.904 Y86.285
G1 X193.452 Y88.818
G1 X197.802 Y91.747
G1 Z8

G0 X197.802 Y91.395
G1 Z0

G1 X192.638 Y87.899
G1 X187.214 Y84.837
G1 X181.567 Y82.246
G1 X175.734 Y80.163
G1 X169.752 Y78.624
G1 X166.717 Y78.071
G1 X163.659 Y77.668
G1 X160.582 Y77.420
G1 X157.491 Y77.332
G1 X154.391 Y77.407
G1 X151.287 Y77.652
G1 X146.799 Y78.318
G1 X142.345 Y79.282
G1 X137.956 Y80.576
G1 X133.667 Y82.233
G1 X131.101 Y83.501
G1 X128.667 Y84.914
G1 X124.064 Y88.091
G1 X114.990 Y95.271
G1 X110.679 Y98.073
G1 X106.219 Y100.409
G1 X101.635 Y102.292
G1 X96.952 Y103.734
G1 X92.195 Y104.749
G1 X87.388 Y105.350
G1 X82.557 Y105.548
G1 X77.725 Y105.359
G1 X72.918 Y104.793
G1 X68.161 Y103.864
G1 X63.478 Y102.586
G1 X58.894 Y100.970
G1 X54.434 Y99.030
G1 X50.123 Y96.779
G1 X45.985 Y94.230
G1 X42.045 Y91.395
G1 Z8

G0 X42.045 Y90.690
G1 Z0

G1 X46.960 Y94.172
G1 X52.160 Y97.204
G1 X57.599 Y99.765
G1 X63.233 Y101.835
G1 X69.015 Y103.392
G1 X74.900 Y104.417
G1 X80.843 Y104.888
G1 X86.799 Y104.786
G1 X90.086 Y104.438
G1 X93.340 Y103.916
G1 X96.561 Y103.213
G1 X99.749 Y102.319
G1 X102.904 Y101.228
G1 X106.026 Y99.930
G1 X109.115 Y98.417
G1 X112.171 Y96.681
G1 X115.436 Y94.297
G1 X118.470 Y91.880
G1 X124.505 Y86.814
G1 X125.254 Y86.462
G1 X126.267 Y86.109
G1 X130.566 Y83.381
G1 X134.992 Y81.132
G1 X139.522 Y79.345
G1 X144.134 Y78.004
G1 X148.806 Y77.093
G1 X153.516 Y76.595
G1 X158.241 Y76.493
G1 X162.959 Y76.771
G1 X167.649 Y77.412
G1 X172.288 Y78.401
G1 X176.853 Y79.719
G1 X181.322 Y81.352
G1 X185.674 Y83.282
G1 X189.886 Y85.493
G1 X193.936 Y87.968
G1 X197.802 Y90.690
G1 Z8

G0 X197.802 Y90.338
G1 Z0

G1 X194.912 Y88.287
G1 X191.930 Y86.367
G1 X188.861 Y84.587
G1 X185.711 Y82.954
G1 X182.487 Y81.476
G1 X179.194 Y80.161
G1 X175.840 Y79.015
G1 X172.430 Y78.048
G1 X168.970 Y77.267
G1 X165.467 Y76.679
G1 X161.927 Y76.293
G1 X158.356 Y76.116
G1 X154.761 Y76.155
G1 X151.146 Y76.419
G1 X147.519 Y76.915
G1 X143.886 Y77.652
G1 X140.384 Y78.661
G1 X137.009 Y79.843
G1 X133.759 Y81.207
G1 X130.628 Y82.761
G1 X127.612 Y84.514
G1 X124.709 Y86.473
G1 X121.912 Y88.646
G1 X119.219 Y91.043
G1 X116.520 Y93.314
G1 X113.713 Y95.373
G1 X110.807 Y97.219
G1 X107.810 Y98.856
G1 X104.731 Y100.284
G1 X101.577 Y101.505
G1 X98.358 Y102.521
G1 X95.080 Y103.332
G1 X91.753 Y103.942
G1 X88.385 Y104.350
G1 X84.983 Y104.560
G1 X81.557 Y104.571
G1 X78.115 Y104.387
G1 X74.664 Y104.007
G1 X71.213 Y103.435
G1 X67.770 Y102.672
G1 X63.894 Y101.614
G1 X60.902 Y100.624
G1 X58.002 Y99.506
G1 X52.441 Y96.901
G1 X47.144 Y93.834
G1 X42.045 Y90.338
G1 Z8

G0 X42.045 Y89.633
G1 Z0

G1 X44.605 Y91.553
G1 X47.256 Y93.346
G1 X49.994 Y95.008
G1 X52.810 Y96.538
G1 X55.698 Y97.931
G1 X58.652 Y99.185
G1 X61.665 Y100.296
G1 X64.731 Y101.262
G1 X67.841 Y102.079
G1 X70.990 Y102.745
G1 X74.172 Y103.255
G1 X77.378 Y103.608
G1 X80.603 Y103.799
G1 X83.840 Y103.826
G1 X87.082 Y103.687
G1 X90.323 Y103.376
G1 X94.749 Y102.551
G1 X99.039 Y101.400
G1 X103.189 Y99.926
G1 X107.194 Y98.135
G1 X111.050 Y96.029
G1 X114.754 Y93.614
G1 X118.300 Y90.893
G1 X121.686 Y87.871
G1 X123.731 Y86.132
G1 X125.892 Y84.595
G1 X128.153 Y83.232
G1 X130.495 Y82.013
G1 X135.363 Y79.893
G1 X140.362 Y78.004
G1 X143.535 Y77.177
G1 X146.711 Y76.540
G1 X149.896 Y76.084
G1 X153.093 Y75.802
G1 X156.306 Y75.685
G1 X159.540 Y75.725
G1 X166.087 Y76.242
G1 X170.519 Y76.964
G1 X174.853 Y78.048
G1 X179.120 Y79.463
G1 X183.354 Y81.176
G1 X190.710 Y85.140
G1 X194.306 Y87.321
G1 X197.802 Y89.633
G1 Z8

G0 X197.802 Y89.281
G1 Z0

G1 X192.489 Y85.669
G1 X186.883 Y82.525
G1 X181.022 Y79.884
G1 X174.941 Y77.784
G1 X171.830 Y76.949
G1 X168.678 Y76.262
G1 X165.490 Y75.730
G1 X162.271 Y75.356
G1 X159.025 Y75.145
G1 X155.757 Y75.102
G1 X152.471 Y75.231
G1 X149.172 Y75.537
G1 X144.980 Y76.332
G1 X140.874 Y77.399
G1 X136.876 Y78.746
G1 X133.006 Y80.383
G1 X129.285 Y82.317
G1 X125.733 Y84.556
G1 X122.371 Y87.110
G1 X119.219 Y89.986
G1 X117.303 Y91.714
G1 X115.255 Y93.245
G1 X110.762 Y95.976
G1 X109.176 Y96.725
G1 X107.590 Y97.738
G1 X103.513 Y99.540
G1 X99.354 Y100.988
G1 X95.129 Y102.091
G1 X90.857 Y102.859
G1 X86.554 Y103.300
G1 X82.237 Y103.425
G1 X77.922 Y103.241
G1 X73.628 Y102.760
G1 X69.372 Y101.989
G1 X65.169 Y100.939
G1 X61.038 Y99.618
G1 X56.994 Y98.035
G1 X53.057 Y96.201
G1 X49.241 Y94.125
G1 X45.565 Y91.815
G1 X42.045 Y89.281
G1 Z8

G0 X42.045 Y88.576
G1 Z0

G1 X47.199 Y92.232
G1 X49.826 Y93.977
G1 X52.617 Y95.624
G1 X54.555 Y96.373
G1 X56.493 Y97.386
G1 X60.357 Y98.957
G1 X64.279 Y100.243
G1 X68.250 Y101.257
G1 X72.263 Y102.011
G1 X76.309 Y102.517
G1 X80.379 Y102.787
G1 X84.466 Y102.835
G1 X88.561 Y102.672
G1 X91.452 Y102.325
G1 X94.309 Y101.818
G1 X97.134 Y101.154
G1 X99.926 Y100.337
G1 X105.410 Y98.261
G1 X110.762 Y95.624
G1 X113.344 Y93.972
G1 X115.827 Y92.188
G1 X120.629 Y88.224
G1 X122.013 Y86.834
G1 X123.508 Y85.564
G1 X126.751 Y83.334
G1 X130.193 Y81.435
G1 X133.667 Y79.766
G1 X137.282 Y78.094
G1 X140.985 Y76.765
G1 X144.761 Y75.758
G1 X148.600 Y75.053
G1 X152.488 Y74.628
G1 X156.413 Y74.464
G1 X160.363 Y74.539
G1 X164.325 Y74.833
G1 X168.900 Y75.539
G1 X173.372 Y76.584
G1 X177.736 Y77.942
G1 X181.989 Y79.590
G1 X186.126 Y81.502
G1 X190.143 Y83.653
G1 X194.037 Y86.020
G1 X197.802 Y88.576
G1 Z8

G0 X197.802 Y88.224
G1 Z0

G1 X193.497 Y85.041
G1 X188.933 Y82.240
G1 X184.148 Y79.831
G1 X179.180 Y77.823
G1 X174.068 Y76.225
G1 X168.850 Y75.048
G1 X163.563 Y74.302
G1 X158.246 Y73.996
G1 X152.938 Y74.140
G1 X147.676 Y74.744
G1 X142.499 Y75.818
G1 X137.444 Y77.371
G1 X132.551 Y79.414
G1 X127.857 Y81.956
G1 X123.400 Y85.006
G1 X119.219 Y88.576
G1 X117.168 Y90.421
G1 X115.050 Y92.126
G1 X110.627 Y95.123
G1 X105.987 Y97.583
G1 X101.164 Y99.522
G1 X96.195 Y100.958
G1 X91.115 Y101.906
G1 X85.960 Y102.384
G1 X80.764 Y102.407
G1 X75.565 Y101.993
G1 X70.397 Y101.157
G1 X65.296 Y99.917
G1 X60.298 Y98.289
G1 X55.438 Y96.289
G1 X50.753 Y93.933
G1 X46.276 Y91.240
G1 X42.045 Y88.224
G1 Z8

G0 X42.045 Y87.519
G1 Z0

G1 X47.199 Y91.175
G1 X49.826 Y92.920
G1 X52.617 Y94.567
G1 X54.555 Y95.315
G1 X56.493 Y96.329
G1 X61.607 Y98.372
G1 X66.878 Y99.990
G1 X72.264 Y101.154
G1 X77.725 Y101.835
G1 X83.219 Y102.003
G1 X88.704 Y101.631
G1 X94.140 Y100.689
G1 X96.826 Y99.995
G1 X99.485 Y99.148
G1 X102.833 Y98.223
G1 X104.540 Y97.711
G1 X106.181 Y97.033
G1 X110.024 Y94.847
G1 X113.669 Y92.496
G1 X117.182 Y89.947
G1 X120.629 Y87.166
G1 X122.395 Y85.513
G1 X124.252 Y83.984
G1 X128.205 Y81.264
G1 X132.423 Y78.940
G1 X136.839 Y76.947
G1 X140.808 Y75.554
G1 X144.811 Y74.524
G1 X148.880 Y73.825
G1 X153.048 Y73.423
G1 X158.279 Y73.357
G1 X163.444 Y73.687
G1 X168.609 Y74.414
G1 X173.840 Y75.537
G1 X177.095 Y76.544
G1 X180.260 Y77.707
G1 X183.342 Y79.019
G1 X186.349 Y80.471
G1 X192.175 Y83.764
G1 X197.802 Y87.519
G1 Z8

G0 X197.802 Y87.166
G1 Z0

G1 X194.208 Y84.509
G1 X190.444 Y82.093
G1 X186.528 Y79.928
G1 X182.479 Y78.026
G1 X178.316 Y76.397
G1 X174.059 Y75.050
G1 X169.727 Y73.997
G1 X165.338 Y73.247
G1 X160.912 Y72.811
G1 X156.468 Y72.699
G1 X152.026 Y72.922
G1 X147.603 Y73.489
G1 X143.219 Y74.412
G1 X138.894 Y75.700
G1 X134.647 Y77.364
G1 X130.495 Y79.414
G1 X128.910 Y80.295
G1 X127.324 Y81.176
G1 X123.007 Y84.391
G1 X119.219 Y87.871
G1 X116.656 Y90.085
G1 X113.992 Y92.101
G1 X111.234 Y93.922
G1 X108.388 Y95.547
G1 X105.463 Y96.978
G1 X102.463 Y98.216
G1 X99.397 Y99.262
G1 X96.270 Y100.117
G1 X93.089 Y100.782
G1 X89.861 Y101.258
G1 X86.593 Y101.546
G1 X83.292 Y101.647
G1 X79.963 Y101.563
G1 X76.615 Y101.294
G1 X73.253 Y100.841
G1 X69.884 Y100.205
G1 X64.070 Y98.707
G1 X61.163 Y97.826
G1 X58.255 Y96.681
G1 X54.038 Y94.550
G1 X49.886 Y92.320
G1 X45.867 Y89.892
G1 X42.045 Y87.166
G1 Z8

G0 X42.045 Y86.462
G1 Z0

G1 X44.609 Y88.439
G1 X47.271 Y90.276
G1 X50.026 Y91.970
G1 X52.865 Y93.520
G1 X55.780 Y94.926
G1 X58.764 Y96.187
G1 X61.809 Y97.301
G1 X64.907 Y98.267
G1 X68.050 Y99.084
G1 X71.231 Y99.752
G1 X74.442 Y100.269
G1 X77.675 Y100.634
G1 X80.923 Y100.847
G1 X84.177 Y100.905
G1 X87.431 Y100.809
G1 X90.675 Y100.557
G1 X94.634 Y99.841
G1 X98.560 Y98.795
G1 X102.420 Y97.485
G1 X106.181 Y95.976
G1 X110.338 Y93.669
G1 X114.330 Y90.999
G1 X118.123 Y87.998
G1 X121.686 Y84.700
G1 X124.673 Y82.320
G1 X127.814 Y80.201
G1 X131.095 Y78.338
G1 X134.504 Y76.727
G1 X138.029 Y75.363
G1 X141.656 Y74.244
G1 X145.375 Y73.363
G1 X149.172 Y72.718
G1 X152.467 Y72.354
G1 X155.742 Y72.182
G1 X158.995 Y72.195
G1 X162.222 Y72.388
G1 X165.419 Y72.754
G1 X168.585 Y73.288
G1 X171.716 Y73.983
G1 X174.809 Y74.833
G1 X177.860 Y75.831
G1 X180.867 Y76.972
G1 X186.735 Y79.656
G1 X192.388 Y82.836
G1 X197.802 Y86.462
G1 Z8

G0 X197.802 Y86.109
G1 Z0

G1 X193.555 Y82.919
G1 X189.034 Y80.098
G1 X184.279 Y77.659
G1 X179.329 Y75.615
G1 X174.224 Y73.979
G1 X169.004 Y72.767
G1 X163.709 Y71.989
G1 X158.378 Y71.661
G1 X153.052 Y71.796
G1 X147.769 Y72.406
G1 X142.570 Y73.506
G1 X137.494 Y75.108
G1 X132.581 Y77.227
G1 X127.871 Y79.875
G1 X125.605 Y81.402
G1 X123.404 Y83.066
G1 X121.274 Y84.870
G1 X119.219 Y86.814
G1 X117.056 Y88.715
G1 X114.798 Y90.459
G1 X112.449 Y92.054
G1 X110.013 Y93.509
G1 X104.898 Y96.031
G1 X99.485 Y98.090
G1 X96.842 Y98.768
G1 X94.199 Y99.280
G1 X88.913 Y100.205
G1 X85.533 Y100.552
G1 X82.218 Y100.601
G1 X75.522 Y100.205
G1 X70.933 Y99.411
G1 X66.426 Y98.349
G1 X62.019 Y97.015
G1 X57.727 Y95.404
G1 X53.567 Y93.511
G1 X49.556 Y91.335
G1 X45.710 Y88.868
G1 X42.045 Y86.109
G1 Z8

G0 X42.045 Y85.404
G1 Z0

G1 X45.931 Y88.367
G1 X50.037 Y91.035
G1 X54.336 Y93.394
G1 X58.800 Y95.431
G1 X63.403 Y97.131
G1 X68.117 Y98.481
G1 X72.915 Y99.466
G1 X77.769 Y100.073
G1 X82.652 Y100.287
G1 X87.536 Y100.095
G1 X92.395 Y99.483
G1 X97.200 Y98.437
G1 X101.925 Y96.943
G1 X106.542 Y94.987
G1 X111.024 Y92.555
G1 X115.343 Y89.633
G1 X117.853 Y87.343
G1 X119.158 Y86.164
G1 X120.629 Y85.052
G1 X121.686 Y83.642
G1 X124.923 Y81.147
G1 X128.288 Y78.940
G1 X131.776 Y77.015
G1 X135.385 Y75.361
G1 X139.109 Y73.972
G1 X142.945 Y72.839
G1 X146.888 Y71.954
G1 X150.934 Y71.309
G1 X154.101 Y71.068
G1 X157.255 Y71.004
G1 X160.393 Y71.110
G1 X163.510 Y71.380
G1 X166.602 Y71.810
G1 X169.666 Y72.393
G1 X175.690 Y73.996
G1 X181.548 Y76.144
G1 X187.208 Y78.792
G1 X192.637 Y81.894
G1 X197.802 Y85.404
G1 Z8

G0 X197.802 Y85.052
G1 Z0

G1 X194.481 Y82.580
G1 X191.002 Y80.320
G1 X187.383 Y78.281
G1 X183.640 Y76.468
G1 X179.790 Y74.889
G1 X175.849 Y73.549
G1 X171.834 Y72.456
G1 X167.761 Y71.617
G1 X163.646 Y71.038
G1 X159.507 Y70.726
G1 X155.360 Y70.687
G1 X151.220 Y70.929
G1 X147.106 Y71.458
G1 X143.033 Y72.280
G1 X139.018 Y73.403
G1 X135.077 Y74.833
G1 X132.263 Y76.132
G1 X129.614 Y77.630
G1 X127.098 Y79.293
G1 X124.681 Y81.088
G1 X120.012 Y84.942
G1 X115.343 Y88.928
G1 X111.085 Y91.854
G1 X106.657 Y94.297
G1 X102.086 Y96.271
G1 X97.398 Y97.788
G1 X92.622 Y98.860
G1 X87.784 Y99.502
G1 X82.912 Y99.726
G1 X78.033 Y99.544
G1 X73.175 Y98.970
G1 X68.365 Y98.017
G1 X63.631 Y96.697
G1 X58.999 Y95.024
G1 X54.497 Y93.009
G1 X50.152 Y90.668
G1 X45.993 Y88.011
G1 X42.045 Y85.052
G1 Z8

G0 X42.045 Y84.347
G1 Z0

G1 X46.671 Y87.794
G1 X51.560 Y90.778
G1 X56.714 Y93.366
G1 X62.132 Y95.624
G1 X64.070 Y96.020
G1 X65.006 Y96.268
G1 X66.008 Y96.681
G1 X67.065 Y96.989
G1 X68.122 Y97.033
G1 X69.003 Y97.518
G1 X69.884 Y97.738
G1 X75.430 Y98.591
G1 X80.952 Y99.010
G1 X86.423 Y98.958
G1 X91.821 Y98.399
G1 X97.119 Y97.294
G1 X99.723 Y96.526
G1 X102.293 Y95.607
G1 X104.826 Y94.534
G1 X107.319 Y93.301
G1 X109.768 Y91.904
G1 X112.171 Y90.338
G1 X113.933 Y89.633
G1 X117.363 Y86.682
G1 X120.496 Y83.731
G1 X123.695 Y80.911
G1 X125.433 Y79.593
G1 X127.324 Y78.357
G1 X128.910 Y77.608
G1 X130.495 Y76.595
G1 X134.643 Y74.490
G1 X138.880 Y72.794
G1 X143.189 Y71.492
G1 X147.553 Y70.571
G1 X151.955 Y70.017
G1 X156.376 Y69.818
G1 X160.798 Y69.959
G1 X165.206 Y70.428
G1 X169.580 Y71.210
G1 X173.904 Y72.293
G1 X178.160 Y73.663
G1 X182.330 Y75.306
G1 X186.397 Y77.210
G1 X190.343 Y79.360
G1 X194.150 Y81.744
G1 X197.802 Y84.347
G1 Z8

G0 X197.802 Y83.995
G1 Z0

G1 X194.278 Y81.395
G1 X190.591 Y79.020
G1 X186.758 Y76.881
G1 X182.798 Y74.987
G1 X178.728 Y73.349
G1 X174.567 Y71.978
G1 X170.333 Y70.883
G1 X166.043 Y70.075
G1 X161.716 Y69.565
G1 X157.370 Y69.362
G1 X153.023 Y69.478
G1 X148.693 Y69.921
G1 X144.398 Y70.703
G1 X140.157 Y71.835
G1 X135.986 Y73.325
G1 X131.905 Y75.185
G1 X130.319 Y76.066
G1 X128.734 Y76.947
G1 X125.474 Y79.183
G1 X122.479 Y81.616
G1 X116.752 Y86.814
G1 X112.541 Y89.988
G1 X108.122 Y92.648
G1 X103.526 Y94.808
G1 X98.786 Y96.483
G1 X93.932 Y97.687
G1 X88.995 Y98.435
G1 X84.008 Y98.741
G1 X79.002 Y98.619
G1 X74.009 Y98.085
G1 X69.059 Y97.152
G1 X64.185 Y95.835
G1 X59.417 Y94.148
G1 X54.788 Y92.106
G1 X50.329 Y89.724
G1 X46.071 Y87.015
G1 X42.045 Y83.995
G1 Z8

G0 X42.045 Y83.290
G1 Z0

G1 X45.725 Y86.137
G1 X49.611 Y88.722
G1 X53.681 Y91.030
G1 X57.908 Y93.047
G1 X62.270 Y94.758
G1 X66.742 Y96.150
G1 X71.300 Y97.206
G1 X75.919 Y97.914
G1 X80.575 Y98.259
G1 X85.244 Y98.225
G1 X89.902 Y97.800
G1 X94.524 Y96.967
G1 X99.086 Y95.714
G1 X103.564 Y94.024
G1 X107.934 Y91.885
G1 X112.171 Y89.281
G1 X113.933 Y88.576
G1 X116.003 Y87.078
G1 X116.956 Y86.197
G1 X117.809 Y85.052
G1 X119.087 Y83.995
G1 X120.629 Y82.938
G1 X121.686 Y81.528
G1 X125.186 Y78.902
G1 X128.811 Y76.573
G1 X132.551 Y74.541
G1 X136.398 Y72.806
G1 X140.345 Y71.369
G1 X144.382 Y70.230
G1 X148.502 Y69.387
G1 X152.696 Y68.842
G1 X155.731 Y68.726
G1 X158.753 Y68.769
G1 X161.761 Y68.968
G1 X164.749 Y69.316
G1 X170.654 Y70.440
G1 X176.438 Y72.102
G1 X182.075 Y74.259
G1 X187.533 Y76.870
G1 X192.785 Y79.894
G1 X197.802 Y83.290
G1 Z8

G0 X197.802 Y82.938
G1 Z0

G1 X194.278 Y80.334
G1 X190.591 Y77.948
G1 X186.758 Y75.793
G1 X182.798 Y73.880
G1 X178.728 Y72.221
G1 X174.567 Y70.828
G1 X170.333 Y69.712
G1 X166.043 Y68.886
G1 X161.716 Y68.362
G1 X157.370 Y68.150
G1 X153.023 Y68.264
G1 X148.693 Y68.715
G1 X144.398 Y69.515
G1 X140.157 Y70.676
G1 X135.986 Y72.210
G1 X131.905 Y74.128
G1 X130.319 Y75.141
G1 X128.734 Y75.890
G1 X125.077 Y78.401
G1 X123.332 Y79.706
G1 X121.686 Y81.176
G1 X118.268 Y84.445
G1 X114.632 Y87.376
G1 X110.790 Y89.959
G1 X106.753 Y92.188
G1 X102.535 Y94.053
G1 X98.147 Y95.547
G1 X93.602 Y96.660
G1 X88.913 Y97.386
G1 X85.743 Y97.626
G1 X82.578 Y97.690
G1 X79.424 Y97.582
G1 X76.288 Y97.309
G1 X73.174 Y96.874
G1 X70.089 Y96.283
G1 X67.037 Y95.542
G1 X64.026 Y94.655
G1 X58.145 Y92.465
G1 X52.490 Y89.754
G1 X47.109 Y86.565
G1 X42.045 Y82.938
G1 Z8

G0 X42.045 Y82.233
G1 Z0

G1 X44.017 Y83.918
G1 X46.186 Y85.404
G1 X48.488 Y86.891
G1 X50.855 Y88.576
G1 X51.912 Y88.928
G1 X52.969 Y89.281
G1 X56.802 Y91.312
G1 X60.754 Y93.046
G1 X64.805 Y94.479
G1 X68.932 Y95.613
G1 X73.115 Y96.445
G1 X77.332 Y96.974
G1 X81.563 Y97.200
G1 X85.786 Y97.121
G1 X89.980 Y96.737
G1 X94.124 Y96.046
G1 X98.197 Y95.048
G1 X102.178 Y93.741
G1 X106.044 Y92.124
G1 X109.777 Y90.196
G1 X113.353 Y87.957
G1 X116.752 Y85.404
G1 X118.935 Y83.097
G1 X121.249 Y80.933
G1 X123.685 Y78.917
G1 X126.234 Y77.052
G1 X128.885 Y75.342
G1 X131.631 Y73.790
G1 X134.461 Y72.400
G1 X137.367 Y71.177
G1 X140.339 Y70.122
G1 X143.367 Y69.241
G1 X146.443 Y68.536
G1 X149.558 Y68.011
G1 X152.701 Y67.670
G1 X155.863 Y67.516
G1 X159.037 Y67.553
G1 X162.211 Y67.785
G1 X167.064 Y68.492
G1 X171.835 Y69.547
G1 X176.507 Y70.932
G1 X181.064 Y72.630
G1 X185.488 Y74.626
G1 X189.763 Y76.903
G1 X193.874 Y79.444
G1 X197.802 Y82.233
G1 Z8

G0 X197.802 Y81.881
G1 Z0

G1 X194.278 Y79.273
G1 X190.591 Y76.877
G1 X186.758 Y74.706
G1 X182.798 Y72.773
G1 X178.728 Y71.093
G1 X174.567 Y69.678
G1 X170.333 Y68.541
G1 X166.043 Y67.697
G1 X161.716 Y67.158
G1 X157.370 Y66.938
G1 X153.023 Y67.051
G1 X148.693 Y67.510
G1 X144.398 Y68.327
G1 X140.157 Y69.518
G1 X135.986 Y71.095
G1 X131.905 Y73.071
G1 X130.319 Y74.084
G1 X128.734 Y74.833
G1 X125.077 Y77.343
G1 X123.332 Y78.648
G1 X121.686 Y80.119
G1 X117.842 Y83.735
G1 X113.729 Y86.919
G1 X109.377 Y89.664
G1 X104.815 Y91.968
G1 X100.071 Y93.825
G1 X95.174 Y95.233
G1 X90.153 Y96.186
G1 X85.037 Y96.681
G1 X82.131 Y96.735
G1 X79.229 Y96.638
G1 X73.463 Y96.004
G1 X67.780 Y94.816
G1 X62.220 Y93.113
G1 X56.825 Y90.930
G1 X51.637 Y88.306
G1 X46.697 Y85.277
G1 X42.045 Y81.881
G1 Z8

G0 X42.045 Y81.176
G1 Z0

G1 X46.016 Y84.309
G1 X50.242 Y87.093
G1 X54.687 Y89.521
G1 X59.318 Y91.582
G1 X64.099 Y93.268
G1 X68.997 Y94.568
G1 X73.976 Y95.474
G1 X79.002 Y95.976
G1 X84.041 Y96.065
G1 X89.057 Y95.733
G1 X94.017 Y94.968
G1 X98.885 Y93.763
G1 X103.627 Y92.107
G1 X108.209 Y89.992
G1 X112.595 Y87.409
G1 X116.752 Y84.347
G1 X120.201 Y80.916
G1 X123.927 Y77.778
G1 X127.908 Y74.963
G1 X132.125 Y72.498
G1 X136.557 Y70.413
G1 X141.183 Y68.737
G1 X145.982 Y67.499
G1 X150.934 Y66.728
G1 X154.101 Y66.487
G1 X157.255 Y66.424
G1 X160.393 Y66.531
G1 X163.510 Y66.805
G1 X166.602 Y67.240
G1 X169.666 Y67.830
G1 X172.696 Y68.572
G1 X175.690 Y69.459
G1 X181.548 Y71.649
G1 X187.208 Y74.359
G1 X192.637 Y77.549
G1 X197.802 Y81.176
G1 Z8

G0 X197.802 Y80.823
G1 Z0

G1 X195.181 Y78.838
G1 X192.474 Y76.979
G1 X189.688 Y75.252
G1 X186.828 Y73.660
G1 X183.900 Y72.206
G1 X180.910 Y70.894
G1 X177.863 Y69.727
G1 X174.765 Y68.710
G1 X171.621 Y67.845
G1 X168.437 Y67.137
G1 X165.220 Y66.589
G1 X161.974 Y66.205
G1 X158.705 Y65.987
G1 X155.420 Y65.941
G1 X152.123 Y66.069
G1 X148.820 Y66.375
G1 X143.919 Y67.372
G1 X139.217 Y68.798
G1 X134.647 Y70.687
G1 X130.143 Y73.071
G1 X126.564 Y75.367
G1 X123.183 Y77.960
G1 X119.935 Y80.752
G1 X116.752 Y83.642
G1 X112.595 Y86.878
G1 X108.209 Y89.592
G1 X103.627 Y91.797
G1 X98.885 Y93.509
G1 X94.017 Y94.742
G1 X89.057 Y95.511
G1 X84.041 Y95.829
G1 X79.002 Y95.712
G1 X73.976 Y95.173
G1 X68.997 Y94.228
G1 X64.099 Y92.890
G1 X59.318 Y91.175
G1 X54.687 Y89.096
G1 X50.242 Y86.668
G1 X46.016 Y83.906
G1 X42.045 Y80.823
G1 Z8

G0 X42.045 Y80.119
G1 Z0

G1 X44.325 Y82.020
G1 X46.671 Y83.769
G1 X51.560 Y86.858
G1 X56.714 Y89.484
G1 X62.132 Y91.747
G1 X64.070 Y92.144
G1 X65.006 Y92.392
G1 X66.008 Y92.805
G1 X67.065 Y93.113
G1 X68.122 Y93.157
G1 X69.884 Y93.862
G1 X73.001 Y94.506
G1 X76.132 Y94.982
G1 X79.270 Y95.290
G1 X82.405 Y95.426
G1 X85.528 Y95.388
G1 X88.628 Y95.175
G1 X91.698 Y94.784
G1 X94.728 Y94.214
G1 X97.708 Y93.462
G1 X100.629 Y92.527
G1 X103.482 Y91.405
G1 X106.258 Y90.096
G1 X108.946 Y88.596
G1 X111.539 Y86.905
G1 X114.027 Y85.019
G1 X116.400 Y82.938
G1 X121.449 Y78.599
G1 X126.663 Y74.657
G1 X129.384 Y72.875
G1 X132.208 Y71.243
G1 X135.156 Y69.775
G1 X138.248 Y68.490
G1 X142.103 Y67.258
G1 X145.996 Y66.330
G1 X149.914 Y65.698
G1 X153.847 Y65.351
G1 X157.781 Y65.282
G1 X161.706 Y65.479
G1 X165.609 Y65.935
G1 X169.479 Y66.640
G1 X173.303 Y67.584
G1 X177.070 Y68.758
G1 X180.767 Y70.153
G1 X184.384 Y71.760
G1 X187.907 Y73.570
G1 X191.326 Y75.572
G1 X194.628 Y77.758
G1 X197.802 Y80.119
G1 Z8

G0 X197.802 Y79.766
G1 Z0

G1 X193.858 Y76.847
G1 X189.708 Y74.183
G1 X185.376 Y71.800
G1 X180.887 Y69.723
G1 X176.266 Y67.976
G1 X171.538 Y66.585
G1 X166.727 Y65.573
G1 X161.858 Y64.966
G1 X156.314 Y64.856
G1 X150.802 Y65.142
G1 X148.069 Y65.475
G1 X145.356 Y65.957
G1 X142.669 Y66.604
G1 X140.010 Y67.433
G1 X136.406 Y68.751
G1 X132.984 Y70.318
G1 X129.727 Y72.115
G1 X126.619 Y74.128
G1 X123.643 Y76.339
G1 X120.783 Y78.731
G1 X118.021 Y81.289
G1 X115.343 Y83.995
G1 X111.198 Y86.863
G1 X106.845 Y89.262
G1 X102.317 Y91.204
G1 X97.646 Y92.700
G1 X92.863 Y93.760
G1 X88.001 Y94.395
G1 X83.091 Y94.616
G1 X78.165 Y94.434
G1 X73.257 Y93.860
G1 X68.396 Y92.904
G1 X63.616 Y91.578
G1 X58.949 Y89.892
G1 X54.426 Y87.857
G1 X50.080 Y85.484
G1 X45.942 Y82.783
G1 X42.045 Y79.766
G1 Z8

G0 X42.045 Y79.414
G1 Z0

G1 X45.087 Y81.713
G1 X48.258 Y83.846
G1 X51.546 Y85.806
G1 X54.941 Y87.585
G1 X58.430 Y89.173
G1 X62.004 Y90.564
G1 X65.649 Y91.747
G1 X69.356 Y92.717
G1 X73.112 Y93.463
G1 X76.906 Y93.977
G1 X80.727 Y94.253
G1 X84.564 Y94.280
G1 X88.404 Y94.052
G1 X92.238 Y93.559
G1 X96.053 Y92.794
G1 X99.837 Y91.747
G1 X102.973 Y90.505
G1 X106.026 Y89.143
G1 X108.980 Y87.641
G1 X111.819 Y85.977
G1 X114.525 Y84.132
G1 X117.083 Y82.084
G1 X119.475 Y79.814
G1 X121.686 Y77.299
G1 X125.796 Y73.986
G1 X130.174 Y71.175
G1 X134.780 Y68.858
G1 X139.575 Y67.025
G1 X144.521 Y65.667
G1 X149.579 Y64.774
G1 X154.710 Y64.338
G1 X159.876 Y64.349
G1 X165.038 Y64.798
G1 X170.157 Y65.675
G1 X175.194 Y66.971
G1 X180.111 Y68.677
G1 X184.869 Y70.783
G1 X189.429 Y73.281
G1 X193.753 Y76.161
G1 X197.802 Y79.414
G1 Z8

G0 X197.802 Y78.709
G1 Z0

G1 X193.461 Y75.557
G1 X188.910 Y72.724
G1 X184.168 Y70.229
G1 X179.258 Y68.093
G1 X174.198 Y66.337
G1 X169.011 Y64.982
G1 X163.716 Y64.048
G1 X158.334 Y63.556
G1 X155.560 Y63.520
G1 X152.790 Y63.666
G1 X150.028 Y63.977
G1 X147.278 Y64.437
G1 X141.833 Y65.737
G1 X136.486 Y67.433
G1 X133.424 Y68.764
G1 X130.556 Y70.351
G1 X127.845 Y72.153
G1 X125.254 Y74.128
G1 X120.282 Y78.434
G1 X115.343 Y82.938
G1 X111.307 Y85.850
G1 X107.106 Y88.268
G1 X102.706 Y90.222
G1 X98.076 Y91.747
G1 X94.523 Y92.573
G1 X90.995 Y93.196
G1 X87.483 Y93.612
G1 X83.980 Y93.818
G1 X80.477 Y93.809
G1 X76.965 Y93.581
G1 X73.437 Y93.130
G1 X69.884 Y92.452
G1 X66.008 Y91.395
G1 X61.251 Y89.765
G1 X56.493 Y87.871
G1 X49.005 Y83.687
G1 X45.393 Y81.379
G1 X42.045 Y78.709
G1 Z8

G0 X42.045 Y78.357
G1 Z0

G1 X47.359 Y82.215
G1 X52.969 Y85.570
G1 X55.876 Y87.045
G1 X58.845 Y88.379
G1 X61.871 Y89.567
G1 X64.951 Y90.602
G1 X68.080 Y91.481
G1 X71.255 Y92.198
G1 X74.472 Y92.747
G1 X77.725 Y93.124
G1 X81.011 Y93.323
G1 X84.327 Y93.340
G1 X87.667 Y93.169
G1 X91.028 Y92.805
G1 X95.467 Y91.948
G1 X99.782 Y90.712
G1 X103.949 Y89.113
G1 X107.942 Y87.166
G1 X111.738 Y84.890
G1 X115.310 Y82.299
G1 X118.634 Y79.411
G1 X121.686 Y76.242
G1 X125.796 Y72.929
G1 X130.174 Y70.118
G1 X134.780 Y67.801
G1 X139.575 Y65.968
G1 X144.521 Y64.610
G1 X149.579 Y63.717
G1 X154.710 Y63.281
G1 X159.876 Y63.292
G1 X165.038 Y63.740
G1 X170.157 Y64.618
G1 X175.194 Y65.914
G1 X180.111 Y67.620
G1 X184.869 Y69.726
G1 X189.429 Y72.224
G1 X193.753 Y75.104
G1 X197.802 Y78.357
G1 Z8

G0 X197.802 Y77.652
G1 Z0

G1 X193.905 Y74.631
G1 X189.767 Y71.920
G1 X185.421 Y69.531
G1 X180.898 Y67.477
G1 X176.231 Y65.769
G1 X171.451 Y64.421
G1 X166.591 Y63.444
G1 X161.682 Y62.851
G1 X156.757 Y62.655
G1 X151.847 Y62.868
G1 X146.984 Y63.502
G1 X142.201 Y64.569
G1 X137.530 Y66.083
G1 X133.002 Y68.055
G1 X128.650 Y70.497
G1 X124.505 Y73.423
G1 X118.740 Y78.847
G1 X115.678 Y81.395
G1 X112.479 Y83.775
G1 X109.132 Y85.939
G1 X105.624 Y87.844
G1 X101.943 Y89.442
G1 X98.076 Y90.690
G1 X94.306 Y91.612
G1 X90.537 Y92.269
G1 X86.775 Y92.668
G1 X83.027 Y92.816
G1 X79.303 Y92.720
G1 X75.609 Y92.388
G1 X71.953 Y91.826
G1 X68.343 Y91.043
G1 X64.786 Y90.045
G1 X61.291 Y88.839
G1 X57.866 Y87.433
G1 X54.517 Y85.834
G1 X51.253 Y84.049
G1 X48.081 Y82.086
G1 X45.009 Y79.951
G1 X42.045 Y77.652
G1 Z8

G0 X42.045 Y77.299
G1 Z0

G1 X45.547 Y79.871
G1 X49.181 Y82.282
G1 X52.947 Y84.503
G1 X56.846 Y86.506
G1 X60.876 Y88.260
G1 X65.039 Y89.738
G1 X69.334 Y90.910
G1 X73.761 Y91.747
G1 X77.133 Y92.177
G1 X80.503 Y92.409
G1 X83.860 Y92.444
G1 X87.195 Y92.282
G1 X90.497 Y91.923
G1 X93.756 Y91.370
G1 X96.961 Y90.621
G1 X100.102 Y89.677
G1 X103.168 Y88.540
G1 X106.150 Y87.208
G1 X109.037 Y85.684
G1 X111.819 Y83.967
G1 X114.485 Y82.059
G1 X117.025 Y79.958
G1 X119.429 Y77.667
G1 X121.686 Y75.185
G1 X124.813 Y72.667
G1 X128.104 Y70.400
G1 X131.540 Y68.388
G1 X135.104 Y66.634
G1 X138.777 Y65.143
G1 X142.542 Y63.918
G1 X146.380 Y62.962
G1 X150.273 Y62.279
G1 X154.204 Y61.873
G1 X158.153 Y61.747
G1 X162.104 Y61.905
G1 X166.037 Y62.350
G1 X169.936 Y63.087
G1 X173.781 Y64.119
G1 X177.555 Y65.448
G1 X181.240 Y67.080
G1 X183.046 Y67.961
G1 X185.116 Y68.842
G1 X188.486 Y70.709
G1 X191.723 Y72.674
G1 X194.829 Y74.838
G1 X197.802 Y77.299
G1 Z8

G0 X197.802 Y76.595
G1 Z0

G1 X193.827 Y73.454
G1 X189.591 Y70.648
G1 X185.130 Y68.189
G1 X180.480 Y66.089
G1 X175.677 Y64.361
G1 X170.757 Y63.017
G1 X165.757 Y62.069
G1 X160.713 Y61.530
G1 X155.660 Y61.412
G1 X150.635 Y61.728
G1 X145.675 Y62.490
G1 X140.814 Y63.710
G1 X136.090 Y65.401
G1 X131.538 Y67.576
G1 X127.194 Y70.245
G1 X123.095 Y73.423
G1 X119.911 Y76.855
G1 X116.449 Y79.997
G1 X112.732 Y82.826
G1 X108.779 Y85.316
G1 X104.612 Y87.443
G1 X100.250 Y89.182
G1 X95.715 Y90.507
G1 X91.028 Y91.395
G1 X87.663 Y91.759
G1 X84.312 Y91.930
G1 X80.981 Y91.912
G1 X77.675 Y91.709
G1 X74.401 Y91.327
G1 X71.162 Y90.769
G1 X67.966 Y90.042
G1 X64.819 Y89.149
G1 X61.724 Y88.094
G1 X58.690 Y86.884
G1 X55.720 Y85.521
G1 X52.821 Y84.011
G1 X49.998 Y82.359
G1 X47.258 Y80.569
G1 X44.605 Y78.646
G1 X42.045 Y76.595
G1 Z8

G0 X42.045 Y76.242
G1 Z0

G1 X46.799 Y79.668
G1 X51.791 Y82.773
G1 X56.999 Y85.497
G1 X62.396 Y87.783
G1 X67.958 Y89.574
G1 X70.794 Y90.265
G1 X73.661 Y90.811
G1 X76.558 Y91.205
G1 X79.480 Y91.438
G1 X82.425 Y91.504
G1 X85.389 Y91.395
G1 X89.932 Y90.988
G1 X94.508 Y90.250
G1 X99.017 Y89.116
G1 X103.361 Y87.519
G1 X107.408 Y85.537
G1 X111.158 Y83.290
G1 X114.709 Y80.779
G1 X118.162 Y78.004
G1 X119.263 Y76.771
G1 X120.629 Y75.537
G1 X121.686 Y74.128
G1 X125.782 Y70.956
G1 X130.143 Y67.785
G1 X131.255 Y67.108
G1 X132.434 Y66.596
G1 X134.724 Y65.671
G1 X137.780 Y64.317
G1 X140.869 Y63.165
G1 X143.991 Y62.220
G1 X147.146 Y61.486
G1 X150.334 Y60.966
G1 X153.555 Y60.665
G1 X156.809 Y60.588
G1 X160.096 Y60.737
G1 X165.229 Y61.345
G1 X170.299 Y62.367
G1 X175.279 Y63.785
G1 X180.139 Y65.582
G1 X184.850 Y67.744
G1 X189.383 Y70.252
G1 X193.710 Y73.090
G1 X197.802 Y76.242
G1 Z8

G0 X197.802 Y75.537
G1 Z0

G1 X194.829 Y73.225
G1 X191.723 Y71.045
G1 X188.486 Y68.996
G1 X185.116 Y67.080
G1 X181.240 Y65.318
G1 X176.699 Y63.519
G1 X172.072 Y62.092
G1 X167.371 Y61.044
G1 X162.607 Y60.385
G1 X157.794 Y60.122
G1 X152.944 Y60.264
G1 X148.069 Y60.818
G1 X143.182 Y61.794
G1 X139.314 Y63.012
G1 X135.633 Y64.536
G1 X132.125 Y66.341
G1 X128.778 Y68.402
G1 X125.579 Y70.693
G1 X122.517 Y73.192
G1 X119.579 Y75.872
G1 X116.752 Y78.709
G1 X114.869 Y80.346
G1 X112.920 Y81.831
G1 X108.823 Y84.391
G1 X104.463 Y86.489
G1 X99.837 Y88.224
G1 X95.868 Y89.407
G1 X91.865 Y90.294
G1 X87.796 Y90.850
G1 X83.627 Y91.043
G1 X79.195 Y90.905
G1 X74.862 Y90.470
G1 X70.595 Y89.705
G1 X66.360 Y88.576
G1 X62.974 Y87.452
G1 X59.687 Y86.192
G1 X56.499 Y84.791
G1 X53.410 Y83.246
G1 X50.420 Y81.552
G1 X47.529 Y79.706
G1 X44.738 Y77.702
G1 X42.045 Y75.537
G1 Z8

G0 X42.045 Y75.185
G1 Z0

G1 X47.199 Y78.797
G1 X52.617 Y82.145
G1 X58.299 Y85.096
G1 X61.240 Y86.382
G1 X64.246 Y87.519
G1 X69.561 Y89.003
G1 X74.917 Y90.008
G1 X80.289 Y90.517
G1 X85.654 Y90.514
G1 X90.985 Y89.983
G1 X96.258 Y88.906
G1 X101.449 Y87.268
G1 X106.533 Y85.052
G1 X108.119 Y84.171
G1 X109.704 Y83.290
G1 X114.065 Y80.251
G1 X118.162 Y76.947
G1 X119.263 Y75.714
G1 X120.629 Y74.480
G1 X121.686 Y73.071
G1 X125.782 Y69.899
G1 X130.143 Y66.728
G1 X132.847 Y65.114
G1 X135.649 Y63.865
G1 X141.420 Y61.794
G1 X146.975 Y60.478
G1 X152.564 Y59.724
G1 X155.381 Y59.568
G1 X158.219 Y59.564
G1 X161.081 Y59.718
G1 X163.973 Y60.032
G1 X168.678 Y60.857
G1 X173.272 Y62.003
G1 X177.743 Y63.464
G1 X182.077 Y65.230
G1 X186.262 Y67.293
G1 X190.286 Y69.646
G1 X194.137 Y72.279
G1 X197.802 Y75.185
G1 Z8

G0 X197.802 Y74.480
G1 Z0

G1 X194.829 Y72.168
G1 X191.723 Y69.987
G1 X188.486 Y67.939
G1 X185.116 Y66.023
G1 X181.240 Y64.261
G1 X177.831 Y62.841
G1 X174.352 Y61.626
G1 X170.817 Y60.619
G1 X167.238 Y59.829
G1 X163.628 Y59.259
G1 X159.999 Y58.915
G1 X156.366 Y58.804
G1 X152.740 Y58.931
G1 X149.135 Y59.302
G1 X145.564 Y59.921
G1 X142.039 Y60.796
G1 X138.573 Y61.932
G1 X135.180 Y63.334
G1 X131.871 Y65.008
G1 X128.661 Y66.959
G1 X125.562 Y69.194
G1 X121.867 Y72.465
G1 X118.470 Y75.802
G1 X115.007 Y79.006
G1 X113.137 Y80.497
G1 X111.114 Y81.881
G1 X107.937 Y83.659
G1 X104.727 Y85.272
G1 X101.451 Y86.687
G1 X98.076 Y87.871
G1 X93.577 Y88.994
G1 X89.046 Y89.721
G1 X84.448 Y90.052
G1 X79.751 Y89.986
G1 X74.619 Y89.377
G1 X69.548 Y88.356
G1 X64.569 Y86.938
G1 X59.709 Y85.140
G1 X54.998 Y82.979
G1 X50.464 Y80.471
G1 X46.137 Y77.633
G1 X42.045 Y74.480
G1 Z8

G0 X42.045 Y74.128
G1 Z0

G1 X45.441 Y76.740
G1 X49.008 Y79.148
G1 X52.728 Y81.340
G1 X56.581 Y83.301
G1 X60.551 Y85.019
G1 X64.618 Y86.480
G1 X68.763 Y87.670
G1 X72.968 Y88.576
G1 X77.214 Y89.185
G1 X81.483 Y89.483
G1 X85.756 Y89.457
G1 X90.015 Y89.094
G1 X94.240 Y88.379
G1 X98.414 Y87.300
G1 X102.518 Y85.843
G1 X106.533 Y83.995
G1 X108.119 Y83.114
G1 X109.704 Y82.233
G1 X111.967 Y80.845
G1 X114.065 Y79.326
G1 X118.162 Y75.890
G1 X119.263 Y74.657
G1 X120.629 Y73.423
G1 X121.686 Y72.014
G1 X123.705 Y70.169
G1 X125.796 Y68.468
G1 X127.954 Y66.907
G1 X130.174 Y65.485
G1 X134.780 Y63.049
G1 X139.575 Y61.145
G1 X144.521 Y59.756
G1 X149.579 Y58.869
G1 X154.710 Y58.467
G1 X159.876 Y58.535
G1 X165.038 Y59.057
G1 X170.157 Y60.017
G1 X175.194 Y61.401
G1 X180.111 Y63.193
G1 X184.869 Y65.377
G1 X189.429 Y67.938
G1 X193.753 Y70.860
G1 X197.802 Y74.128
G1 Z8

G0 X197.802 Y73.423
G1 Z0

G1 X193.885 Y70.271
G1 X189.692 Y67.433
G1 X185.261 Y64.927
G1 X180.629 Y62.769
G1 X175.833 Y60.976
G1 X170.912 Y59.566
G1 X165.904 Y58.556
G1 X160.845 Y57.962
G1 X155.774 Y57.802
G1 X150.728 Y58.092
G1 X145.746 Y58.850
G1 X140.863 Y60.093
G1 X136.120 Y61.837
G1 X131.552 Y64.101
G1 X127.198 Y66.900
G1 X125.113 Y68.505
G1 X123.095 Y70.252
G1 X119.962 Y73.407
G1 X116.796 Y76.463
G1 X113.432 Y79.320
G1 X109.704 Y81.881
G1 X106.847 Y83.395
G1 X104.022 Y84.744
G1 X101.131 Y85.894
G1 X98.076 Y86.814
G1 X92.790 Y88.003
G1 X90.147 Y88.548
G1 X87.504 Y88.928
G1 X84.403 Y89.103
G1 X81.316 Y89.100
G1 X78.246 Y88.927
G1 X75.198 Y88.587
G1 X72.177 Y88.086
G1 X69.187 Y87.429
G1 X66.234 Y86.622
G1 X63.321 Y85.669
G1 X57.637 Y83.347
G1 X52.171 Y80.504
G1 X46.962 Y77.182
G1 X42.045 Y73.423
G1 Z8

G0 X42.045 Y73.071
G1 Z0

G1 X44.943 Y75.316
G1 X47.948 Y77.419
G1 X51.052 Y79.372
G1 X54.247 Y81.165
G1 X57.524 Y82.788
G1 X60.876 Y84.233
G1 X64.294 Y85.490
G1 X67.770 Y86.550
G1 X71.295 Y87.403
G1 X74.862 Y88.040
G1 X78.461 Y88.453
G1 X82.086 Y88.631
G1 X85.727 Y88.565
G1 X89.376 Y88.247
G1 X93.025 Y87.666
G1 X96.666 Y86.814
G1 X99.722 Y85.950
G1 X102.613 Y84.920
G1 X105.437 Y83.692
G1 X108.295 Y82.233
G1 X110.927 Y80.581
G1 X113.493 Y78.797
G1 X115.926 Y76.881
G1 X118.162 Y74.833
G1 X119.263 Y73.467
G1 X120.629 Y72.366
G1 X121.686 Y70.956
G1 X124.806 Y68.300
G1 X128.084 Y65.891
G1 X131.510 Y63.746
G1 X135.077 Y61.882
G1 X138.775 Y60.316
G1 X142.598 Y59.063
G1 X146.536 Y58.141
G1 X150.582 Y57.566
G1 X155.321 Y57.349
G1 X160.019 Y57.488
G1 X164.668 Y57.974
G1 X169.258 Y58.799
G1 X173.783 Y59.954
G1 X178.233 Y61.431
G1 X182.601 Y63.222
G1 X186.878 Y65.318
G1 X187.759 Y66.023
G1 X188.640 Y66.728
G1 X191.162 Y68.016
G1 X193.485 Y69.635
G1 X197.802 Y73.071
G1 Z8

G0 X197.802 Y72.366
G1 Z0

G1 X193.897 Y69.221
G1 X189.738 Y66.403
G1 X185.358 Y63.923
G1 X180.794 Y61.794
G1 X176.078 Y60.029
G1 X171.247 Y58.639
G1 X166.334 Y57.638
G1 X161.374 Y57.037
G1 X156.401 Y56.849
G1 X151.451 Y57.087
G1 X146.558 Y57.762
G1 X141.755 Y58.887
G1 X137.079 Y60.475
G1 X132.564 Y62.538
G1 X128.243 Y65.088
G1 X124.152 Y68.137
G1 X120.540 Y72.078
G1 X116.593 Y75.681
G1 X112.340 Y78.903
G1 X107.810 Y81.704
G1 X103.033 Y84.043
G1 X98.037 Y85.878
G1 X92.851 Y87.168
G1 X90.196 Y87.595
G1 X87.504 Y87.871
G1 X84.399 Y87.987
G1 X81.301 Y87.942
G1 X78.215 Y87.739
G1 X75.148 Y87.381
G1 X72.106 Y86.873
G1 X69.094 Y86.217
G1 X63.189 Y84.479
G1 X57.482 Y82.196
G1 X52.022 Y79.397
G1 X46.860 Y76.111
G1 X42.045 Y72.366
G1 Z8

G0 X42.045 Y72.014
G1 Z0

G1 X45.001 Y74.310
G1 X48.053 Y76.440
G1 X51.194 Y78.406
G1 X54.423 Y80.207
G1 X57.734 Y81.842
G1 X61.124 Y83.312
G1 X64.588 Y84.617
G1 X68.122 Y85.757
G1 X71.954 Y86.666
G1 X75.781 Y87.282
G1 X79.600 Y87.609
G1 X83.407 Y87.651
G1 X87.198 Y87.412
G1 X90.967 Y86.897
G1 X94.712 Y86.109
G1 X98.428 Y85.052
G1 X103.053 Y83.576
G1 X107.414 Y81.704
G1 X109.495 Y80.578
G1 X111.510 Y79.304
G1 X113.460 Y77.864
G1 X115.343 Y76.242
G1 X117.881 Y73.809
G1 X120.320 Y71.309
G1 X122.825 Y68.809
G1 X125.562 Y66.375
G1 X128.035 Y64.666
G1 X130.562 Y63.106
G1 X133.140 Y61.697
G1 X135.765 Y60.440
G1 X138.433 Y59.335
G1 X141.141 Y58.385
G1 X143.885 Y57.589
G1 X146.661 Y56.949
G1 X149.467 Y56.466
G1 X152.298 Y56.141
G1 X155.150 Y55.975
G1 X158.020 Y55.969
G1 X160.905 Y56.124
G1 X163.801 Y56.441
G1 X166.704 Y56.921
G1 X169.611 Y57.566
G1 X173.487 Y58.623
G1 X177.496 Y59.900
G1 X181.240 Y61.442
G1 X185.116 Y63.204
G1 X188.486 Y65.125
G1 X191.723 Y67.212
G1 X194.829 Y69.497
G1 X197.802 Y72.014
G1 Z8

G0 X197.802 Y71.309
G1 Z0

G1 X193.897 Y68.218
G1 X189.738 Y65.432
G1 X185.358 Y62.967
G1 X180.794 Y60.836
G1 X176.078 Y59.057
G1 X171.247 Y57.644
G1 X166.334 Y56.613
G1 X161.374 Y55.980
G1 X156.401 Y55.759
G1 X151.451 Y55.967
G1 X146.558 Y56.619
G1 X141.755 Y57.731
G1 X137.079 Y59.317
G1 X132.564 Y61.394
G1 X128.243 Y63.976
G1 X124.152 Y67.080
G1 X121.591 Y69.817
G1 X118.922 Y72.454
G1 X116.137 Y74.959
G1 X113.228 Y77.299
G1 X110.188 Y79.441
G1 X107.006 Y81.352
G1 X103.677 Y82.998
G1 X100.190 Y84.347
G1 X96.397 Y85.455
G1 X92.560 Y86.273
G1 X88.694 Y86.808
G1 X84.811 Y87.067
G1 X80.927 Y87.058
G1 X77.054 Y86.788
G1 X73.207 Y86.264
G1 X69.400 Y85.493
G1 X65.646 Y84.482
G1 X61.960 Y83.239
G1 X58.356 Y81.771
G1 X54.847 Y80.086
G1 X51.448 Y78.189
G1 X48.172 Y76.089
G1 X45.033 Y73.794
G1 X42.045 Y71.309
G1 Z8

G0 X42.045 Y70.956
G1 Z0

G1 X44.987 Y73.252
G1 X48.003 Y75.383
G1 X51.102 Y77.349
G1 X54.291 Y79.149
G1 X57.579 Y80.785
G1 X60.975 Y82.255
G1 X64.487 Y83.560
G1 X68.122 Y84.700
G1 X72.878 Y85.720
G1 X77.620 Y86.390
G1 X82.338 Y86.688
G1 X87.019 Y86.594
G1 X91.651 Y86.087
G1 X96.220 Y85.146
G1 X100.715 Y83.751
G1 X105.123 Y81.881
G1 X106.709 Y80.867
G1 X108.295 Y80.119
G1 X110.815 Y78.572
G1 X113.124 Y76.864
G1 X115.276 Y75.033
G1 X117.325 Y73.115
G1 X121.328 Y69.167
G1 X125.562 Y65.318
G1 X128.534 Y63.101
G1 X131.630 Y61.194
G1 X134.841 Y59.576
G1 X138.160 Y58.226
G1 X141.578 Y57.124
G1 X145.087 Y56.250
G1 X148.678 Y55.581
G1 X152.344 Y55.099
G1 X156.042 Y54.950
G1 X159.733 Y55.033
G1 X163.407 Y55.347
G1 X167.056 Y55.892
G1 X170.672 Y56.668
G1 X174.247 Y57.676
G1 X177.772 Y58.915
G1 X181.240 Y60.385
G1 X185.116 Y62.147
G1 X188.486 Y64.068
G1 X191.723 Y66.155
G1 X194.829 Y68.440
G1 X197.802 Y70.956
G1 Z8

G0 X197.802 Y70.252
G1 Z0

G1 X194.406 Y67.516
G1 X190.839 Y64.999
G1 X187.118 Y62.715
G1 X183.260 Y60.676
G1 X179.286 Y58.896
G1 X175.211 Y57.386
G1 X171.055 Y56.160
G1 X166.836 Y55.231
G1 X162.571 Y54.612
G1 X158.279 Y54.315
G1 X153.977 Y54.354
G1 X149.684 Y54.741
G1 X145.418 Y55.489
G1 X141.197 Y56.612
G1 X137.039 Y58.122
G1 X132.962 Y60.032
G1 X131.376 Y61.045
G1 X129.791 Y61.794
G1 X126.839 Y63.776
G1 X125.479 Y64.817
G1 X124.152 Y66.023
G1 X121.989 Y68.409
G1 X119.730 Y70.673
G1 X117.380 Y72.809
G1 X114.941 Y74.811
G1 X112.417 Y76.672
G1 X109.812 Y78.387
G1 X107.130 Y79.949
G1 X104.374 Y81.352
G1 X101.548 Y82.590
G1 X98.656 Y83.656
G1 X95.700 Y84.545
G1 X92.685 Y85.250
G1 X89.614 Y85.765
G1 X86.491 Y86.084
G1 X83.320 Y86.201
G1 X80.104 Y86.109
G1 X74.855 Y85.500
G1 X69.697 Y84.474
G1 X64.655 Y83.043
G1 X59.753 Y81.220
G1 X55.016 Y79.017
G1 X50.470 Y76.446
G1 X46.138 Y73.520
G1 X42.045 Y70.252
G1 Z8

G0 X42.045 Y69.899
G1 Z0

G1 X45.091 Y72.326
G1 X48.273 Y74.579
G1 X51.579 Y76.649
G1 X54.996 Y78.527
G1 X58.512 Y80.206
G1 X62.115 Y81.675
G1 X65.793 Y82.926
G1 X69.532 Y83.951
G1 X73.321 Y84.740
G1 X77.147 Y85.285
G1 X80.998 Y85.578
G1 X84.861 Y85.608
G1 X88.724 Y85.368
G1 X92.575 Y84.849
G1 X96.401 Y84.042
G1 X100.190 Y82.938
G1 X103.510 Y81.545
G1 X106.665 Y79.986
G1 X109.754 Y78.230
G1 X112.876 Y76.242
G1 X116.295 Y73.280
G1 X119.351 Y70.252
G1 X122.341 Y67.223
G1 X125.562 Y64.261
G1 X129.622 Y61.350
G1 X133.860 Y58.948
G1 X138.254 Y57.032
G1 X142.785 Y55.583
G1 X147.432 Y54.581
G1 X152.173 Y54.003
G1 X156.989 Y53.830
G1 X161.858 Y54.042
G1 X166.843 Y54.766
G1 X171.736 Y55.875
G1 X176.514 Y57.356
G1 X181.152 Y59.195
G1 X185.624 Y61.382
G1 X189.906 Y63.903
G1 X193.974 Y66.746
G1 X197.802 Y69.899
G1 Z8

G0 X197.802 Y69.194
G1 Z0

G1 X195.095 Y67.015
G1 X192.268 Y64.971
G1 X189.334 Y63.068
G1 X186.305 Y61.310
G1 X183.194 Y59.700
G1 X180.012 Y58.243
G1 X176.772 Y56.943
G1 X173.487 Y55.804
G1 X169.611 Y54.746
G1 X164.856 Y53.786
G1 X160.118 Y53.276
G1 X155.413 Y53.204
G1 X150.758 Y53.557
G1 X146.169 Y54.323
G1 X141.662 Y55.490
G1 X137.254 Y57.045
G1 X132.962 Y58.975
G1 X131.376 Y59.988
G1 X129.791 Y60.737
G1 X126.839 Y62.719
G1 X125.479 Y63.760
G1 X124.152 Y64.966
G1 X118.498 Y70.599
G1 X115.548 Y73.223
G1 X112.479 Y75.670
G1 X109.262 Y77.902
G1 X105.867 Y79.882
G1 X102.265 Y81.573
G1 X98.428 Y82.938
G1 X93.393 Y84.160
G1 X88.341 Y84.920
G1 X83.289 Y85.217
G1 X78.254 Y85.052
G1 X73.251 Y84.424
G1 X68.298 Y83.334
G1 X63.412 Y81.781
G1 X58.608 Y79.766
G1 X56.670 Y78.753
G1 X54.731 Y78.004
G1 X51.362 Y76.182
G1 X48.124 Y73.996
G1 X45.019 Y71.612
G1 X42.045 Y69.194
G1 Z8

G0 X42.045 Y68.842
G1 Z0

G1 X44.738 Y71.022
G1 X47.529 Y73.065
G1 X50.420 Y74.968
G1 X53.410 Y76.727
G1 X56.499 Y78.337
G1 X59.687 Y79.794
G1 X62.974 Y81.094
G1 X66.360 Y82.233
G1 X70.237 Y83.290
G1 X74.053 Y84.068
G1 X77.841 Y84.556
G1 X81.603 Y84.764
G1 X85.345 Y84.700
G1 X89.071 Y84.371
G1 X92.784 Y83.786
G1 X96.489 Y82.953
G1 X100.190 Y81.881
G1 X103.763 Y80.516
G1 X107.106 Y78.830
G1 X110.250 Y76.863
G1 X113.228 Y74.657
G1 X116.075 Y72.252
G1 X118.823 Y69.690
G1 X124.152 Y64.261
G1 X127.241 Y61.805
G1 X130.628 Y59.680
G1 X134.212 Y57.819
G1 X137.896 Y56.156
G1 X142.389 Y54.763
G1 X146.882 Y53.733
G1 X151.375 Y53.034
G1 X155.868 Y52.632
G1 X158.766 Y52.644
G1 X161.644 Y52.808
G1 X167.326 Y53.579
G1 X172.884 Y54.912
G1 X178.288 Y56.773
G1 X183.512 Y59.129
G1 X188.524 Y61.948
G1 X193.297 Y65.197
G1 X197.802 Y68.842
G1 Z8

G0 X197.802 Y68.137
G1 Z0

G1 X192.516 Y63.909
G1 X185.116 Y59.328
G1 X181.240 Y57.566
G1 X178.309 Y56.319
G1 X175.335 Y55.225
G1 X172.325 Y54.286
G1 X169.286 Y53.508
G1 X166.224 Y52.892
G1 X163.146 Y52.443
G1 X160.059 Y52.164
G1 X156.969 Y52.059
G1 X153.883 Y52.132
G1 X150.808 Y52.386
G1 X147.751 Y52.825
G1 X144.718 Y53.452
G1 X141.716 Y54.272
G1 X138.751 Y55.287
G1 X135.831 Y56.501
G1 X132.962 Y57.918
G1 X128.866 Y60.440
G1 X125.033 Y63.292
G1 X121.465 Y66.541
G1 X118.162 Y70.252
G1 X116.884 Y71.309
G1 X115.343 Y72.366
G1 X114.285 Y73.776
G1 X111.212 Y75.906
G1 X108.069 Y77.800
G1 X104.851 Y79.456
G1 X101.555 Y80.867
G1 X98.177 Y82.031
G1 X94.711 Y82.943
G1 X91.155 Y83.599
G1 X87.504 Y83.995
G1 X84.399 Y84.111
G1 X81.301 Y84.065
G1 X78.215 Y83.860
G1 X75.148 Y83.499
G1 X72.106 Y82.986
G1 X69.094 Y82.322
G1 X66.120 Y81.512
G1 X63.189 Y80.559
G1 X57.482 Y78.234
G1 X52.022 Y75.372
G1 X46.860 Y71.998
G1 X44.406 Y70.127
G1 X42.045 Y68.137
G1 Z8

G0 X42.045 Y67.785
G1 Z0

G1 X45.827 Y70.706
G1 X49.765 Y73.379
G1 X53.852 Y75.788
G1 X58.079 Y77.916
G1 X62.439 Y79.747
G1 X66.922 Y81.264
G1 X71.521 Y82.450
G1 X76.227 Y83.290
G1 X79.104 Y83.605
G1 X81.926 Y83.758
G1 X84.707 Y83.755
G1 X87.460 Y83.598
G1 X92.927 Y82.844
G1 X98.428 Y81.528
G1 X102.279 Y80.163
G1 X105.916 Y78.467
G1 X109.355 Y76.474
G1 X112.612 Y74.216
G1 X115.703 Y71.727
G1 X118.646 Y69.040
G1 X121.457 Y66.188
G1 X124.152 Y63.204
G1 X128.247 Y60.096
G1 X132.578 Y57.504
G1 X137.110 Y55.413
