(GCode generated by: DrawingBotV3 Premium 1.6.20 Stable)
(Time: 2025-01-29 at 21:45:59 CET)
G21 (programming in millimeters, mm)
G90 (programming in absolute positioning)
G1 F3000 (set speed)
G1 Z8


G0 X43.616 Y146.740
G1 Z0

G1 X46.961 Y139.692
G1 X50.308 Y146.740
G1 X53.645 Y139.692
G1 X56.993 Y146.740
G1 X60.337 Y139.692
G1 X63.678 Y146.740
G1 X67.026 Y139.692
G1 X70.370 Y146.740
G1 X73.707 Y139.692
G1 X77.055 Y146.740
G1 X80.403 Y139.692
G1 X83.740 Y146.740
G1 X87.088 Y139.692
G1 X90.432 Y146.740
G1 X93.776 Y139.692
G1 X97.117 Y146.740
G1 X100.461 Y139.692
G1 X103.805 Y146.740
G1 X107.153 Y139.692
G1 X110.497 Y146.740
G1 X113.842 Y139.692
G1 X117.182 Y146.740
G1 X120.527 Y139.692
G1 X123.871 Y146.740
G1 X127.218 Y139.692
G1 X130.563 Y146.740
G1 X133.910 Y139.692
G1 X137.255 Y146.740
G1 X140.595 Y139.692
G1 X143.940 Y146.740
G1 X147.284 Y139.692
G1 X150.632 Y146.740
G1 X153.979 Y139.692
G1 X157.324 Y146.740
G1 X160.668 Y139.692
G1 X164.005 Y146.740
G1 X167.349 Y139.692
G1 X170.693 Y146.740
G1 X174.041 Y139.692
G1 X177.385 Y146.740
G1 X180.730 Y139.692
G1 X184.070 Y146.740
G1 X187.418 Y139.692
G1 X190.762 Y146.740
G1 X194.107 Y139.692
G1 X197.454 Y146.740
G1 X200.802 Y139.692
G1 Z8

G0 X200.802 Y136.608
G1 Z0

G1 X197.458 Y143.656
G1 X194.114 Y136.608
G1 X190.766 Y143.656
G1 X187.422 Y136.608
G1 X184.077 Y143.656
G1 X180.733 Y136.608
G1 X177.389 Y143.656
G1 X174.041 Y136.608
G1 X170.697 Y143.656
G1 X167.360 Y136.608
G1 X164.016 Y143.656
G1 X160.671 Y136.608
G1 X157.327 Y143.656
G1 X153.979 Y136.608
G1 X150.632 Y143.656
G1 X147.287 Y136.608
G1 X143.943 Y143.656
G1 X140.602 Y136.608
G1 X137.258 Y143.656
G1 X133.914 Y136.608
G1 X130.566 Y143.656
G1 X127.218 Y136.608
G1 X123.878 Y143.656
G1 X120.530 Y136.608
G1 X117.189 Y143.656
G1 X113.845 Y136.608
G1 X110.501 Y143.656
G1 X107.153 Y136.608
G1 X103.809 Y143.656
G1 X100.465 Y136.608
G1 X97.124 Y143.656
G1 X93.780 Y136.608
G1 X90.435 Y143.656
G1 X87.088 Y136.608
G1 X83.751 Y143.656
G1 X80.403 Y136.608
G1 X77.059 Y143.656
G1 X73.718 Y136.608
G1 X70.374 Y143.656
G1 X67.026 Y136.608
G1 X63.685 Y143.656
G1 X60.341 Y136.608
G1 X56.993 Y143.656
G1 X53.656 Y136.608
G1 X50.308 Y143.656
G1 X46.968 Y136.608
G1 X43.623 Y143.656
G1 Z8

G0 X43.627 Y140.569
G1 Z0

G1 X46.971 Y133.521
G1 X50.315 Y140.569
G1 X53.656 Y133.521
G1 X57.004 Y140.569
G1 X60.341 Y133.521
G1 X63.689 Y140.569
G1 X67.033 Y133.521
G1 X70.374 Y140.569
G1 X73.721 Y133.521
G1 X77.066 Y140.569
G1 X80.406 Y133.521
G1 X83.751 Y140.569
G1 X87.098 Y133.521
G1 X90.439 Y140.569
G1 X93.783 Y133.521
G1 X97.127 Y140.569
G1 X100.472 Y133.521
G1 X103.819 Y140.569
G1 X107.157 Y133.521
G1 X110.501 Y140.569
G1 X113.849 Y133.521
G1 X117.196 Y140.569
G1 X120.541 Y133.521
G1 X123.885 Y140.569
G1 X127.226 Y133.521
G1 X130.570 Y140.569
G1 X133.914 Y133.521
G1 X137.262 Y140.569
G1 X140.606 Y133.521
G1 X143.954 Y140.569
G1 X147.291 Y133.521
G1 X150.639 Y140.569
G1 X153.983 Y133.521
G1 X157.327 Y140.569
G1 X160.675 Y133.521
G1 X164.019 Y140.569
G1 X167.363 Y133.521
G1 X170.708 Y140.569
G1 X174.048 Y133.521
G1 X177.393 Y140.569
G1 X180.740 Y133.521
G1 X184.081 Y140.569
G1 X187.425 Y133.521
G1 X190.773 Y140.569
G1 X194.117 Y133.521
G1 X197.461 Y140.569
G1 X200.806 Y133.521
G1 Z8

G0 X200.813 Y130.434
G1 Z0

G1 X197.465 Y137.486
G1 X194.121 Y130.434
G1 X190.776 Y137.486
G1 X187.429 Y130.434
G1 X184.088 Y137.486
G1 X180.744 Y130.434
G1 X177.396 Y137.486
G1 X174.055 Y130.434
G1 X170.711 Y137.486
G1 X167.367 Y130.434
G1 X164.023 Y137.486
G1 X160.675 Y130.434
G1 X157.331 Y137.486
G1 X153.986 Y130.434
G1 X150.646 Y137.486
G1 X147.301 Y130.434
G1 X143.957 Y137.486
G1 X140.610 Y130.434
G1 X137.262 Y137.486
G1 X133.918 Y130.434
G1 X130.573 Y137.486
G1 X127.233 Y130.434
G1 X123.888 Y137.486
G1 X120.544 Y130.434
G1 X117.196 Y137.486
G1 X113.852 Y130.434
G1 X110.508 Y137.486
G1 X107.167 Y130.434
G1 X103.823 Y137.486
G1 X100.479 Y130.434
G1 X97.131 Y137.486
G1 X93.787 Y130.434
G1 X90.443 Y137.486
G1 X87.098 Y130.434
G1 X83.754 Y137.486
G1 X80.413 Y130.434
G1 X77.069 Y137.486
G1 X73.721 Y130.434
G1 X70.381 Y137.486
G1 X67.036 Y130.434
G1 X63.696 Y137.486
G1 X60.352 Y130.434
G1 X57.004 Y137.486
G1 X53.663 Y130.434
G1 X50.319 Y137.486
G1 X46.978 Y130.434
G1 X43.634 Y137.486
G1 Z8

G0 X43.634 Y134.399
G1 Z0

G1 X46.982 Y127.351
G1 X50.326 Y134.399
G1 X53.667 Y127.351
G1 X57.011 Y134.399
G1 X60.352 Y127.351
G1 X63.699 Y134.399
G1 X67.044 Y127.351
G1 X70.384 Y134.399
G1 X73.728 Y127.351
G1 X77.069 Y134.399
G1 X80.417 Y127.351
G1 X83.761 Y134.399
G1 X87.102 Y127.351
G1 X90.450 Y134.399
G1 X93.790 Y127.351
G1 X97.135 Y134.399
G1 X100.479 Y127.351
G1 X103.827 Y134.399
G1 X107.171 Y127.351
G1 X110.515 Y134.399
G1 X113.856 Y127.351
G1 X117.200 Y134.399
G1 X120.544 Y127.351
G1 X123.892 Y134.399
G1 X127.236 Y127.351
G1 X130.580 Y134.399
G1 X133.921 Y127.351
G1 X137.269 Y134.399
G1 X140.613 Y127.351
G1 X143.957 Y134.399
G1 X147.305 Y127.351
G1 X150.649 Y134.399
G1 X153.993 Y127.351
G1 X157.334 Y134.399
G1 X160.678 Y127.351
G1 X164.023 Y134.399
G1 X167.370 Y127.351
G1 X170.715 Y134.399
G1 X174.059 Y127.351
G1 X177.403 Y134.399
G1 X180.747 Y127.351
G1 X184.092 Y134.399
G1 X187.439 Y127.351
G1 X190.784 Y134.399
G1 X194.124 Y127.351
G1 X197.472 Y134.399
G1 X200.816 Y127.351
G1 Z8

G0 X200.820 Y124.264
G1 Z0

G1 X197.479 Y131.312
G1 X194.131 Y124.264
G1 X190.787 Y131.312
G1 X187.443 Y124.264
G1 X184.099 Y131.312
G1 X180.754 Y124.264
G1 X177.407 Y131.312
G1 X174.062 Y124.264
G1 X170.718 Y131.312
G1 X167.370 Y124.264
G1 X164.026 Y131.312
G1 X160.689 Y124.264
G1 X157.345 Y131.312
G1 X154.001 Y124.264
G1 X150.653 Y131.312
G1 X147.305 Y124.264
G1 X143.961 Y131.312
G1 X140.617 Y124.264
G1 X137.276 Y131.312
G1 X133.932 Y124.264
G1 X130.587 Y131.312
G1 X127.240 Y124.264
G1 X123.892 Y131.312
G1 X120.548 Y124.264
G1 X117.203 Y131.312
G1 X113.863 Y124.264
G1 X110.518 Y131.312
G1 X107.174 Y124.264
G1 X103.827 Y131.312
G1 X100.482 Y124.264
G1 X97.138 Y131.312
G1 X93.797 Y124.264
G1 X90.453 Y131.312
G1 X87.109 Y124.264
G1 X83.765 Y131.312
G1 X80.424 Y124.264
G1 X77.080 Y131.312
G1 X73.732 Y124.264
G1 X70.391 Y131.312
G1 X67.047 Y124.264
G1 X63.699 Y131.312
G1 X60.359 Y124.264
G1 X57.014 Y131.312
G1 X53.674 Y124.264
G1 X50.329 Y131.312
G1 X46.982 Y124.264
G1 X43.641 Y131.312
G1 Z8

G0 X43.644 Y128.228
G1 Z0

G1 X46.985 Y121.181
G1 X50.329 Y128.228
G1 X53.677 Y121.181
G1 X57.021 Y128.228
G1 X60.362 Y121.181
G1 X63.706 Y128.228
G1 X67.047 Y121.181
G1 X70.395 Y128.228
G1 X73.739 Y121.181
G1 X77.080 Y128.228
G1 X80.427 Y121.181
G1 X83.772 Y128.228
G1 X87.112 Y121.181
G1 X90.460 Y128.228
G1 X93.801 Y121.181
G1 X97.145 Y128.228
G1 X100.486 Y121.181
G1 X103.830 Y128.228
G1 X107.174 Y121.181
G1 X110.522 Y128.228
G1 X113.866 Y121.181
G1 X117.210 Y128.228
G1 X120.558 Y121.181
G1 X123.895 Y128.228
G1 X127.243 Y121.181
G1 X130.587 Y128.228
G1 X133.935 Y121.181
G1 X137.279 Y128.228
G1 X140.624 Y121.181
G1 X143.964 Y128.228
G1 X147.309 Y121.181
G1 X150.656 Y128.228
G1 X154.001 Y121.181
G1 X157.348 Y128.228
G1 X160.693 Y121.181
G1 X164.037 Y128.228
G1 X167.377 Y121.181
G1 X170.722 Y128.228
G1 X174.066 Y121.181
G1 X177.414 Y128.228
G1 X180.758 Y121.181
G1 X184.102 Y128.228
G1 X187.446 Y121.181
G1 X190.791 Y128.228
G1 X194.138 Y121.181
G1 X197.483 Y128.228
G1 X200.827 Y121.181
G1 Z8

G0 X200.834 Y118.094
G1 Z0

G1 X197.486 Y125.141
G1 X194.142 Y118.094
G1 X190.798 Y125.141
G1 X187.450 Y118.094
G1 X184.106 Y125.141
G1 X180.761 Y118.094
G1 X177.414 Y125.141
G1 X174.069 Y118.094
G1 X170.725 Y125.141
G1 X167.384 Y118.094
G1 X164.040 Y125.141
G1 X160.696 Y118.094
G1 X157.348 Y125.141
G1 X154.004 Y118.094
G1 X150.660 Y125.141
G1 X147.319 Y118.094
G1 X143.975 Y125.141
G1 X140.627 Y118.094
G1 X137.283 Y125.141
G1 X133.935 Y118.094
G1 X130.591 Y125.141
G1 X127.247 Y118.094
G1 X123.906 Y125.141
G1 X120.562 Y118.094
G1 X117.218 Y125.141
G1 X113.870 Y118.094
G1 X110.526 Y125.141
G1 X107.181 Y118.094
G1 X103.841 Y125.141
G1 X100.496 Y118.094
G1 X97.152 Y125.141
G1 X93.808 Y118.094
G1 X90.460 Y125.141
G1 X87.119 Y118.094
G1 X83.775 Y125.141
G1 X80.427 Y118.094
G1 X77.087 Y125.141
G1 X73.743 Y118.094
G1 X70.395 Y125.141
G1 X67.054 Y118.094
G1 X63.710 Y125.141
G1 X60.369 Y118.094
G1 X57.025 Y125.141
G1 X53.677 Y118.094
G1 X50.333 Y125.141
G1 X46.992 Y118.094
G1 X43.652 Y125.141
G1 Z8

G0 X43.655 Y122.055
G1 Z0

G1 X46.996 Y115.007
G1 X50.340 Y122.055
G1 X53.681 Y115.007
G1 X57.025 Y122.055
G1 X60.373 Y115.007
G1 X63.717 Y122.055
G1 X67.058 Y115.007
G1 X70.402 Y122.055
G1 X73.743 Y115.007
G1 X77.090 Y122.055
G1 X80.435 Y115.007
G1 X83.775 Y122.055
G1 X87.123 Y115.007
G1 X90.464 Y122.055
G1 X93.808 Y115.007
G1 X97.156 Y122.055
G1 X100.500 Y115.007
G1 X103.844 Y122.055
G1 X107.188 Y115.007
G1 X110.529 Y122.055
G1 X113.873 Y115.007
G1 X117.218 Y122.055
G1 X120.565 Y115.007
G1 X123.910 Y122.055
G1 X127.254 Y115.007
G1 X130.594 Y122.055
G1 X133.939 Y115.007
G1 X137.283 Y122.055
G1 X140.631 Y115.007
G1 X143.978 Y122.055
G1 X147.323 Y115.007
G1 X150.667 Y122.055
G1 X154.008 Y115.007
G1 X157.352 Y122.055
G1 X160.696 Y115.007
G1 X164.044 Y122.055
G1 X167.388 Y115.007
G1 X170.732 Y122.055
G1 X174.073 Y115.007
G1 X177.417 Y122.055
G1 X180.761 Y115.007
G1 X184.109 Y122.055
G1 X187.457 Y115.007
G1 X190.801 Y122.055
G1 X194.145 Y115.007
G1 X197.493 Y122.055
G1 X200.837 Y115.007
G1 Z8

G0 X200.841 Y111.923
G1 Z0

G1 X197.497 Y118.971
G1 X194.149 Y111.923
G1 X190.805 Y118.971
G1 X187.457 Y111.923
G1 X184.109 Y118.971
G1 X180.765 Y111.923
G1 X177.421 Y118.971
G1 X174.080 Y111.923
G1 X170.736 Y118.971
G1 X167.392 Y111.923
G1 X164.044 Y118.971
G1 X160.703 Y111.923
G1 X157.362 Y118.971
G1 X154.015 Y111.923
G1 X150.670 Y118.971
G1 X147.326 Y111.923
G1 X143.978 Y118.971
G1 X140.634 Y111.923
G1 X137.290 Y118.971
G1 X133.942 Y111.923
G1 X130.601 Y118.971
G1 X127.257 Y111.923
G1 X123.913 Y118.971
G1 X120.565 Y111.923
G1 X117.221 Y118.971
G1 X113.877 Y111.923
G1 X110.536 Y118.971
G1 X107.192 Y111.923
G1 X103.848 Y118.971
G1 X100.503 Y111.923
G1 X97.156 Y118.971
G1 X93.811 Y111.923
G1 X90.467 Y118.971
G1 X87.123 Y111.923
G1 X83.782 Y118.971
G1 X80.438 Y111.923
G1 X77.090 Y118.971
G1 X73.750 Y111.923
G1 X70.405 Y118.971
G1 X67.065 Y111.923
G1 X63.720 Y118.971
G1 X60.373 Y111.923
G1 X57.028 Y118.971
G1 X53.688 Y111.923
G1 X50.344 Y118.971
G1 X47.003 Y111.923
G1 X43.655 Y118.971
G1 Z8

G0 X43.662 Y115.884
G1 Z0

G1 X47.003 Y108.836
G1 X50.351 Y115.884
G1 X53.691 Y108.836
G1 X57.036 Y115.884
G1 X60.376 Y108.836
G1 X63.720 Y115.884
G1 X67.068 Y108.836
G1 X70.412 Y115.884
G1 X73.753 Y108.836
G1 X77.101 Y115.884
G1 X80.445 Y108.836
G1 X83.786 Y115.884
G1 X87.130 Y108.836
G1 X90.474 Y115.884
G1 X93.815 Y108.836
G1 X97.159 Y115.884
G1 X100.503 Y108.836
G1 X103.851 Y115.884
G1 X107.195 Y108.836
G1 X110.540 Y115.884
G1 X113.884 Y108.836
G1 X117.225 Y115.884
G1 X120.569 Y108.836
G1 X123.913 Y115.884
G1 X127.261 Y108.836
G1 X130.609 Y115.884
G1 X133.953 Y108.836
G1 X137.297 Y115.884
G1 X140.638 Y108.836
G1 X143.982 Y115.884
G1 X147.326 Y108.836
G1 X150.674 Y115.884
G1 X154.022 Y108.836
G1 X157.366 Y115.884
G1 X160.710 Y108.836
G1 X164.047 Y115.884
G1 X167.395 Y108.836
G1 X170.739 Y115.884
G1 X174.087 Y108.836
G1 X177.428 Y115.884
G1 X180.772 Y108.836
G1 X184.116 Y115.884
G1 X187.460 Y108.836
G1 X190.805 Y115.884
G1 X194.152 Y108.836
G1 X197.500 Y115.884
G1 X200.844 Y108.836
G1 Z8

G0 X200.848 Y105.753
G1 Z0

G1 X197.500 Y112.801
G1 X194.156 Y105.753
G1 X190.812 Y112.801
G1 X187.464 Y105.753
G1 X184.120 Y112.801
G1 X180.775 Y105.753
G1 X177.435 Y112.801
G1 X174.087 Y105.753
G1 X170.743 Y112.801
G1 X167.399 Y105.753
G1 X164.058 Y112.801
G1 X160.714 Y105.753
G1 X157.369 Y112.801
G1 X154.022 Y105.753
G1 X150.677 Y112.801
G1 X147.330 Y105.753
G1 X143.985 Y112.801
G1 X140.645 Y105.753
G1 X137.301 Y112.801
G1 X133.956 Y105.753
G1 X130.609 Y112.801
G1 X127.264 Y105.753
G1 X123.920 Y112.801
G1 X120.579 Y105.753
G1 X117.232 Y112.801
G1 X113.887 Y105.753
G1 X110.543 Y112.801
G1 X107.199 Y105.753
G1 X103.851 Y112.801
G1 X100.510 Y105.753
G1 X97.170 Y112.801
G1 X93.826 Y105.753
G1 X90.481 Y112.801
G1 X87.134 Y105.753
G1 X83.793 Y112.801
G1 X80.449 Y105.753
G1 X77.101 Y112.801
G1 X73.760 Y105.753
G1 X70.416 Y112.801
G1 X67.068 Y105.753
G1 X63.731 Y112.801
G1 X60.383 Y105.753
G1 X57.039 Y112.801
G1 X53.698 Y105.753
G1 X50.351 Y112.801
G1 X47.006 Y105.753
G1 X43.666 Y112.801
G1 Z8

G0 X43.673 Y109.714
G1 Z0

G1 X47.013 Y102.666
G1 X50.354 Y109.714
G1 X53.698 Y102.666
G1 X57.046 Y109.714
G1 X60.387 Y102.666
G1 X63.731 Y109.714
G1 X67.079 Y102.666
G1 X70.416 Y109.714
G1 X73.764 Y102.666
G1 X77.108 Y109.714
G1 X80.449 Y102.666
G1 X83.796 Y109.714
G1 X87.141 Y102.666
G1 X90.481 Y109.714
G1 X93.829 Y102.666
G1 X97.173 Y109.714
G1 X100.518 Y102.666
G1 X103.858 Y109.714
G1 X107.202 Y102.666
G1 X110.547 Y109.714
G1 X113.894 Y102.666
G1 X117.239 Y109.714
G1 X120.583 Y102.666
G1 X123.927 Y109.714
G1 X127.268 Y102.666
G1 X130.612 Y109.714
G1 X133.956 Y102.666
G1 X137.304 Y109.714
G1 X140.648 Y102.666
G1 X143.996 Y109.714
G1 X147.340 Y102.666
G1 X150.681 Y109.714
G1 X154.025 Y102.666
G1 X157.369 Y109.714
G1 X160.717 Y102.666
G1 X164.061 Y109.714
G1 X167.406 Y102.666
G1 X170.746 Y109.714
G1 X174.091 Y102.666
G1 X177.435 Y109.714
G1 X180.779 Y102.666
G1 X184.123 Y109.714
G1 X187.467 Y102.666
G1 X190.815 Y109.714
G1 X194.159 Y102.666
G1 X197.504 Y109.714
G1 X200.851 Y102.666
G1 Z8

G0 X200.855 Y99.579
G1 Z0

G1 X197.511 Y106.627
G1 X194.163 Y99.579
G1 X190.819 Y106.627
G1 X187.475 Y99.579
G1 X184.127 Y106.627
G1 X180.786 Y99.579
G1 X177.438 Y106.627
G1 X174.094 Y99.579
G1 X170.753 Y106.627
G1 X167.409 Y99.579
G1 X164.065 Y106.627
G1 X160.717 Y99.579
G1 X157.373 Y106.627
G1 X154.029 Y99.579
G1 X150.688 Y106.627
G1 X147.344 Y99.579
G1 X144.000 Y106.627
G1 X140.652 Y99.579
G1 X137.308 Y106.627
G1 X133.960 Y99.579
G1 X130.616 Y106.627
G1 X127.275 Y99.579
G1 X123.931 Y106.627
G1 X120.586 Y99.579
G1 X117.242 Y106.627
G1 X113.894 Y99.579
G1 X110.550 Y106.627
G1 X107.206 Y99.579
G1 X103.865 Y106.627
G1 X100.521 Y99.579
G1 X97.177 Y106.627
G1 X93.829 Y99.579
G1 X90.485 Y106.627
G1 X87.144 Y99.579
G1 X83.796 Y106.627
G1 X80.456 Y99.579
G1 X77.111 Y106.627
G1 X73.764 Y99.579
G1 X70.419 Y106.627
G1 X67.079 Y99.579
G1 X63.735 Y106.627
G1 X60.394 Y99.579
G1 X57.046 Y106.627
G1 X53.702 Y99.579
G1 X50.361 Y106.627
G1 X47.017 Y99.579
G1 X43.673 Y106.627
G1 Z8

G0 X43.680 Y103.543
G1 Z0

G1 X47.024 Y96.495
G1 X50.365 Y103.543
G1 X53.709 Y96.495
G1 X57.050 Y103.543
G1 X60.394 Y96.495
G1 X63.742 Y103.543
G1 X67.082 Y96.495
G1 X70.427 Y103.543
G1 X73.774 Y96.495
G1 X77.115 Y103.543
G1 X80.459 Y96.495
G1 X83.803 Y103.543
G1 X87.144 Y96.495
G1 X90.488 Y103.543
G1 X93.833 Y96.495
G1 X97.177 Y103.543
G1 X100.525 Y96.495
G1 X103.869 Y103.543
G1 X107.213 Y96.495
G1 X110.554 Y103.543
G1 X113.898 Y96.495
G1 X117.242 Y103.543
G1 X120.590 Y96.495
G1 X123.934 Y103.543
G1 X127.278 Y96.495
G1 X130.623 Y103.543
G1 X133.963 Y96.495
G1 X137.311 Y103.543
G1 X140.655 Y96.495
G1 X144.000 Y103.543
G1 X147.347 Y96.495
G1 X150.692 Y103.543
G1 X154.039 Y96.495
G1 X157.384 Y103.543
G1 X160.724 Y96.495
G1 X164.065 Y103.543
G1 X167.413 Y96.495
G1 X170.757 Y103.543
G1 X174.101 Y96.495
G1 X177.442 Y103.543
G1 X180.790 Y96.495
G1 X184.134 Y103.543
G1 X187.482 Y96.495
G1 X190.822 Y103.543
G1 X194.170 Y96.495
G1 X197.514 Y103.543
G1 X200.858 Y96.495
G1 Z8

G0 X200.862 Y93.408
G1 Z0

G1 X197.518 Y100.456
G1 X194.177 Y93.408
G1 X190.829 Y100.456
G1 X187.485 Y93.408
G1 X184.141 Y100.456
G1 X180.797 Y93.408
G1 X177.452 Y100.456
G1 X174.108 Y93.408
G1 X170.760 Y100.456
G1 X167.416 Y93.408
G1 X164.072 Y100.456
G1 X160.731 Y93.408
G1 X157.387 Y100.456
G1 X154.043 Y93.408
G1 X150.695 Y100.456
G1 X147.347 Y93.408
G1 X144.003 Y100.456
G1 X140.659 Y93.408
G1 X137.318 Y100.456
G1 X133.974 Y93.408
G1 X130.630 Y100.456
G1 X127.285 Y93.408
G1 X123.938 Y100.456
G1 X120.590 Y93.408
G1 X117.246 Y100.456
G1 X113.901 Y93.408
G1 X110.561 Y100.456
G1 X107.217 Y93.408
G1 X103.872 Y100.456
G1 X100.525 Y93.408
G1 X97.180 Y100.456
G1 X93.843 Y93.408
G1 X90.499 Y100.456
G1 X87.151 Y93.408
G1 X83.807 Y100.456
G1 X80.463 Y93.408
G1 X77.122 Y100.456
G1 X73.774 Y93.408
G1 X70.430 Y100.456
G1 X67.089 Y93.408
G1 X63.742 Y100.456
G1 X60.397 Y93.408
G1 X57.057 Y100.456
G1 X53.712 Y93.408
G1 X50.372 Y100.456
G1 X47.027 Y93.408
G1 X43.683 Y100.456
G1 Z8

G0 X43.690 Y97.373
G1 Z0

G1 X47.035 Y90.325
G1 X50.375 Y97.373
G1 X53.719 Y90.325
G1 X57.060 Y97.373
G1 X60.404 Y90.325
G1 X63.752 Y97.373
G1 X67.089 Y90.325
G1 X70.437 Y97.373
G1 X73.778 Y90.325
G1 X77.122 Y97.373
G1 X80.470 Y90.325
G1 X83.810 Y97.373
G1 X87.155 Y90.325
G1 X90.502 Y97.373
G1 X93.847 Y90.325
G1 X97.191 Y97.373
G1 X100.532 Y90.325
G1 X103.876 Y97.373
G1 X107.220 Y90.325
G1 X110.568 Y97.373
G1 X113.912 Y90.325
G1 X117.256 Y97.373
G1 X120.597 Y90.325
G1 X123.941 Y97.373
G1 X127.285 Y90.325
G1 X130.633 Y97.373
G1 X133.977 Y90.325
G1 X137.322 Y97.373
G1 X140.666 Y90.325
G1 X144.007 Y97.373
G1 X147.354 Y90.325
G1 X150.699 Y97.373
G1 X154.043 Y90.325
G1 X157.391 Y97.373
G1 X160.735 Y90.325
G1 X164.079 Y97.373
G1 X167.420 Y90.325
G1 X170.764 Y97.373
G1 X174.108 Y90.325
G1 X177.456 Y97.373
G1 X180.800 Y90.325
G1 X184.144 Y97.373
G1 X187.489 Y90.325
G1 X190.836 Y97.373
G1 X194.181 Y90.325
G1 X197.525 Y97.373
G1 X200.873 Y90.325
G1 Z8

G0 X200.876 Y87.238
G1 Z0

G1 X197.528 Y94.286
G1 X194.184 Y87.238
G1 X190.840 Y94.286
G1 X187.496 Y87.238
G1 X184.148 Y94.286
G1 X180.804 Y87.238
G1 X177.456 Y94.286
G1 X174.112 Y87.238
G1 X170.767 Y94.286
G1 X167.427 Y87.238
G1 X164.083 Y94.286
G1 X160.738 Y87.238
G1 X157.391 Y94.286
G1 X154.046 Y87.238
G1 X150.702 Y94.286
G1 X147.361 Y87.238
G1 X144.017 Y94.286
G1 X140.673 Y87.238
G1 X137.325 Y94.286
G1 X133.981 Y87.238
G1 X130.633 Y94.286
G1 X127.289 Y87.238
G1 X123.945 Y94.286
G1 X120.604 Y87.238
G1 X117.260 Y94.286
G1 X113.916 Y87.238
G1 X110.568 Y94.286
G1 X107.224 Y87.238
G1 X103.879 Y94.286
G1 X100.539 Y87.238
G1 X97.194 Y94.286
G1 X93.850 Y87.238
G1 X90.502 Y94.286
G1 X87.158 Y87.238
G1 X83.818 Y94.286
G1 X80.470 Y87.238
G1 X77.126 Y94.286
G1 X73.785 Y87.238
G1 X70.437 Y94.286
G1 X67.100 Y87.238
G1 X63.752 Y94.286
G1 X60.408 Y87.238
G1 X57.067 Y94.286
G1 X53.723 Y87.238
G1 X50.382 Y94.286
G1 X47.038 Y87.238
G1 X43.694 Y94.286
G1 Z8

G0 X43.694 Y91.199
G1 Z0

G1 X47.038 Y84.151
G1 X50.386 Y91.199
G1 X53.723 Y84.151
G1 X57.071 Y91.199
G1 X60.415 Y84.151
G1 X63.756 Y91.199
G1 X67.100 Y84.151
G1 X70.448 Y91.199
G1 X73.785 Y84.151
G1 X77.133 Y91.199
G1 X80.473 Y84.151
G1 X83.818 Y91.199
G1 X87.165 Y84.151
G1 X90.506 Y91.199
G1 X93.850 Y84.151
G1 X97.198 Y91.199
G1 X100.542 Y84.151
G1 X103.886 Y91.199
G1 X107.227 Y84.151
G1 X110.571 Y91.199
G1 X113.916 Y84.151
G1 X117.263 Y91.199
G1 X120.608 Y84.151
G1 X123.952 Y91.199
G1 X127.292 Y84.151
G1 X130.637 Y91.199
G1 X133.981 Y84.151
G1 X137.329 Y91.199
G1 X140.676 Y84.151
G1 X144.021 Y91.199
G1 X147.365 Y84.151
G1 X150.709 Y91.199
G1 X154.050 Y84.151
G1 X157.394 Y91.199
G1 X160.742 Y84.151
G1 X164.086 Y91.199
G1 X167.430 Y84.151
G1 X170.775 Y91.199
G1 X174.115 Y84.151
G1 X177.459 Y91.199
G1 X180.804 Y84.151
G1 X184.151 Y91.199
G1 X187.499 Y84.151
G1 X190.843 Y91.199
G1 X194.188 Y84.151
G1 X197.535 Y91.199
G1 X200.880 Y84.151
G1 Z8

G0 X200.883 Y81.067
G1 Z0

G1 X197.539 Y88.115
G1 X194.195 Y81.067
G1 X190.847 Y88.115
G1 X187.499 Y81.067
G1 X184.155 Y88.115
G1 X180.811 Y81.067
G1 X177.463 Y88.115
G1 X174.122 Y81.067
G1 X170.778 Y88.115
G1 X167.434 Y81.067
G1 X164.086 Y88.115
G1 X160.745 Y81.067
G1 X157.405 Y88.115
G1 X154.060 Y81.067
G1 X150.713 Y88.115
G1 X147.368 Y81.067
G1 X144.024 Y88.115
G1 X140.676 Y81.067
G1 X137.332 Y88.115
G1 X133.988 Y81.067
G1 X130.647 Y88.115
G1 X127.300 Y81.067
G1 X123.955 Y88.115
G1 X120.611 Y81.067
G1 X117.263 Y88.115
G1 X113.919 Y81.067
G1 X110.575 Y88.115
G1 X107.234 Y81.067
G1 X103.890 Y88.115
G1 X100.546 Y81.067
G1 X97.198 Y88.115
G1 X93.854 Y81.067
G1 X90.517 Y88.115
G1 X87.165 Y81.067
G1 X83.821 Y88.115
G1 X80.480 Y81.067
G1 X77.136 Y88.115
G1 X73.795 Y81.067
G1 X70.448 Y88.115
G1 X67.103 Y81.067
G1 X63.763 Y88.115
G1 X60.418 Y81.067
G1 X57.071 Y88.115
G1 X53.734 Y81.067
G1 X50.386 Y88.115
G1 X47.045 Y81.067
G1 X43.701 Y88.115
G1 Z8

G0 X43.704 Y85.028
G1 Z0

G1 X47.049 Y77.980
G1 X50.393 Y85.028
G1 X53.734 Y77.980
G1 X57.081 Y85.028
G1 X60.418 Y77.980
G1 X63.766 Y85.028
G1 X67.110 Y77.980
G1 X70.451 Y85.028
G1 X73.795 Y77.980
G1 X77.143 Y85.028
G1 X80.484 Y77.980
G1 X83.828 Y85.028
G1 X87.176 Y77.980
G1 X90.520 Y85.028
G1 X93.864 Y77.980
G1 X97.201 Y85.028
G1 X100.546 Y77.980
G1 X103.893 Y85.028
G1 X107.238 Y77.980
G1 X110.582 Y85.028
G1 X113.930 Y77.980
G1 X117.270 Y85.028
G1 X120.615 Y77.980
G1 X123.959 Y85.028
G1 X127.307 Y77.980
G1 X130.651 Y85.028
G1 X133.995 Y77.980
G1 X137.336 Y85.028
G1 X140.680 Y77.980
G1 X144.024 Y85.028
G1 X147.372 Y77.980
G1 X150.720 Y85.028
G1 X154.064 Y77.980
G1 X157.408 Y85.028
G1 X160.752 Y77.980
G1 X164.093 Y85.028
G1 X167.437 Y77.980
G1 X170.782 Y85.028
G1 X174.129 Y77.980
G1 X177.474 Y85.028
G1 X180.814 Y77.980
G1 X184.158 Y85.028
G1 X187.503 Y77.980
G1 X190.847 Y85.028
G1 X194.195 Y77.980
G1 X197.542 Y85.028
G1 X200.890 Y77.980
G1 Z8

G0 X200.890 Y74.897
G1 Z0

G1 X197.542 Y81.945
G1 X194.198 Y74.897
G1 X190.854 Y81.945
G1 X187.506 Y74.897
G1 X184.162 Y81.945
G1 X180.818 Y74.897
G1 X177.477 Y81.945
G1 X174.129 Y74.897
G1 X170.785 Y81.945
G1 X167.441 Y74.897
G1 X164.100 Y81.945
G1 X160.756 Y74.897
G1 X157.412 Y81.945
G1 X154.067 Y74.897
G1 X150.720 Y81.945
G1 X147.376 Y74.897
G1 X144.031 Y81.945
G1 X140.684 Y74.897
G1 X137.343 Y81.945
G1 X133.999 Y74.897
G1 X130.654 Y81.945
G1 X127.307 Y74.897
G1 X123.962 Y81.945
G1 X120.618 Y74.897
G1 X117.277 Y81.945
G1 X113.933 Y74.897
G1 X110.589 Y81.945
G1 X107.241 Y74.897
G1 X103.897 Y81.945
G1 X100.553 Y74.897
G1 X97.212 Y81.945
G1 X93.868 Y74.897
G1 X90.524 Y81.945
G1 X87.176 Y74.897
G1 X83.832 Y81.945
G1 X80.491 Y74.897
G1 X77.143 Y81.945
G1 X73.799 Y74.897
G1 X70.458 Y81.945
G1 X67.114 Y74.897
G1 X63.773 Y81.945
G1 X60.429 Y74.897
G1 X57.081 Y81.945
G1 X53.741 Y74.897
G1 X50.396 Y81.945
G1 X47.056 Y74.897
G1 X43.711 Y81.945
G1 Z8

G0 X43.711 Y78.858
G1 Z0

G1 X47.059 Y71.810
G1 X50.403 Y78.858
G1 X53.744 Y71.810
G1 X57.088 Y78.858
G1 X60.429 Y71.810
G1 X63.777 Y78.858
G1 X67.121 Y71.810
G1 X70.462 Y78.858
G1 X73.806 Y71.810
G1 X77.147 Y78.858
G1 X80.491 Y71.810
G1 X83.839 Y78.858
G1 X87.179 Y71.810
G1 X90.524 Y78.858
G1 X93.871 Y71.810
G1 X97.216 Y78.858
G1 X100.560 Y71.810
G1 X103.901 Y78.858
G1 X107.245 Y71.810
G1 X110.589 Y78.858
G1 X113.937 Y71.810
G1 X117.281 Y78.858
G1 X120.625 Y71.810
G1 X123.966 Y78.858
G1 X127.310 Y71.810
G1 X130.654 Y78.858
G1 X134.002 Y71.810
G1 X137.350 Y78.858
G1 X140.694 Y71.810
G1 X144.038 Y78.858
G1 X147.379 Y71.810
G1 X150.723 Y78.858
G1 X154.067 Y71.810
G1 X157.415 Y78.858
G1 X160.763 Y71.810
G1 X164.104 Y78.858
G1 X167.448 Y71.810
G1 X170.789 Y78.858
G1 X174.133 Y71.810
G1 X177.477 Y78.858
G1 X180.821 Y71.810
G1 X184.166 Y78.858
G1 X187.513 Y71.810
G1 X190.858 Y78.858
G1 X194.202 Y71.810
G1 X197.546 Y78.858
G1 X200.894 Y71.810
G1 Z8

G0 X200.897 Y68.723
G1 Z0

G1 X197.553 Y75.771
G1 X194.209 Y68.723
G1 X190.861 Y75.771
G1 X187.517 Y68.723
G1 X184.176 Y75.771
G1 X180.828 Y68.723
G1 X177.481 Y75.771
G1 X174.136 Y68.723
G1 X170.796 Y75.771
G1 X167.451 Y68.723
G1 X164.107 Y75.771
G1 X160.763 Y68.723
G1 X157.419 Y75.771
G1 X154.071 Y68.723
G1 X150.727 Y75.771
G1 X147.386 Y68.723
G1 X144.042 Y75.771
G1 X140.698 Y68.723
G1 X137.350 Y75.771
G1 X134.002 Y68.723
G1 X130.661 Y75.771
G1 X127.314 Y68.723
G1 X123.973 Y75.771
G1 X120.629 Y68.723
G1 X117.284 Y75.771
G1 X113.937 Y68.723
G1 X110.593 Y75.771
G1 X107.248 Y68.723
G1 X103.908 Y75.771
G1 X100.563 Y68.723
G1 X97.219 Y75.771
G1 X93.871 Y68.723
G1 X90.527 Y75.771
G1 X87.186 Y68.723
G1 X83.839 Y75.771
G1 X80.501 Y68.723
G1 X77.157 Y75.771
G1 X73.810 Y68.723
G1 X70.469 Y75.771
G1 X67.125 Y68.723
G1 X63.777 Y75.771
G1 X60.436 Y68.723
G1 X57.092 Y75.771
G1 X53.751 Y68.723
G1 X50.407 Y75.771
G1 X47.059 Y68.723
G1 X43.715 Y75.771
G1 Z8

G0 X43.722 Y72.687
G1 Z0

G1 X47.066 Y65.640
G1 X50.407 Y72.687
G1 X53.755 Y65.640
G1 X57.092 Y72.687
G1 X60.440 Y65.640
G1 X63.784 Y72.687
G1 X67.125 Y65.640
G1 X70.472 Y72.687
G1 X73.817 Y65.640
G1 X77.157 Y72.687
G1 X80.505 Y65.640
G1 X83.849 Y72.687
G1 X87.186 Y65.640
G1 X90.538 Y72.687
G1 X93.875 Y65.640
G1 X97.219 Y72.687
G1 X100.567 Y65.640
G1 X103.911 Y72.687
G1 X107.255 Y65.640
G1 X110.596 Y72.687
G1 X113.940 Y65.640
G1 X117.284 Y72.687
G1 X120.632 Y65.640
G1 X123.980 Y72.687
G1 X127.321 Y65.640
G1 X130.668 Y72.687
G1 X134.009 Y65.640
G1 X137.353 Y72.687
G1 X140.698 Y65.640
G1 X144.045 Y72.687
G1 X147.390 Y65.640
G1 X150.737 Y72.687
G1 X154.082 Y65.640
G1 X157.422 Y72.687
G1 X160.766 Y65.640
G1 X164.111 Y72.687
G1 X167.458 Y65.640
G1 X170.803 Y72.687
G1 X174.147 Y65.640
G1 X177.484 Y72.687
G1 X180.835 Y65.640
G1 X184.180 Y72.687
G1 X187.524 Y65.640
G1 X190.865 Y72.687
G1 X194.212 Y65.640
G1 X197.557 Y72.687
G1 X200.901 Y65.640
G1 Z8

G0 X200.908 Y62.553
G1 Z0

G1 X197.560 Y69.601
G1 X194.219 Y62.553
G1 X190.875 Y69.601
G1 X187.527 Y62.553
G1 X184.183 Y69.601
G1 X180.839 Y62.553
G1 X177.495 Y69.601
G1 X174.150 Y62.553
G1 X170.806 Y69.601
G1 X167.458 Y62.553
G1 X164.114 Y69.601
G1 X160.770 Y62.553
G1 X157.429 Y69.601
G1 X154.085 Y62.553
G1 X150.741 Y69.601
G1 X147.393 Y62.553
G1 X144.045 Y69.601
G1 X140.701 Y62.553
G1 X137.357 Y69.601
G1 X134.016 Y62.553
G1 X130.672 Y69.601
G1 X127.328 Y62.553
G1 X123.980 Y69.601
G1 X120.636 Y62.553
G1 X117.292 Y69.601
G1 X113.951 Y62.553
G1 X110.603 Y69.601
G1 X107.259 Y62.553
G1 X103.915 Y69.601
G1 X100.570 Y62.553
G1 X97.223 Y69.601
G1 X93.885 Y62.553
G1 X90.541 Y69.601
G1 X87.197 Y62.553
G1 X83.853 Y69.601
G1 X80.505 Y62.553
G1 X77.164 Y69.601
G1 X73.820 Y62.553
G1 X70.472 Y69.601
G1 X67.132 Y62.553
G1 X63.787 Y69.601
G1 X60.447 Y62.553
G1 X57.102 Y69.601
G1 X53.755 Y62.553
G1 X50.414 Y69.601
G1 X47.070 Y62.553
G1 X43.729 Y69.601
G1 Z8

G0 X43.733 Y66.517
G1 Z0

G1 X47.073 Y59.469
G1 X50.418 Y66.517
G1 X53.762 Y59.469
G1 X57.102 Y66.517
G1 X60.450 Y59.469
G1 X63.794 Y66.517
G1 X67.135 Y59.469
G1 X70.479 Y66.517
G1 X73.820 Y59.469
G1 X77.168 Y66.517
G1 X80.512 Y59.469
G1 X83.853 Y66.517
G1 X87.201 Y59.469
G1 X90.545 Y66.517
G1 X93.889 Y59.469
G1 X97.233 Y66.517
G1 X100.574 Y59.469
G1 X103.918 Y66.517
G1 X107.262 Y59.469
G1 X110.610 Y66.517
G1 X113.954 Y59.469
G1 X117.299 Y66.517
G1 X120.639 Y59.469
G1 X123.984 Y66.517
G1 X127.328 Y59.469
G1 X130.675 Y66.517
G1 X134.020 Y59.469
G1 X137.364 Y66.517
G1 X140.705 Y59.469
G1 X144.052 Y66.517
G1 X147.397 Y59.469
G1 X150.741 Y66.517
G1 X154.089 Y59.469
G1 X157.433 Y66.517
G1 X160.777 Y59.469
G1 X164.118 Y66.517
G1 X167.462 Y59.469
G1 X170.806 Y66.517
G1 X174.154 Y59.469
G1 X177.498 Y66.517
G1 X180.842 Y59.469
G1 X184.187 Y66.517
G1 X187.531 Y59.469
G1 X190.879 Y66.517
G1 X194.223 Y59.469
G1 X197.567 Y66.517
G1 X200.915 Y59.469
G1 Z8

G0 X200.918 Y56.382
G1 Z0

G1 X197.574 Y63.430
G1 X194.226 Y56.382
G1 X190.882 Y63.430
G1 X187.538 Y56.382
G1 X184.190 Y63.430
G1 X180.846 Y56.382
G1 X177.502 Y63.430
G1 X174.154 Y56.382
G1 X170.810 Y63.430
G1 X167.466 Y56.382
G1 X164.125 Y63.430
G1 X160.784 Y56.382
G1 X157.436 Y63.430
G1 X154.089 Y56.382
G1 X150.744 Y63.430
G1 X147.400 Y56.382
G1 X144.059 Y63.430
G1 X140.715 Y56.382
G1 X137.371 Y63.430
G1 X134.023 Y56.382
G1 X130.675 Y63.430
G1 X127.331 Y56.382
G1 X123.987 Y63.430
G1 X120.646 Y56.382
G1 X117.302 Y63.430
G1 X113.958 Y56.382
G1 X110.610 Y63.430
G1 X107.266 Y56.382
G1 X103.922 Y63.430
G1 X100.581 Y56.382
G1 X97.237 Y63.430
G1 X93.892 Y56.382
G1 X90.548 Y63.430
G1 X87.201 Y56.382
G1 X83.860 Y63.430
G1 X80.516 Y56.382
G1 X77.175 Y63.430
G1 X73.827 Y56.382
G1 X70.483 Y63.430
G1 X67.142 Y56.382
G1 X63.798 Y63.430
G1 X60.450 Y56.382
G1 X57.110 Y63.430
G1 X53.765 Y56.382
G1 X50.421 Y63.430
G1 X47.080 Y56.382
G1 X43.733 Y63.430
G1 Z8

G0 X43.740 Y60.343
G1 Z0

G1 X47.080 Y53.295
G1 X50.428 Y60.343
G1 X53.769 Y53.295
G1 X57.113 Y60.343
G1 X60.457 Y53.295
G1 X63.798 Y60.343
G1 X67.146 Y53.295
G1 X70.490 Y60.343
G1 X73.831 Y53.295
G1 X77.178 Y60.343
G1 X80.523 Y53.295
G1 X83.863 Y60.343
G1 X87.208 Y53.295
G1 X90.548 Y60.343
G1 X93.896 Y53.295
G1 X97.240 Y60.343
G1 X100.584 Y53.295
G1 X103.929 Y60.343
G1 X107.269 Y53.295
G1 X110.614 Y60.343
G1 X113.958 Y53.295
G1 X117.306 Y60.343
G1 X120.650 Y53.295
G1 X123.994 Y60.343
G1 X127.335 Y53.295
G1 X130.683 Y60.343
G1 X134.027 Y53.295
G1 X137.371 Y60.343
G1 X140.719 Y53.295
G1 X144.063 Y60.343
G1 X147.407 Y53.295
G1 X150.748 Y60.343
G1 X154.096 Y53.295
G1 X157.440 Y60.343
G1 X160.784 Y53.295
G1 X164.128 Y60.343
G1 X167.476 Y53.295
G1 X170.813 Y60.343
G1 X174.158 Y53.295
G1 X177.502 Y60.343
G1 X180.850 Y53.295
G1 X184.197 Y60.343
G1 X187.541 Y53.295
G1 X190.886 Y60.343
G1 X194.233 Y53.295
G1 X197.578 Y60.343
G1 X200.922 Y53.295
G1 Z8

G0 X200.929 Y50.212
G1 Z0

G1 X197.581 Y57.260
G1 X194.237 Y50.212
G1 X190.893 Y57.260
G1 X187.545 Y50.212
G1 X184.197 Y57.260
G1 X180.853 Y50.212
G1 X177.509 Y57.260
G1 X174.168 Y50.212
G1 X170.824 Y57.260
G1 X167.480 Y50.212
G1 X164.132 Y57.260
G1 X160.788 Y50.212
G1 X157.443 Y57.260
G1 X154.103 Y50.212
G1 X150.758 Y57.260
G1 X147.414 Y50.212
G1 X144.066 Y57.260
G1 X140.719 Y50.212
G1 X137.375 Y57.260
G1 X134.030 Y50.212
G1 X130.690 Y57.260
G1 X127.345 Y50.212
G1 X124.001 Y57.260
G1 X120.653 Y50.212
G1 X117.306 Y57.260
G1 X113.961 Y50.212
G1 X110.617 Y57.260
G1 X107.276 Y50.212
G1 X103.932 Y57.260
G1 X100.588 Y50.212
G1 X97.244 Y57.260
G1 X93.900 Y50.212
G1 X90.555 Y57.260
G1 X87.211 Y50.212
G1 X83.870 Y57.260
G1 X80.526 Y50.212
G1 X77.178 Y57.260
G1 X73.838 Y50.212
G1 X70.493 Y57.260
G1 X67.146 Y50.212
G1 X63.805 Y57.260
G1 X60.461 Y50.212
G1 X57.117 Y57.260
G1 X53.776 Y50.212
G1 X50.428 Y57.260
G1 X47.084 Y50.212
G1 X43.743 Y57.260
G1 Z8

G0 X43.750 Y54.173
G1 Z0

G1 X47.091 Y47.125
G1 X50.432 Y54.173
G1 X53.776 Y47.125
G1 X57.124 Y54.173
G1 X60.464 Y47.125
G1 X63.809 Y54.173
G1 X67.153 Y47.125
G1 X70.493 Y54.173
G1 X73.841 Y47.125
G1 X77.185 Y54.173
G1 X80.526 Y47.125
G1 X83.874 Y54.173
G1 X87.218 Y47.125
G1 X90.562 Y54.173
G1 X93.903 Y47.125
G1 X97.247 Y54.173
G1 X100.592 Y47.125
G1 X103.939 Y54.173
G1 X107.284 Y47.125
G1 X110.628 Y54.173
G1 X113.972 Y47.125
G1 X117.313 Y54.173
G1 X120.657 Y47.125
G1 X124.001 Y54.173
G1 X127.349 Y47.125
G1 X130.693 Y54.173
G1 X134.037 Y47.125
G1 X137.378 Y54.173
G1 X140.722 Y47.125
G1 X144.070 Y54.173
G1 X147.414 Y47.125
G1 X150.762 Y54.173
G1 X154.106 Y47.125
G1 X157.450 Y54.173
G1 X160.791 Y47.125
G1 X164.135 Y54.173
G1 X167.480 Y47.125
G1 X170.827 Y54.173
G1 X174.172 Y47.125
G1 X177.516 Y54.173
G1 X180.857 Y47.125
G1 X184.201 Y54.173
G1 X187.545 Y47.125
G1 X190.893 Y54.173
G1 X194.241 Y47.125
G1 X197.585 Y54.173
G1 X200.932 Y47.125
G1 Z8

G0 X200.936 Y44.038
G1 Z0

G1 X197.588 Y51.086
G1 X194.241 Y44.038
G1 X190.896 Y51.086
G1 X187.549 Y44.038
G1 X184.204 Y51.086
G1 X180.860 Y44.038
G1 X177.519 Y51.086
G1 X174.175 Y44.038
G1 X170.827 Y51.086
G1 X167.483 Y44.038
G1 X164.139 Y51.086
G1 X160.802 Y44.038
G1 X157.454 Y51.086
G1 X154.110 Y44.038
G1 X150.762 Y51.086
G1 X147.418 Y44.038
G1 X144.074 Y51.086
G1 X140.733 Y44.038
G1 X137.389 Y51.086
G1 X134.041 Y44.038
G1 X130.697 Y51.086
G1 X127.349 Y44.038
G1 X124.005 Y51.086
G1 X120.660 Y44.038
G1 X117.320 Y51.086
G1 X113.975 Y44.038
G1 X110.631 Y51.086
G1 X107.287 Y44.038
G1 X103.939 Y51.086
G1 X100.595 Y44.038
G1 X97.251 Y51.086
G1 X93.910 Y44.038
G1 X90.566 Y51.086
G1 X87.222 Y44.038
G1 X83.874 Y51.086
G1 X80.533 Y44.038
G1 X77.189 Y51.086
G1 X73.841 Y44.038
G1 X70.501 Y51.086
G1 X67.156 Y44.038
G1 X63.812 Y51.086
G1 X60.471 Y44.038
G1 X57.124 Y51.086
G1 X53.779 Y44.038
G1 X50.439 Y51.086
G1 X47.094 Y44.038
G1 X43.750 Y51.086
G1 Z8

G0 X43.754 Y48.002
G1 Z0

G1 X47.101 Y40.954
G1 X50.442 Y48.002
G1 X53.786 Y40.954
G1 X57.127 Y48.002
G1 X60.471 Y40.954
G1 X63.819 Y48.002
G1 X67.160 Y40.954
G1 X70.504 Y48.002
G1 X73.848 Y40.954
G1 X77.196 Y48.002
G1 X80.537 Y40.954
G1 X83.881 Y48.002
G1 X87.222 Y40.954
G1 X90.569 Y48.002
G1 X93.914 Y40.954
G1 X97.258 Y48.002
G1 X100.599 Y40.954
G1 X103.943 Y48.002
G1 X107.287 Y40.954
G1 X110.635 Y48.002
G1 X113.979 Y40.954
G1 X117.323 Y48.002
G1 X120.667 Y40.954
G1 X124.008 Y48.002
G1 X127.352 Y40.954
G1 X130.697 Y48.002
G1 X134.044 Y40.954
G1 X137.392 Y48.002
G1 X140.736 Y40.954
G1 X144.081 Y48.002
G1 X147.421 Y40.954
G1 X150.766 Y48.002
G1 X154.110 Y40.954
G1 X157.458 Y48.002
G1 X160.805 Y40.954
G1 X164.146 Y48.002
G1 X167.487 Y40.954
G1 X170.831 Y48.002
G1 X174.175 Y40.954
G1 X177.523 Y48.002
G1 X180.867 Y40.954
G1 X184.211 Y48.002
G1 X187.556 Y40.954
G1 X190.900 Y48.002
G1 X194.244 Y40.954
G1 X197.592 Y48.002
G1 X200.936 Y40.954
G1 Z8

G0 X200.940 Y37.867
G1 Z0

G1 X197.595 Y44.915
G1 X194.251 Y37.867
G1 X190.903 Y44.915
G1 X187.559 Y37.867
G1 X184.215 Y44.915
G1 X180.874 Y37.867
G1 X177.523 Y44.915
G1 X174.179 Y37.867
G1 X170.834 Y44.915
G1 X167.497 Y37.867
G1 X164.153 Y44.915
G1 X160.805 Y37.867
G1 X157.461 Y44.915
G1 X154.117 Y37.867
G1 X150.769 Y44.915
G1 X147.428 Y37.867
G1 X144.084 Y44.915
G1 X140.740 Y37.867
G1 X137.392 Y44.915
G1 X134.048 Y37.867
G1 X130.704 Y44.915
G1 X127.363 Y37.867
G1 X124.015 Y44.915
G1 X120.671 Y37.867
G1 X117.327 Y44.915
G1 X113.983 Y37.867
G1 X110.635 Y44.915
G1 X107.291 Y37.867
G1 X103.946 Y44.915
G1 X100.606 Y37.867
G1 X97.261 Y44.915
G1 X93.917 Y37.867
G1 X90.569 Y44.915
G1 X87.229 Y37.867
G1 X83.884 Y44.915
G1 X80.544 Y37.867
G1 X77.200 Y44.915
G1 X73.852 Y37.867
G1 X70.508 Y44.915
G1 X67.167 Y37.867
G1 X63.819 Y44.915
G1 X60.475 Y37.867
G1 X57.134 Y44.915
G1 X53.790 Y37.867
G1 X50.449 Y44.915
G1 X47.101 Y37.867
G1 X43.761 Y44.915
G1 Z8

G0 X43.768 Y41.832
G1 Z0

G1 X47.112 Y34.784
G1 X50.449 Y41.832
G1 X53.797 Y34.784
G1 X57.138 Y41.832
G1 X60.482 Y34.784
G1 X63.830 Y41.832
G1 X67.167 Y34.784
G1 X70.515 Y41.832
G1 X73.855 Y34.784
G1 X77.200 Y41.832
G1 X80.547 Y34.784
G1 X83.892 Y41.832
G1 X87.232 Y34.784
G1 X90.576 Y41.832
G1 X93.921 Y34.784
G1 X97.265 Y41.832
G1 X100.613 Y34.784
G1 X103.957 Y41.832
G1 X107.301 Y34.784
G1 X110.642 Y41.832
G1 X113.986 Y34.784
G1 X117.330 Y41.832
G1 X120.678 Y34.784
G1 X124.022 Y41.832
G1 X127.367 Y34.784
G1 X130.711 Y41.832
G1 X134.051 Y34.784
G1 X137.396 Y41.832
G1 X140.740 Y34.784
G1 X144.088 Y41.832
G1 X147.435 Y34.784
G1 X150.780 Y41.832
G1 X154.124 Y34.784
G1 X157.465 Y41.832
G1 X160.809 Y34.784
G1 X164.153 Y41.832
G1 X167.501 Y34.784
G1 X170.845 Y41.832
G1 X174.189 Y34.784
G1 X177.530 Y41.832
G1 X180.878 Y34.784
G1 X184.222 Y41.832
G1 X187.563 Y34.784
G1 X190.910 Y41.832
G1 X194.255 Y34.784
G1 X197.599 Y41.832
G1 X200.947 Y34.784
G1 Z8

G0 X200.950 Y31.697
G1 Z0

G1 X197.602 Y38.745
G1 X194.258 Y31.697
G1 X190.917 Y38.745
G1 X187.570 Y31.697
G1 X184.225 Y38.745
G1 X180.881 Y31.697
G1 X177.537 Y38.745
G1 X174.193 Y31.697
G1 X170.849 Y38.745
G1 X167.501 Y31.697
G1 X164.157 Y38.745
G1 X160.812 Y31.697
G1 X157.472 Y38.745
G1 X154.127 Y31.697
G1 X150.783 Y38.745
G1 X147.435 Y31.697
G1 X144.091 Y38.745
G1 X140.743 Y31.697
G1 X137.399 Y38.745
G1 X134.058 Y31.697
G1 X130.714 Y38.745
G1 X127.370 Y31.697
G1 X124.026 Y38.745
G1 X120.678 Y31.697
G1 X117.334 Y38.745
G1 X113.990 Y31.697
G1 X110.649 Y38.745
G1 X107.305 Y31.697
G1 X103.960 Y38.745
G1 X100.613 Y31.697
G1 X97.268 Y38.745
G1 X93.924 Y31.697
G1 X90.584 Y38.745
G1 X87.239 Y31.697
G1 X83.895 Y38.745
G1 X80.547 Y31.697
G1 X77.203 Y38.745
G1 X73.862 Y31.697
G1 X70.515 Y38.745
G1 X67.177 Y31.697
G1 X63.830 Y38.745
G1 X60.485 Y31.697
G1 X57.145 Y38.745
G1 X53.797 Y31.697
G1 X50.460 Y38.745
G1 X47.116 Y31.697
G1 X43.771 Y38.745
G1 Z8

G0 X43.771 Y35.658
G1 Z0

G1 X47.116 Y28.610
G1 X50.463 Y35.658
G1 X53.801 Y28.610
G1 X57.145 Y35.658
G1 X60.492 Y28.610
G1 X63.833 Y35.658
G1 X67.177 Y28.610
G1 X70.525 Y35.658
G1 X73.862 Y28.610
G1 X77.210 Y35.658
G1 X80.551 Y28.610
G1 X83.895 Y35.658
G1 X87.243 Y28.610
G1 X90.587 Y35.658
G1 X93.931 Y28.610
G1 X97.272 Y35.658
G1 X100.616 Y28.610
G1 X103.960 Y35.658
G1 X107.308 Y28.610
G1 X110.652 Y35.658
G1 X113.997 Y28.610
G1 X117.337 Y35.658
G1 X120.682 Y28.610
G1 X124.026 Y35.658
G1 X127.374 Y28.610
G1 X130.718 Y35.658
G1 X134.062 Y28.610
G1 X137.410 Y35.658
G1 X140.754 Y28.610
G1 X144.095 Y35.658
G1 X147.439 Y28.610
G1 X150.783 Y35.658
G1 X154.131 Y28.610
G1 X157.479 Y35.658
G1 X160.823 Y28.610
G1 X164.160 Y35.658
G1 X167.504 Y28.610
G1 X170.849 Y35.658
G1 X174.196 Y28.610
G1 X177.541 Y35.658
G1 X180.885 Y28.610
G1 X184.229 Y35.658
G1 X187.577 Y28.610
G1 X190.921 Y35.658
G1 X194.265 Y28.610
G1 X197.613 Y35.658
G1 X200.954 Y28.610
G1 Z8

G0 X200.961 Y25.526
G1 Z0

G1 X197.616 Y32.574
G1 X194.269 Y25.526
G1 X190.924 Y32.574
G1 X187.580 Y25.526
G1 X184.236 Y32.574
G1 X180.892 Y25.526
G1 X177.544 Y32.574
G1 X174.196 Y25.526
G1 X170.852 Y32.574
G1 X167.508 Y25.526
G1 X164.167 Y32.574
G1 X160.826 Y25.526
G1 X157.479 Y32.574
G1 X154.134 Y25.526
G1 X150.787 Y32.574
G1 X147.442 Y25.526
G1 X144.102 Y32.574
G1 X140.758 Y25.526
G1 X137.413 Y32.574
G1 X134.069 Y25.526
G1 X130.721 Y32.574
G1 X127.374 Y25.526
G1 X124.029 Y32.574
G1 X120.685 Y25.526
G1 X117.344 Y32.574
G1 X114.000 Y25.526
G1 X110.656 Y32.574
G1 X107.308 Y25.526
G1 X103.964 Y32.574
G1 X100.620 Y25.526
G1 X97.279 Y32.574
G1 X93.935 Y25.526
G1 X90.591 Y32.574
G1 X87.243 Y25.526
G1 X83.899 Y32.574
G1 X80.558 Y25.526
G1 X77.214 Y32.574
G1 X73.873 Y25.526
G1 X70.525 Y32.574
G1 X67.181 Y25.526
G1 X63.840 Y32.574
G1 X60.492 Y25.526
G1 X57.148 Y32.574
G1 X53.811 Y25.526
G1 X50.463 Y32.574
G1 X47.123 Y25.526
G1 X43.778 Y32.574
G1 Z8

G0 X43.782 Y29.487
G1 Z0

G1 X47.126 Y22.439
G1 X50.470 Y29.487
G1 X53.811 Y22.439
G1 X57.159 Y29.487
G1 X60.496 Y22.439
G1 X63.840 Y29.487
G1 X67.188 Y22.439
G1 X70.529 Y29.487
G1 X73.873 Y22.439
G1 X77.221 Y29.487
G1 X80.561 Y22.439
G1 X83.906 Y29.487
G1 X87.246 Y22.439
G1 X90.594 Y29.487
G1 X93.938 Y22.439
G1 X97.283 Y29.487
G1 X100.627 Y22.439
G1 X103.975 Y29.487
G1 X107.312 Y22.439
G1 X110.656 Y29.487
G1 X114.004 Y22.439
G1 X117.348 Y29.487
G1 X120.692 Y22.439
G1 X124.040 Y29.487
G1 X127.381 Y22.439
G1 X130.725 Y29.487
G1 X134.069 Y22.439
G1 X137.417 Y29.487
G1 X140.761 Y22.439
G1 X144.105 Y29.487
G1 X147.449 Y22.439
G1 X150.797 Y29.487
G1 X154.138 Y22.439
G1 X157.482 Y29.487
G1 X160.826 Y22.439
G1 X164.174 Y29.487
G1 X167.518 Y22.439
G1 X170.863 Y29.487
G1 X174.203 Y22.439
G1 X177.548 Y29.487
G1 X180.892 Y22.439
G1 X184.240 Y29.487
G1 X187.584 Y22.439
G1 X190.932 Y29.487
G1 X194.276 Y22.439
G1 X197.620 Y29.487
G1 X200.964 Y22.439
G1 Z8

G0 X200.971 Y19.356
G1 Z0

G1 X197.623 Y26.404
G1 X194.279 Y19.356
G1 X190.935 Y26.404
G1 X187.587 Y19.356
G1 X184.240 Y26.404
G1 X180.895 Y19.356
G1 X177.551 Y26.404
G1 X174.210 Y19.356
G1 X170.866 Y26.404
G1 X167.522 Y19.356
G1 X164.174 Y26.404
G1 X160.830 Y19.356
G1 X157.486 Y26.404
G1 X154.145 Y19.356
G1 X150.801 Y26.404
G1 X147.457 Y19.356
G1 X144.112 Y26.404
G1 X140.765 Y19.356
G1 X137.417 Y26.404
G1 X134.073 Y19.356
G1 X130.728 Y26.404
G1 X127.388 Y19.356
G1 X124.043 Y26.404
G1 X120.699 Y19.356
G1 X117.351 Y26.404
G1 X114.007 Y19.356
G1 X110.663 Y26.404
G1 X107.322 Y19.356
G1 X103.978 Y26.404
G1 X100.634 Y19.356
G1 X97.286 Y26.404
G1 X93.942 Y19.356
G1 X90.598 Y26.404
G1 X87.253 Y19.356
G1 X83.909 Y26.404
G1 X80.568 Y19.356
G1 X77.221 Y26.404
G1 X73.876 Y19.356
G1 X70.536 Y26.404
G1 X67.188 Y19.356
G1 X63.851 Y26.404
G1 X60.507 Y19.356
G1 X57.159 Y26.404
G1 X53.818 Y19.356
G1 X50.474 Y26.404
G1 X47.133 Y19.356
G1 X43.789 Y26.404
G1 Z8

G0 X43.789 Y23.317
G1 Z0

G1 X47.137 Y16.269
G1 X50.481 Y23.317
G1 X53.822 Y16.269
G1 X57.166 Y23.317
G1 X60.507 Y16.269
G1 X63.854 Y23.317
G1 X67.199 Y16.269
G1 X70.536 Y23.317
G1 X73.884 Y16.269
G1 X77.224 Y23.317
G1 X80.568 Y16.269
G1 X83.916 Y23.317
G1 X87.257 Y16.269
G1 X90.605 Y23.317
G1 X93.945 Y16.269
G1 X97.290 Y23.317
G1 X100.634 Y16.269
G1 X103.982 Y23.317
G1 X107.326 Y16.269
G1 X110.670 Y23.317
G1 X114.011 Y16.269
G1 X117.355 Y23.317
G1 X120.699 Y16.269
G1 X124.047 Y23.317
G1 X127.391 Y16.269
G1 X130.735 Y23.317
G1 X134.076 Y16.269
G1 X137.420 Y23.317
G1 X140.765 Y16.269
G1 X144.112 Y23.317
G1 X147.460 Y16.269
G1 X150.804 Y23.317
G1 X154.149 Y16.269
G1 X157.493 Y23.317
G1 X160.833 Y16.269
G1 X164.178 Y23.317
G1 X167.522 Y16.269
G1 X170.870 Y23.317
G1 X174.214 Y16.269
G1 X177.558 Y23.317
G1 X180.899 Y16.269
G1 X184.243 Y23.317
G1 X187.587 Y16.269
G1 X190.935 Y23.317
G1 X194.283 Y16.269
G1 X197.631 Y23.317
G1 X200.975 Y16.269
G1 Z8

G0 X200.978 Y13.182
G1 Z0

G1 X197.631 Y20.230
G1 X194.283 Y13.182
G1 X190.939 Y20.230
G1 X187.594 Y13.182
G1 X184.247 Y20.230
G1 X180.906 Y13.182
G1 X177.562 Y20.230
G1 X174.217 Y13.182
G1 X170.870 Y20.230
G1 X167.525 Y13.182
G1 X164.181 Y20.230
G1 X160.844 Y13.182
G1 X157.500 Y20.230
G1 X154.156 Y13.182
G1 X150.808 Y20.230
G1 X147.460 Y13.182
G1 X144.116 Y20.230
G1 X140.772 Y13.182
G1 X137.431 Y20.230
G1 X134.087 Y13.182
G1 X130.739 Y20.230
G1 X127.395 Y13.182
G1 X124.047 Y20.230
G1 X120.703 Y13.182
G1 X117.358 Y20.230
G1 X114.018 Y13.182
G1 X110.674 Y20.230
G1 X107.329 Y13.182
G1 X103.982 Y20.230
G1 X100.637 Y13.182
G1 X97.293 Y20.230
G1 X93.952 Y13.182
G1 X90.608 Y20.230
G1 X87.264 Y13.182
G1 X83.916 Y20.230
G1 X80.579 Y13.182
G1 X77.231 Y20.230
G1 X73.884 Y13.182
G1 X70.546 Y20.230
G1 X67.202 Y13.182
G1 X63.854 Y20.230
G1 X60.514 Y13.182
G1 X57.169 Y20.230
G1 X53.822 Y13.182
G1 X50.484 Y20.230
G1 X47.137 Y13.182
G1 X43.792 Y20.230
G1 Z8

G0 X44.525 Y6.328
G1 Z0

G1 X52.965 Y9.450
G1 X44.525 Y12.572
G1 X52.965 Y15.695
G1 X44.525 Y18.813
G1 X52.965 Y21.936
G1 X44.525 Y25.061
G1 X52.965 Y28.184
G1 X44.525 Y31.306
G1 X52.965 Y34.428
G1 X44.525 Y37.550
G1 X52.965 Y40.676
G1 X44.525 Y43.798
G1 X52.965 Y46.917
G1 X44.525 Y50.043
G1 X52.965 Y53.161
G1 X44.525 Y56.284
G1 X52.965 Y59.409
G1 X44.525 Y62.531
G1 X52.965 Y65.654
G1 X44.525 Y68.776
G1 X52.965 Y71.898
G1 X44.525 Y75.020
G1 X52.965 Y78.143
G1 X44.525 Y81.268
G1 X52.965 Y84.391
G1 X44.525 Y87.516
G1 X52.965 Y90.638
G1 X44.525 Y93.761
G1 X52.965 Y96.883
G1 X44.525 Y100.005
G1 X52.965 Y103.131
G1 X44.525 Y106.253
G1 X52.965 Y109.379
G1 X44.525 Y112.501
G1 X52.965 Y115.623
G1 X44.525 Y118.746
G1 X52.965 Y121.871
G1 X44.525 Y124.990
G1 X52.965 Y128.112
G1 X44.525 Y131.234
G1 X52.965 Y134.360
G1 X44.525 Y137.482
G1 X52.965 Y140.605
G1 X44.525 Y143.727
G1 X52.965 Y146.856
G1 X44.525 Y149.978
G1 X52.965 Y153.101
G1 Z8

G0 X49.272 Y153.097
G1 Z0

G1 X40.829 Y149.975
G1 X49.272 Y146.849
G1 X40.829 Y143.727
G1 X49.272 Y140.601
G1 X40.829 Y137.475
G1 X49.272 Y134.357
G1 X40.829 Y131.231
G1 X49.272 Y128.109
G1 X40.829 Y124.986
G1 X49.272 Y121.864
G1 X40.829 Y118.738
G1 X49.272 Y115.620
G1 X40.829 Y112.498
G1 X49.272 Y109.375
G1 X40.829 Y106.250
G1 X49.272 Y103.127
G1 X40.829 Y100.002
G1 X49.272 Y96.879
G1 X40.829 Y93.757
G1 X49.272 Y90.635
G1 X40.829 Y87.509
G1 X49.272 Y84.387
G1 X40.829 Y81.265
G1 X49.272 Y78.139
G1 X40.829 Y75.017
G1 X49.272 Y71.895
G1 X40.829 Y68.772
G1 X49.272 Y65.650
G1 X40.829 Y62.528
G1 X49.272 Y59.406
G1 X40.829 Y56.280
G1 X49.272 Y53.158
G1 X40.829 Y50.036
G1 X49.272 Y46.913
G1 X40.829 Y43.791
G1 X49.272 Y40.672
G1 X40.829 Y37.547
G1 X49.272 Y34.421
G1 X40.829 Y31.302
G1 X49.272 Y28.180
G1 X40.829 Y25.058
G1 X49.272 Y21.936
G1 X40.829 Y18.810
G1 X49.272 Y15.688
G1 X40.829 Y12.569
G1 X49.272 Y9.447
G1 X40.829 Y6.324
G1 Z8

G0 X48.222 Y6.335
G1 Z0

G1 X56.662 Y9.454
G1 X48.222 Y12.576
G1 X56.662 Y15.698
G1 X48.222 Y18.820
G1 X56.662 Y21.939
G1 X48.222 Y25.068
G1 X56.662 Y28.187
G1 X48.222 Y31.309
G1 X56.662 Y34.431
G1 X48.222 Y37.554
G1 X56.662 Y40.676
G1 X48.222 Y43.802
G1 X56.662 Y46.924
G1 X48.222 Y50.046
G1 X56.662 Y53.168
G1 X48.222 Y56.287
G1 X56.662 Y59.409
G1 X48.222 Y62.539
G1 X56.662 Y65.657
G1 X48.222 Y68.779
G1 X56.662 Y71.905
G1 X48.222 Y75.027
G1 X56.662 Y78.150
G1 X48.222 Y81.272
G1 X56.662 Y84.398
G1 X48.222 Y87.520
G1 X56.662 Y90.642
G1 X48.222 Y93.764
G1 X56.662 Y96.886
G1 X48.222 Y100.012
G1 X56.662 Y103.134
G1 X48.222 Y106.260
G1 X56.662 Y109.382
G1 X48.222 Y112.505
G1 X56.662 Y115.627
G1 X48.222 Y118.749
G1 X56.662 Y121.871
G1 X48.222 Y124.997
G1 X56.662 Y128.119
G1 X48.222 Y131.241
G1 X56.662 Y134.364
G1 X48.222 Y137.486
G1 X56.662 Y140.608
G1 X48.222 Y143.734
G1 X56.662 Y146.860
G1 X48.222 Y149.982
G1 X56.662 Y153.104
G1 Z8

G0 X60.362 Y153.111
G1 Z0

G1 X51.915 Y149.985
G1 X60.362 Y146.860
G1 X51.915 Y143.737
G1 X60.362 Y140.612
G1 X51.915 Y137.489
G1 X60.362 Y134.367
G1 X51.915 Y131.245
G1 X60.362 Y128.123
G1 X51.915 Y125.001
G1 X60.362 Y121.875
G1 X51.915 Y118.753
G1 X60.362 Y115.630
G1 X51.915 Y112.508
G1 X60.362 Y109.386
G1 X51.915 Y106.264
G1 X60.362 Y103.138
G1 X51.915 Y100.016
G1 X60.362 Y96.890
G1 X51.915 Y93.768
G1 X60.362 Y90.646
G1 X51.915 Y87.523
G1 X60.362 Y84.398
G1 X51.915 Y81.275
G1 X60.362 Y78.153
G1 X51.915 Y75.031
G1 X60.362 Y71.909
G1 X51.915 Y68.786
G1 X60.362 Y65.664
G1 X51.915 Y62.539
G1 X60.362 Y59.416
G1 X51.915 Y56.294
G1 X60.362 Y53.172
G1 X51.915 Y50.050
G1 X60.362 Y46.927
G1 X51.915 Y43.805
G1 X60.362 Y40.679
G1 X51.915 Y37.557
G1 X60.362 Y34.435
G1 X51.915 Y31.313
G1 X60.362 Y28.194
G1 X51.915 Y25.068
G1 X60.362 Y21.946
G1 X51.915 Y18.824
G1 X60.362 Y15.702
G1 X51.915 Y12.579
G1 X60.362 Y9.461
G1 X51.915 Y6.335
G1 Z8

G0 X55.612 Y6.339
G1 Z0

G1 X64.052 Y9.464
G1 X55.612 Y12.587
G1 X64.052 Y15.705
G1 X55.612 Y18.827
G1 X64.052 Y21.950
G1 X55.612 Y25.072
G1 X64.052 Y28.198
G1 X55.612 Y31.320
G1 X64.052 Y34.439
G1 X55.612 Y37.561
G1 X64.052 Y40.683
G1 X55.612 Y43.805
G1 X64.052 Y46.931
G1 X55.612 Y50.053
G1 X64.052 Y53.175
G1 X55.612 Y56.298
G1 X64.052 Y59.420
G1 X55.612 Y62.542
G1 X64.052 Y65.668
G1 X55.612 Y68.790
G1 X64.052 Y71.912
G1 X55.612 Y75.034
G1 X64.052 Y78.157
G1 X55.612 Y81.279
G1 X64.052 Y84.401
G1 X55.612 Y87.527
G1 X64.052 Y90.649
G1 X55.612 Y93.775
G1 X64.052 Y96.897
G1 X55.612 Y100.019
G1 X64.052 Y103.141
G1 X55.612 Y106.267
G1 X64.052 Y109.389
G1 X55.612 Y112.512
G1 X64.052 Y115.634
G1 X55.612 Y118.756
G1 X64.052 Y121.878
G1 X55.612 Y125.001
G1 X64.052 Y128.126
G1 X55.612 Y131.249
G1 X64.052 Y134.371
G1 X55.612 Y137.493
G1 X64.052 Y140.619
G1 X55.612 Y143.741
G1 X64.052 Y146.863
G1 X55.612 Y149.992
G1 X64.052 Y153.115
G1 Z8

G0 X67.752 Y153.118
G1 Z0

G1 X59.308 Y149.996
G1 X67.752 Y146.867
G1 X59.308 Y143.744
G1 X67.752 Y140.622
G1 X59.308 Y137.500
G1 X67.752 Y134.378
G1 X59.308 Y131.252
G1 X67.752 Y128.130
G1 X59.308 Y125.004
G1 X67.752 Y121.882
G1 X59.308 Y118.760
G1 X67.752 Y115.641
G1 X59.308 Y112.519
G1 X67.752 Y109.396
G1 X59.308 Y106.267
G1 X67.752 Y103.145
G1 X59.308 Y100.023
G1 X67.752 Y96.901
G1 X59.308 Y93.778
G1 X67.752 Y90.656
G1 X59.308 Y87.530
G1 X67.752 Y84.405
G1 X59.308 Y81.282
G1 X67.752 Y78.160
G1 X59.308 Y75.038
G1 X67.752 Y71.916
G1 X59.308 Y68.794
G1 X67.752 Y65.668
G1 X59.308 Y62.546
G1 X67.752 Y59.423
G1 X59.308 Y56.301
G1 X67.752 Y53.179
G1 X59.308 Y50.057
G1 X67.752 Y46.934
G1 X59.308 Y43.809
G1 X67.752 Y40.690
G1 X59.308 Y37.568
G1 X67.752 Y34.446
G1 X59.308 Y31.323
G1 X67.752 Y28.198
G1 X59.308 Y25.075
G1 X67.752 Y21.953
G1 X59.308 Y18.831
G1 X67.752 Y15.712
G1 X59.308 Y12.590
G1 X67.752 Y9.464
G1 X59.308 Y6.342
G1 Z8

G0 X63.002 Y6.349
G1 Z0

G1 X71.445 Y9.468
G1 X63.002 Y12.594
G1 X71.445 Y15.716
G1 X63.002 Y18.838
G1 X71.445 Y21.957
G1 X63.002 Y25.079
G1 X71.445 Y28.201
G1 X63.002 Y31.327
G1 X71.445 Y34.449
G1 X63.002 Y37.571
G1 X71.445 Y40.694
G1 X63.002 Y43.816
G1 X71.445 Y46.938
G1 X63.002 Y50.064
G1 X71.445 Y53.182
G1 X63.002 Y56.305
G1 X71.445 Y59.427
G1 X63.002 Y62.549
G1 X71.445 Y65.671
G1 X63.002 Y68.794
G1 X71.445 Y71.919
G1 X63.002 Y75.041
G1 X71.445 Y78.167
G1 X63.002 Y81.286
G1 X71.445 Y84.412
G1 X63.002 Y87.534
G1 X71.445 Y90.660
G1 X63.002 Y93.782
G1 X71.445 Y96.904
G1 X63.002 Y100.026
G1 X71.445 Y103.149
G1 X63.002 Y106.274
G1 X71.445 Y109.396
G1 X63.002 Y112.522
G1 X71.445 Y115.644
G1 X63.002 Y118.767
G1 X71.445 Y121.889
G1 X63.002 Y125.011
G1 X71.445 Y128.133
G1 X63.002 Y131.256
G1 X71.445 Y134.381
G1 X63.002 Y137.504
G1 X71.445 Y140.626
G1 X63.002 Y143.748
G1 X71.445 Y146.874
G1 X63.002 Y149.996
G1 X71.445 Y153.122
G1 Z8

G0 X75.142 Y153.125
G1 Z0

G1 X66.702 Y149.999
G1 X75.142 Y146.877
G1 X66.702 Y143.755
G1 X75.142 Y140.629
G1 X66.702 Y137.507
G1 X75.142 Y134.385
G1 X66.702 Y131.259
G1 X75.142 Y128.137
G1 X66.702 Y125.015
G1 X75.142 Y121.892
G1 X66.702 Y118.770
G1 X75.142 Y115.648
G1 X66.702 Y112.526
G1 X75.142 Y109.400
G1 X66.702 Y106.278
G1 X75.142 Y103.156
G1 X66.702 Y100.033
G1 X75.142 Y96.908
G1 X66.702 Y93.785
G1 X75.142 Y90.660
G1 X66.702 Y87.537
G1 X75.142 Y84.415
G1 X66.702 Y81.293
G1 X75.142 Y78.171
G1 X66.702 Y75.049
G1 X75.142 Y71.926
G1 X66.702 Y68.801
G1 X75.142 Y65.678
G1 X66.702 Y62.556
G1 X75.142 Y59.434
G1 X66.702 Y56.312
G1 X75.142 Y53.189
G1 X66.702 Y50.067
G1 X75.142 Y46.942
G1 X66.702 Y43.819
G1 X75.142 Y40.697
G1 X66.702 Y37.575
G1 X75.142 Y34.453
G1 X66.702 Y31.327
G1 X75.142 Y28.205
G1 X66.702 Y25.086
G1 X75.142 Y21.964
G1 X66.702 Y18.842
G1 X75.142 Y15.719
G1 X66.702 Y12.594
G1 X75.142 Y9.475
G1 X66.702 Y6.353
G1 Z8

G0 X70.398 Y6.356
G1 Z0

G1 X78.838 Y9.478
G1 X70.398 Y12.601
G1 X78.838 Y15.723
G1 X70.398 Y18.845
G1 X78.838 Y21.967
G1 X70.398 Y25.089
G1 X78.838 Y28.212
G1 X70.398 Y31.334
G1 X78.838 Y34.456
G1 X70.398 Y37.578
G1 X78.838 Y40.701
G1 X70.398 Y43.823
G1 X78.838 Y46.945
G1 X70.398 Y50.067
G1 X78.838 Y53.193
G1 X70.398 Y56.315
G1 X78.838 Y59.437
G1 X70.398 Y62.560
G1 X78.838 Y65.682
G1 X70.398 Y68.804
G1 X78.838 Y71.926
G1 X70.398 Y75.052
G1 X78.838 Y78.174
G1 X70.398 Y81.296
G1 X78.838 Y84.419
G1 X70.398 Y87.541
G1 X78.838 Y90.663
G1 X70.398 Y93.789
G1 X78.838 Y96.915
G1 X70.398 Y100.037
G1 X78.838 Y103.159
G1 X70.398 Y106.281
G1 X78.838 Y109.404
G1 X70.398 Y112.529
G1 X78.838 Y115.652
G1 X70.398 Y118.774
G1 X78.838 Y121.896
G1 X70.398 Y125.018
G1 X78.838 Y128.140
G1 X70.398 Y131.263
G1 X78.838 Y134.388
G1 X70.398 Y137.511
G1 X78.838 Y140.636
G1 X70.398 Y143.759
G1 X78.838 Y146.881
G1 X70.398 Y150.006
G1 X78.838 Y153.129
G1 Z8

G0 X82.531 Y153.132
G1 Z0

G1 X74.091 Y150.010
G1 X82.531 Y146.884
G1 X74.091 Y143.762
G1 X82.531 Y140.640
G1 X74.091 Y137.514
G1 X82.531 Y134.388
G1 X74.091 Y131.266
G1 X82.531 Y128.144
G1 X74.091 Y125.022
G1 X82.531 Y121.899
G1 X74.091 Y118.777
G1 X82.531 Y115.659
G1 X74.091 Y112.533
G1 X82.531 Y109.407
G1 X74.091 Y106.285
G1 X82.531 Y103.163
G1 X74.091 Y100.040
G1 X82.531 Y96.918
G1 X74.091 Y93.796
G1 X82.531 Y90.667
G1 X74.091 Y87.544
G1 X82.531 Y84.422
G1 X74.091 Y81.300
G1 X82.531 Y78.178
G1 X74.091 Y75.056
G1 X82.531 Y71.930
G1 X74.091 Y68.808
G1 X82.531 Y65.685
G1 X74.091 Y62.563
G1 X82.531 Y59.441
G1 X74.091 Y56.319
G1 X82.531 Y53.197
G1 X74.091 Y50.071
G1 X82.531 Y46.949
G1 X74.091 Y43.826
G1 X82.531 Y40.704
G1 X74.091 Y37.582
G1 X82.531 Y34.460
G1 X74.091 Y31.337
G1 X82.531 Y28.215
G1 X74.091 Y25.093
G1 X82.531 Y21.971
G1 X74.091 Y18.849
G1 X82.531 Y15.726
G1 X74.091 Y12.604
G1 X82.531 Y9.482
G1 X74.091 Y6.360
G1 Z8

G0 X77.788 Y6.363
G1 Z0

G1 X86.231 Y9.485
G1 X77.788 Y12.608
G1 X86.231 Y15.730
G1 X77.788 Y18.852
G1 X86.231 Y21.974
G1 X77.788 Y25.097
G1 X86.231 Y28.219
G1 X77.788 Y31.341
G1 X86.231 Y34.463
G1 X77.788 Y37.589
G1 X86.231 Y40.711
G1 X77.788 Y43.830
G1 X86.231 Y46.952
G1 X77.788 Y50.074
G1 X86.231 Y53.197
G1 X77.788 Y56.322
G1 X86.231 Y59.444
G1 X77.788 Y62.567
G1 X86.231 Y65.689
G1 X77.788 Y68.811
G1 X86.231 Y71.933
G1 X77.788 Y75.056
G1 X86.231 Y78.181
G1 X77.788 Y81.304
G1 X86.231 Y84.426
G1 X77.788 Y87.552
G1 X86.231 Y90.674
G1 X77.788 Y93.796
G1 X86.231 Y96.918
G1 X77.788 Y100.044
G1 X86.231 Y103.166
G1 X77.788 Y106.292
G1 X86.231 Y109.414
G1 X77.788 Y112.536
G1 X86.231 Y115.659
G1 X77.788 Y118.781
G1 X86.231 Y121.907
G1 X77.788 Y125.025
G1 X86.231 Y128.151
G1 X77.788 Y131.270
G1 X86.231 Y134.395
G1 X77.788 Y137.518
G1 X86.231 Y140.643
G1 X77.788 Y143.766
G1 X86.231 Y146.891
G1 X77.788 Y150.014
G1 X86.231 Y153.136
G1 Z8

G0 X89.925 Y153.143
G1 Z0

G1 X81.481 Y150.017
G1 X89.925 Y146.895
G1 X81.481 Y143.773
G1 X89.925 Y140.647
G1 X81.481 Y137.521
G1 X89.925 Y134.399
G1 X81.481 Y131.277
G1 X89.925 Y128.154
G1 X81.481 Y125.032
G1 X89.925 Y121.910
G1 X81.481 Y118.788
G1 X89.925 Y115.662
G1 X81.481 Y112.540
G1 X89.925 Y109.418
G1 X81.481 Y106.295
G1 X89.925 Y103.170
G1 X81.481 Y100.047
G1 X89.925 Y96.925
G1 X81.481 Y93.799
G1 X89.925 Y90.677
G1 X81.481 Y87.555
G1 X89.925 Y84.433
G1 X81.481 Y81.311
G1 X89.925 Y78.185
G1 X81.481 Y75.059
G1 X89.925 Y71.937
G1 X81.481 Y68.815
G1 X89.925 Y65.692
G1 X81.481 Y62.570
G1 X89.925 Y59.452
G1 X81.481 Y56.329
G1 X89.925 Y53.204
G1 X81.481 Y50.081
G1 X89.925 Y46.959
G1 X81.481 Y43.837
G1 X89.925 Y40.715
G1 X81.481 Y37.592
G1 X89.925 Y34.467
G1 X81.481 Y31.345
G1 X89.925 Y28.222
G1 X81.481 Y25.104
G1 X89.925 Y21.978
G1 X81.481 Y18.856
G1 X89.925 Y15.733
G1 X81.481 Y12.611
G1 X89.925 Y9.489
G1 X81.481 Y6.370
G1 Z8

G0 X85.178 Y6.374
G1 Z0

G1 X93.621 Y9.496
G1 X85.178 Y12.615
G1 X93.621 Y15.737
G1 X85.178 Y18.859
G1 X93.621 Y21.985
G1 X85.178 Y25.107
G1 X93.621 Y28.229
G1 X85.178 Y31.348
G1 X93.621 Y34.470
G1 X85.178 Y37.596
G1 X93.621 Y40.718
G1 X85.178 Y43.840
G1 X93.621 Y46.963
G1 X85.178 Y50.085
G1 X93.621 Y53.207
G1 X85.178 Y56.329
G1 X93.621 Y59.455
G1 X85.178 Y62.577
G1 X93.621 Y65.700
G1 X85.178 Y68.822
G1 X93.621 Y71.944
G1 X85.178 Y75.066
G1 X93.621 Y78.188
G1 X85.178 Y81.314
G1 X93.621 Y84.436
G1 X85.178 Y87.559
G1 X93.621 Y90.681
G1 X85.178 Y93.803
G1 X93.621 Y96.925
G1 X85.178 Y100.054
G1 X93.621 Y103.177
G1 X85.178 Y106.299
G1 X93.621 Y109.421
G1 X85.178 Y112.543
G1 X93.621 Y115.666
G1 X85.178 Y118.788
G1 X93.621 Y121.914
G1 X85.178 Y125.036
G1 X93.621 Y128.158
G1 X85.178 Y131.280
G1 X93.621 Y134.402
G1 X85.178 Y137.525
G1 X93.621 Y140.647
G1 X85.178 Y143.776
G1 X93.621 Y146.898
G1 X85.178 Y150.021
G1 X93.621 Y153.146
G1 Z8

G0 X97.318 Y153.150
G1 Z0

G1 X88.874 Y150.028
G1 X97.318 Y146.902
G1 X88.874 Y143.780
G1 X97.318 Y140.654
G1 X88.874 Y137.528
G1 X97.318 Y134.406
G1 X88.874 Y131.284
G1 X97.318 Y128.162
G1 X88.874 Y125.039
G1 X97.318 Y121.917
G1 X88.874 Y118.791
G1 X97.318 Y115.669
G1 X88.874 Y112.547
G1 X97.318 Y109.425
G1 X88.874 Y106.302
G1 X97.318 Y103.180
G1 X88.874 Y100.054
G1 X97.318 Y96.932
G1 X88.874 Y93.810
G1 X97.318 Y90.684
G1 X88.874 Y87.562
G1 X97.318 Y84.440
G1 X88.874 Y81.318
G1 X97.318 Y78.192
G1 X88.874 Y75.070
G1 X97.318 Y71.947
G1 X88.874 Y68.825
G1 X97.318 Y65.703
G1 X88.874 Y62.581
G1 X97.318 Y59.455
G1 X88.874 Y56.333
G1 X97.318 Y53.211
G1 X88.874 Y50.088
G1 X97.318 Y46.966
G1 X88.874 Y43.844
G1 X97.318 Y40.722
G1 X88.874 Y37.596
G1 X97.318 Y34.474
G1 X88.874 Y31.352
G1 X97.318 Y28.233
G1 X88.874 Y25.111
G1 X97.318 Y21.985
G1 X88.874 Y18.863
G1 X97.318 Y15.740
G1 X88.874 Y12.622
G1 X97.318 Y9.500
G1 X88.874 Y6.377
G1 Z8

G0 X92.571 Y6.381
G1 Z0

G1 X101.011 Y9.503
G1 X92.571 Y12.625
G1 X101.011 Y15.748
G1 X92.571 Y18.866
G1 X101.011 Y21.988
G1 X92.571 Y25.114
G1 X101.011 Y28.236
G1 X92.571 Y31.359
G1 X101.011 Y34.481
G1 X92.571 Y37.603
G1 X101.011 Y40.725
G1 X92.571 Y43.847
G1 X101.011 Y46.970
G1 X92.571 Y50.092
G1 X101.011 Y53.214
G1 X92.571 Y56.336
G1 X101.011 Y59.459
G1 X92.571 Y62.584
G1 X101.011 Y65.707
G1 X92.571 Y68.829
G1 X101.011 Y71.951
G1 X92.571 Y75.073
G1 X101.011 Y78.195
G1 X92.571 Y81.318
G1 X101.011 Y84.443
G1 X92.571 Y87.566
G1 X101.011 Y90.688
G1 X92.571 Y93.814
G1 X101.011 Y96.936
G1 X92.571 Y100.058
G1 X101.011 Y103.184
G1 X92.571 Y106.306
G1 X101.011 Y109.432
G1 X92.571 Y112.554
G1 X101.011 Y115.676
G1 X92.571 Y118.795
G1 X101.011 Y121.921
G1 X92.571 Y125.043
G1 X101.011 Y128.165
G1 X92.571 Y131.287
G1 X101.011 Y134.409
G1 X92.571 Y137.532
G1 X101.011 Y140.657
G1 X92.571 Y143.783
G1 X101.011 Y146.909
G1 X92.571 Y150.031
G1 X101.011 Y153.153
G1 Z8

G0 X104.707 Y153.157
G1 Z0

G1 X96.268 Y150.035
G1 X104.707 Y146.912
G1 X96.268 Y143.783
G1 X104.707 Y140.661
G1 X96.268 Y137.539
G1 X104.707 Y134.417
G1 X96.268 Y131.294
G1 X104.707 Y128.172
G1 X96.268 Y125.046
G1 X104.707 Y121.924
G1 X96.268 Y118.802
G1 X104.707 Y115.680
G1 X96.268 Y112.557
G1 X104.707 Y109.435
G1 X96.268 Y106.313
G1 X104.707 Y103.187
G1 X96.268 Y100.062
G1 X104.707 Y96.939
G1 X96.268 Y93.817
G1 X104.707 Y90.695
G1 X96.268 Y87.573
G1 X104.707 Y84.447
G1 X96.268 Y81.325
G1 X104.707 Y78.199
G1 X96.268 Y75.077
G1 X104.707 Y71.955
G1 X96.268 Y68.832
G1 X104.707 Y65.710
G1 X96.268 Y62.584
G1 X104.707 Y59.462
G1 X96.268 Y56.340
G1 X104.707 Y53.221
G1 X96.268 Y50.099
G1 X104.707 Y46.973
G1 X96.268 Y43.855
G1 X104.707 Y40.729
G1 X96.268 Y37.607
G1 X104.707 Y34.484
G1 X96.268 Y31.362
G1 X104.707 Y28.240
G1 X96.268 Y25.118
G1 X104.707 Y21.992
G1 X96.268 Y18.870
G1 X104.707 Y15.751
G1 X96.268 Y12.629
G1 X104.707 Y9.507
G1 X96.268 Y6.384
G1 Z8

G0 X99.961 Y6.388
G1 Z0

G1 X108.401 Y9.514
G1 X99.961 Y12.632
G1 X108.401 Y15.755
G1 X99.961 Y18.877
G1 X108.401 Y21.999
G1 X99.961 Y25.121
G1 X108.401 Y28.243
G1 X99.961 Y31.366
G1 X108.401 Y34.488
G1 X99.961 Y37.610
G1 X108.401 Y40.732
G1 X99.961 Y43.855
G1 X108.401 Y46.980
G1 X99.961 Y50.103
G1 X108.401 Y53.225
G1 X99.961 Y56.347
G1 X108.401 Y59.469
G1 X99.961 Y62.591
G1 X108.401 Y65.714
G1 X99.961 Y68.839
G1 X108.401 Y71.962
G1 X99.961 Y75.084
G1 X108.401 Y78.206
G1 X99.961 Y81.328
G1 X108.401 Y84.450
G1 X99.961 Y87.576
G1 X108.401 Y90.698
G1 X99.961 Y93.821
G1 X108.401 Y96.943
G1 X99.961 Y100.065
G1 X108.401 Y103.191
G1 X99.961 Y106.317
G1 X108.401 Y109.439
G1 X99.961 Y112.561
G1 X108.401 Y115.683
G1 X99.961 Y118.805
G1 X108.401 Y121.928
G1 X99.961 Y125.050
G1 X108.401 Y128.176
G1 X99.961 Y131.298
G1 X108.401 Y134.420
G1 X99.961 Y137.542
G1 X108.401 Y140.665
G1 X99.961 Y143.790
G1 X108.401 Y146.912
G1 X99.961 Y150.038
G1 X108.401 Y153.164
G1 Z8

G0 X112.101 Y153.167
G1 Z0

G1 X103.657 Y150.042
G1 X112.101 Y146.916
G1 X103.657 Y143.794
G1 X112.101 Y140.672
G1 X103.657 Y137.546
G1 X112.101 Y134.424
G1 X103.657 Y131.301
G1 X112.101 Y128.176
G1 X103.657 Y125.053
G1 X112.101 Y121.931
G1 X103.657 Y118.809
G1 X112.101 Y115.687
G1 X103.657 Y112.565
G1 X112.101 Y109.442
G1 X103.657 Y106.317
G1 X112.101 Y103.194
G1 X103.657 Y100.072
G1 X112.101 Y96.950
G1 X103.657 Y93.824
G1 X112.101 Y90.702
G1 X103.657 Y87.580
G1 X112.101 Y84.454
G1 X103.657 Y81.332
G1 X112.101 Y78.210
G1 X103.657 Y75.087
G1 X112.101 Y71.965
G1 X103.657 Y68.843
G1 X112.101 Y65.717
G1 X103.657 Y62.595
G1 X112.101 Y59.473
G1 X103.657 Y56.350
G1 X112.101 Y53.228
G1 X103.657 Y50.106
G1 X112.101 Y46.984
G1 X103.657 Y43.858
G1 X112.101 Y40.736
G1 X103.657 Y37.614
G1 X112.101 Y34.491
G1 X103.657 Y31.369
G1 X112.101 Y28.250
G1 X103.657 Y25.125
G1 X112.101 Y22.003
G1 X103.657 Y18.880
G1 X112.101 Y15.758
G1 X103.657 Y12.639
G1 X112.101 Y9.514
G1 X103.657 Y6.391
G1 Z8

G0 X107.354 Y6.395
G1 Z0

G1 X115.797 Y9.517
G1 X107.354 Y12.643
G1 X115.797 Y15.762
G1 X107.354 Y18.884
G1 X115.797 Y22.006
G1 X107.354 Y25.128
G1 X115.797 Y28.254
G1 X107.354 Y31.376
G1 X115.797 Y34.495
G1 X107.354 Y37.621
G1 X115.797 Y40.739
G1 X107.354 Y43.862
G1 X115.797 Y46.987
G1 X107.354 Y50.110
G1 X115.797 Y53.232
G1 X107.354 Y56.354
G1 X115.797 Y59.476
G1 X107.354 Y62.598
G1 X115.797 Y65.721
G1 X107.354 Y68.843
G1 X115.797 Y71.969
G1 X107.354 Y75.091
G1 X115.797 Y78.213
G1 X107.354 Y81.335
G1 X115.797 Y84.457
G1 X107.354 Y87.580
G1 X115.797 Y90.705
G1 X107.354 Y93.831
G1 X115.797 Y96.953
G1 X107.354 Y100.076
G1 X115.797 Y103.198
G1 X107.354 Y106.320
G1 X115.797 Y109.446
G1 X107.354 Y112.568
G1 X115.797 Y115.694
G1 X107.354 Y118.812
G1 X115.797 Y121.935
G1 X107.354 Y125.057
G1 X115.797 Y128.179
G1 X107.354 Y131.305
G1 X115.797 Y134.427
G1 X107.354 Y137.549
G1 X115.797 Y140.675
G1 X107.354 Y143.797
G1 X115.797 Y146.920
G1 X107.354 Y150.045
G1 X115.797 Y153.171
G1 Z8

G0 X119.490 Y153.171
G1 Z0

G1 X111.047 Y150.049
G1 X119.490 Y146.927
G1 X111.047 Y143.801
G1 X119.490 Y140.679
G1 X111.047 Y137.556
G1 X119.490 Y134.434
G1 X111.047 Y131.305
G1 X119.490 Y128.183
G1 X111.047 Y125.060
G1 X119.490 Y121.942
G1 X111.047 Y118.816
G1 X119.490 Y115.697
G1 X111.047 Y112.575
G1 X119.490 Y109.449
G1 X111.047 Y106.324
G1 X119.490 Y103.201
G1 X111.047 Y100.079
G1 X119.490 Y96.957
G1 X111.047 Y93.835
G1 X119.490 Y90.712
G1 X111.047 Y87.587
G1 X119.490 Y84.461
G1 X111.047 Y81.339
G1 X119.490 Y78.217
G1 X111.047 Y75.094
G1 X119.490 Y71.972
G1 X111.047 Y68.846
G1 X119.490 Y65.724
G1 X111.047 Y62.602
G1 X119.490 Y59.480
G1 X111.047 Y56.358
G1 X119.490 Y53.235
G1 X111.047 Y50.117
G1 X119.490 Y46.987
G1 X111.047 Y43.865
G1 X119.490 Y40.746
G1 X111.047 Y37.624
G1 X119.490 Y34.502
G1 X111.047 Y31.380
G1 X119.490 Y28.254
G1 X111.047 Y25.132
G1 X119.490 Y22.010
G1 X111.047 Y18.887
G1 X119.490 Y15.769
G1 X111.047 Y12.643
G1 X119.490 Y9.521
G1 X111.047 Y6.398
G1 Z8

G0 X114.747 Y6.406
G1 Z0

G1 X123.187 Y9.528
G1 X114.747 Y12.646
G1 X123.187 Y15.772
G1 X114.747 Y18.894
G1 X123.187 Y22.013
G1 X114.747 Y25.139
G1 X123.187 Y28.258
G1 X114.747 Y31.383
G1 X123.187 Y34.505
G1 X114.747 Y37.628
G1 X123.187 Y40.750
G1 X114.747 Y43.872
G1 X123.187 Y46.994
G1 X114.747 Y50.117
G1 X123.187 Y53.242
G1 X114.747 Y56.361
G1 X123.187 Y59.483
G1 X114.747 Y62.609
G1 X123.187 Y65.728
G1 X114.747 Y68.850
G1 X123.187 Y71.976
G1 X114.747 Y75.101
G1 X123.187 Y78.224
G1 X114.747 Y81.346
G1 X123.187 Y84.468
G1 X114.747 Y87.590
G1 X123.187 Y90.712
G1 X114.747 Y93.838
G1 X123.187 Y96.960
G1 X114.747 Y100.083
G1 X123.187 Y103.208
G1 X114.747 Y106.331
G1 X123.187 Y109.453
G1 X114.747 Y112.579
G1 X123.187 Y115.701
G1 X114.747 Y118.823
G1 X123.187 Y121.945
G1 X114.747 Y125.067
G1 X123.187 Y128.190
G1 X114.747 Y131.312
G1 X123.187 Y134.438
G1 X114.747 Y137.560
G1 X123.187 Y140.682
G1 X114.747 Y143.804
G1 X123.187 Y146.930
G1 X114.747 Y150.052
G1 X123.187 Y153.178
G1 Z8

G0 X126.880 Y153.182
G1 Z0

G1 X118.440 Y150.056
G1 X126.880 Y146.934
G1 X118.440 Y143.811
G1 X126.880 Y140.686
G1 X118.440 Y137.563
G1 X126.880 Y134.438
G1 X118.440 Y131.315
G1 X126.880 Y128.193
G1 X118.440 Y125.071
G1 X126.880 Y121.949
G1 X118.440 Y118.827
G1 X126.880 Y115.704
G1 X118.440 Y112.579
G1 X126.880 Y109.456
G1 X118.440 Y106.334
G1 X126.880 Y103.212
G1 X118.440 Y100.090
G1 X126.880 Y96.964
G1 X118.440 Y93.842
G1 X126.880 Y90.716
G1 X118.440 Y87.594
G1 X126.880 Y84.472
G1 X118.440 Y81.349
G1 X126.880 Y78.227
G1 X118.440 Y75.105
G1 X126.880 Y71.979
G1 X118.440 Y68.857
G1 X126.880 Y65.735
G1 X118.440 Y62.613
G1 X126.880 Y59.490
G1 X118.440 Y56.368
G1 X126.880 Y53.246
G1 X118.440 Y50.120
G1 X126.880 Y46.998
G1 X118.440 Y43.876
G1 X126.880 Y40.753
G1 X118.440 Y37.631
G1 X126.880 Y34.509
G1 X118.440 Y31.383
G1 X126.880 Y28.265
G1 X118.440 Y25.142
G1 X126.880 Y22.020
G1 X118.440 Y18.898
G1 X126.880 Y15.776
G1 X118.440 Y12.650
G1 X126.880 Y9.531
G1 X118.440 Y6.409
G1 Z8

G0 X122.137 Y6.413
G1 Z0

G1 X130.577 Y9.535
G1 X122.137 Y12.657
G1 X130.577 Y15.776
G1 X122.137 Y18.901
G1 X130.577 Y22.024
G1 X122.137 Y25.146
G1 X130.577 Y28.268
G1 X122.137 Y31.387
G1 X130.577 Y34.513
G1 X122.137 Y37.635
G1 X130.577 Y40.757
G1 X122.137 Y43.879
G1 X130.577 Y47.001
G1 X122.137 Y50.124
G1 X130.577 Y53.246
G1 X122.137 Y56.372
G1 X130.577 Y59.494
G1 X122.137 Y62.616
G1 X130.577 Y65.738
G1 X122.137 Y68.860
G1 X130.577 Y71.983
G1 X122.137 Y75.105
G1 X130.577 Y78.231
G1 X122.137 Y81.353
G1 X130.577 Y84.475
G1 X122.137 Y87.597
G1 X130.577 Y90.720
G1 X122.137 Y93.845
G1 X130.577 Y96.971
G1 X122.137 Y100.093
G1 X130.577 Y103.215
G1 X122.137 Y106.338
G1 X130.577 Y109.460
G1 X122.137 Y112.582
G1 X130.577 Y115.708
G1 X122.137 Y118.830
G1 X130.577 Y121.952
G1 X122.137 Y125.075
G1 X130.577 Y128.197
G1 X122.137 Y131.319
G1 X130.577 Y134.441
G1 X122.137 Y137.567
G1 X130.577 Y140.693
G1 X122.137 Y143.815
G1 X130.577 Y146.937
G1 X122.137 Y150.059
G1 X130.577 Y153.185
G1 Z8

G0 X134.277 Y153.189
G1 Z0

G1 X125.834 Y150.066
G1 X134.277 Y146.944
G1 X125.834 Y143.818
G1 X134.277 Y140.696
G1 X125.834 Y137.570
G1 X134.277 Y134.445
G1 X125.834 Y131.323
G1 X134.277 Y128.200
G1 X125.834 Y125.078
G1 X134.277 Y121.956
G1 X125.834 Y118.834
G1 X134.277 Y115.711
G1 X125.834 Y112.589
G1 X134.277 Y109.463
G1 X125.834 Y106.341
G1 X134.277 Y103.219
G1 X125.834 Y100.097
G1 X134.277 Y96.975
G1 X125.834 Y93.849
G1 X134.277 Y90.723
G1 X125.834 Y87.604
G1 X134.277 Y84.479
G1 X125.834 Y81.356
G1 X134.277 Y78.234
G1 X125.834 Y75.108
G1 X134.277 Y71.986
G1 X125.834 Y68.864
G1 X134.277 Y65.742
G1 X125.834 Y62.620
G1 X134.277 Y59.497
G1 X125.834 Y56.372
G1 X134.277 Y53.249
G1 X125.834 Y50.127
G1 X134.277 Y47.005
G1 X125.834 Y43.883
G1 X134.277 Y40.764
G1 X125.834 Y37.642
G1 X134.277 Y34.516
G1 X125.834 Y31.394
G1 X134.277 Y28.272
G1 X125.834 Y25.149
G1 X134.277 Y22.027
G1 X125.834 Y18.905
G1 X134.277 Y15.783
G1 X125.834 Y12.661
G1 X134.277 Y9.538
G1 X125.834 Y6.416
G1 Z8

G0 X129.527 Y6.420
G1 Z0

G1 X137.970 Y9.542
G1 X129.527 Y12.664
G1 X137.970 Y15.786
G1 X129.527 Y18.905
G1 X137.970 Y22.031
G1 X129.527 Y25.153
G1 X137.970 Y28.275
G1 X129.527 Y31.397
G1 X137.970 Y34.520
G1 X129.527 Y37.645
G1 X137.970 Y40.768
G1 X129.527 Y43.890
G1 X137.970 Y47.008
G1 X129.527 Y50.134
G1 X137.970 Y53.253
G1 X129.527 Y56.375
G1 X137.970 Y59.501
G1 X129.527 Y62.623
G1 X137.970 Y65.745
G1 X129.527 Y68.868
G1 X137.970 Y71.990
G1 X129.527 Y75.112
G1 X137.970 Y78.238
G1 X129.527 Y81.363
G1 X137.970 Y84.482
G1 X129.527 Y87.608
G1 X137.970 Y90.730
G1 X129.527 Y93.852
G1 X137.970 Y96.975
G1 X129.527 Y100.100
G1 X137.970 Y103.223
G1 X129.527 Y106.348
G1 X137.970 Y109.470
G1 X129.527 Y112.593
G1 X137.970 Y115.715
G1 X129.527 Y118.837
G1 X137.970 Y121.963
G1 X129.527 Y125.085
G1 X137.970 Y128.207
G1 X129.527 Y131.326
G1 X137.970 Y134.452
G1 X129.527 Y137.574
G1 X137.970 Y140.700
G1 X129.527 Y143.822
G1 X137.970 Y146.948
G1 X129.527 Y150.070
G1 X137.970 Y153.192
G1 Z8

G0 X141.667 Y153.199
G1 Z0

G1 X133.223 Y150.073
G1 X141.667 Y146.951
G1 X133.223 Y143.829
G1 X141.667 Y140.703
G1 X133.223 Y137.578
G1 X141.667 Y134.455
G1 X133.223 Y131.333
G1 X141.667 Y128.211
G1 X133.223 Y125.089
G1 X141.667 Y121.963
G1 X133.223 Y118.841
G1 X141.667 Y115.718
G1 X133.223 Y112.596
G1 X141.667 Y109.474
G1 X133.223 Y106.352
G1 X141.667 Y103.230
G1 X133.223 Y100.104
G1 X141.667 Y96.978
G1 X133.223 Y93.856
G1 X141.667 Y90.734
G1 X133.223 Y87.611
G1 X141.667 Y84.489
G1 X133.223 Y81.367
G1 X141.667 Y78.241
G1 X133.223 Y75.119
G1 X141.667 Y71.997
G1 X133.223 Y68.871
G1 X141.667 Y65.749
G1 X133.223 Y62.630
G1 X141.667 Y59.504
G1 X133.223 Y56.379
G1 X141.667 Y53.260
G1 X133.223 Y50.138
G1 X141.667 Y47.016
G1 X133.223 Y43.893
G1 X141.667 Y40.771
G1 X133.223 Y37.645
G1 X141.667 Y34.523
G1 X133.223 Y31.401
G1 X141.667 Y28.279
G1 X133.223 Y25.160
G1 X141.667 Y22.034
G1 X133.223 Y18.912
G1 X141.667 Y15.790
G1 X133.223 Y12.668
G1 X141.667 Y9.549
G1 X133.223 Y6.427
G1 Z8

G0 X136.916 Y6.430
G1 Z0

G1 X145.360 Y9.552
G1 X136.916 Y12.675
G1 X145.360 Y15.793
G1 X136.916 Y18.916
G1 X145.360 Y22.041
G1 X136.916 Y25.163
G1 X145.360 Y28.286
G1 X136.916 Y31.404
G1 X145.360 Y34.527
G1 X136.916 Y37.649
G1 X145.360 Y40.775
G1 X136.916 Y43.897
G1 X145.360 Y47.019
G1 X136.916 Y50.141
G1 X145.360 Y53.263
G1 X136.916 Y56.386
G1 X145.360 Y59.508
G1 X136.916 Y62.634
G1 X145.360 Y65.756
G1 X136.916 Y68.878
G1 X145.360 Y72.000
G1 X136.916 Y75.123
G1 X145.360 Y78.245
G1 X136.916 Y81.367
G1 X145.360 Y84.493
G1 X136.916 Y87.615
G1 X145.360 Y90.737
G1 X136.916 Y93.859
G1 X145.360 Y96.982
G1 X136.916 Y100.107
G1 X145.360 Y103.233
G1 X136.916 Y106.355
G1 X145.360 Y109.478
G1 X136.916 Y112.600
G1 X145.360 Y115.722
G1 X136.916 Y118.844
G1 X145.360 Y121.966
G1 X136.916 Y125.092
G1 X145.360 Y128.214
G1 X136.916 Y131.337
G1 X145.360 Y134.459
G1 X136.916 Y137.581
G1 X145.360 Y140.703
G1 X136.916 Y143.833
G1 X145.360 Y146.955
G1 X136.916 Y150.077
G1 X145.360 Y153.203
G1 Z8

G0 X149.056 Y153.206
G1 Z0

G1 X140.617 Y150.084
G1 X149.056 Y146.958
G1 X140.617 Y143.833
G1 X149.056 Y140.710
G1 X140.617 Y137.585
G1 X149.056 Y134.462
G1 X140.617 Y131.340
G1 X149.056 Y128.218
G1 X140.617 Y125.096
G1 X149.056 Y121.970
G1 X140.617 Y118.848
G1 X149.056 Y115.729
G1 X140.617 Y112.607
G1 X149.056 Y109.481
G1 X140.617 Y106.359
G1 X149.056 Y103.237
G1 X140.617 Y100.111
G1 X149.056 Y96.989
G1 X140.617 Y93.866
G1 X149.056 Y90.741
G1 X140.617 Y87.618
G1 X149.056 Y84.496
G1 X140.617 Y81.371
G1 X149.056 Y78.248
G1 X140.617 Y75.126
G1 X149.056 Y72.004
G1 X140.617 Y68.882
G1 X149.056 Y65.759
G1 X140.617 Y62.634
G1 X149.056 Y59.511
G1 X140.617 Y56.389
G1 X149.056 Y53.267
G1 X140.617 Y50.145
G1 X149.056 Y47.023
G1 X140.617 Y43.900
G1 X149.056 Y40.775
G1 X140.617 Y37.656
G1 X149.056 Y34.530
G1 X140.617 Y31.411
G1 X149.056 Y28.289
G1 X140.617 Y25.167
G1 X149.056 Y22.041
G1 X140.617 Y18.919
G1 X149.056 Y15.797
G1 X140.617 Y12.678
G1 X149.056 Y9.556
G1 X140.617 Y6.434
G1 Z8

G0 X144.313 Y6.434
G1 Z0

G1 X152.753 Y9.559
G1 X144.313 Y12.682
G1 X152.753 Y15.804
G1 X144.313 Y18.923
G1 X152.753 Y22.045
G1 X144.313 Y25.171
G1 X152.753 Y28.293
G1 X144.313 Y31.415
G1 X152.753 Y34.537
G1 X144.313 Y37.659
G1 X152.753 Y40.782
G1 X144.313 Y43.904
G1 X152.753 Y47.026
G1 X144.313 Y50.148
G1 X152.753 Y53.271
G1 X144.313 Y56.393
G1 X152.753 Y59.515
G1 X144.313 Y62.637
G1 X152.753 Y65.763
G1 X144.313 Y68.885
G1 X152.753 Y72.007
G1 X144.313 Y75.130
G1 X152.753 Y78.252
G1 X144.313 Y81.374
G1 X152.753 Y84.496
G1 X144.313 Y87.626
G1 X152.753 Y90.748
G1 X144.313 Y93.870
G1 X152.753 Y96.992
G1 X144.313 Y100.114
G1 X152.753 Y103.237
G1 X144.313 Y106.362
G1 X152.753 Y109.488
G1 X144.313 Y112.610
G1 X152.753 Y115.733
G1 X144.313 Y118.851
G1 X152.753 Y121.977
G1 X144.313 Y125.096
G1 X152.753 Y128.221
G1 X144.313 Y131.344
G1 X152.753 Y134.469
G1 X144.313 Y137.592
G1 X152.753 Y140.714
G1 X144.313 Y143.836
G1 X152.753 Y146.962
G1 X144.313 Y150.088
G1 X152.753 Y153.210
G1 Z8

G0 X156.446 Y153.217
G1 Z0

G1 X148.006 Y150.088
G1 X156.446 Y146.965
G1 X148.006 Y143.843
G1 X156.446 Y140.717
G1 X148.006 Y137.595
G1 X156.446 Y134.473
G1 X148.006 Y131.351
G1 X156.446 Y128.225
G1 X148.006 Y125.103
G1 X156.446 Y121.981
G1 X148.006 Y118.858
G1 X156.446 Y115.736
G1 X148.006 Y112.614
G1 X156.446 Y109.492
G1 X148.006 Y106.366
G1 X156.446 Y103.244
G1 X148.006 Y100.118
G1 X156.446 Y96.996
G1 X148.006 Y93.873
G1 X156.446 Y90.751
G1 X148.006 Y87.629
G1 X156.446 Y84.503
G1 X148.006 Y81.381
G1 X156.446 Y78.259
G1 X148.006 Y75.133
G1 X156.446 Y72.011
G1 X148.006 Y68.889
G1 X156.446 Y65.763
G1 X148.006 Y62.641
G1 X156.446 Y59.519
G1 X148.006 Y56.396
G1 X156.446 Y53.278
G1 X148.006 Y50.155
G1 X156.446 Y47.033
G1 X148.006 Y43.907
G1 X156.446 Y40.785
G1 X148.006 Y37.663
G1 X156.446 Y34.541
G1 X148.006 Y31.419
G1 X156.446 Y28.296
G1 X148.006 Y25.171
G1 X156.446 Y22.048
G1 X148.006 Y18.930
G1 X156.446 Y15.807
G1 X148.006 Y12.685
G1 X156.446 Y9.563
G1 X148.006 Y6.441
G1 Z8

G0 X151.703 Y6.444
G1 Z0

G1 X160.146 Y9.566
G1 X151.703 Y12.689
G1 X160.146 Y15.811
G1 X151.703 Y18.933
G1 X160.146 Y22.055
G1 X151.703 Y25.178
G1 X160.146 Y28.300
G1 X151.703 Y31.422
G1 X160.146 Y34.544
G1 X151.703 Y37.666
G1 X160.146 Y40.789
G1 X151.703 Y43.911
G1 X160.146 Y47.033
G1 X151.703 Y50.159
G1 X160.146 Y53.281
G1 X151.703 Y56.403
G1 X160.146 Y59.526
G1 X151.703 Y62.648
G1 X160.146 Y65.770
G1 X151.703 Y68.896
G1 X160.146 Y72.018
G1 X151.703 Y75.140
G1 X160.146 Y78.262
G1 X151.703 Y81.385
G1 X160.146 Y84.507
G1 X151.703 Y87.633
G1 X160.146 Y90.755
G1 X151.703 Y93.877
G1 X160.146 Y96.999
G1 X151.703 Y100.125
G1 X160.146 Y103.247
G1 X151.703 Y106.369
G1 X160.146 Y109.495
G1 X151.703 Y112.617
G1 X160.146 Y115.740
G1 X151.703 Y118.862
G1 X160.146 Y121.984
G1 X151.703 Y125.106
G1 X160.146 Y128.232
G1 X151.703 Y131.354
G1 X160.146 Y134.476
G1 X151.703 Y137.599
G1 X160.146 Y140.721
G1 X151.703 Y143.847
G1 X160.146 Y146.969
G1 X151.703 Y150.091
G1 X160.146 Y153.220
G1 Z8

G0 X163.843 Y153.220
G1 Z0

G1 X155.400 Y150.098
G1 X163.843 Y146.972
G1 X155.400 Y143.850
G1 X163.843 Y140.724
G1 X155.400 Y137.602
G1 X163.843 Y134.480
G1 X155.400 Y131.354
G1 X163.843 Y128.232
G1 X155.400 Y125.110
G1 X163.843 Y121.988
G1 X155.400 Y118.865
G1 X163.843 Y115.747
G1 X155.400 Y112.621
G1 X163.843 Y109.495
G1 X155.400 Y106.373
G1 X163.843 Y103.251
G1 X155.400 Y100.129
G1 X163.843 Y97.006
G1 X155.400 Y93.884
G1 X163.843 Y90.758
G1 X155.400 Y87.633
G1 X163.843 Y84.510
G1 X155.400 Y81.388
G1 X163.843 Y78.266
G1 X155.400 Y75.144
G1 X163.843 Y72.021
G1 X155.400 Y68.896
G1 X163.843 Y65.773
G1 X155.400 Y62.651
G1 X163.843 Y59.529
G1 X155.400 Y56.407
G1 X163.843 Y53.285
G1 X155.400 Y50.162
G1 X163.843 Y47.037
G1 X155.400 Y43.914
G1 X163.843 Y40.792
G1 X155.400 Y37.670
G1 X163.843 Y34.548
G1 X155.400 Y31.426
G1 X163.843 Y28.303
G1 X155.400 Y25.181
G1 X163.843 Y22.059
G1 X155.400 Y18.937
G1 X163.843 Y15.814
G1 X155.400 Y12.696
G1 X163.843 Y9.570
G1 X155.400 Y6.448
G1 Z8

G0 X159.093 Y6.451
G1 Z0

G1 X167.536 Y9.574
G1 X159.093 Y12.696
G1 X167.536 Y15.818
G1 X159.093 Y18.940
G1 X167.536 Y22.062
G1 X159.093 Y25.185
G1 X167.536 Y28.307
G1 X159.093 Y31.433
G1 X167.536 Y34.551
G1 X159.093 Y37.677
G1 X167.536 Y40.799
G1 X159.093 Y43.918
G1 X167.536 Y47.040
G1 X159.093 Y50.162
G1 X167.536 Y53.288
G1 X159.093 Y56.410
G1 X167.536 Y59.533
G1 X159.093 Y62.655
G1 X167.536 Y65.777
G1 X159.093 Y68.899
G1 X167.536 Y72.025
G1 X159.093 Y75.147
G1 X167.536 Y78.269
G1 X159.093 Y81.392
G1 X167.536 Y84.514
G1 X159.093 Y87.636
G1 X167.536 Y90.762
G1 X159.093 Y93.888
G1 X167.536 Y97.010
G1 X159.093 Y100.132
G1 X167.536 Y103.254
G1 X159.093 Y106.376
G1 X167.536 Y109.499
G1 X159.093 Y112.624
G1 X167.536 Y115.750
G1 X159.093 Y118.869
G1 X167.536 Y121.991
G1 X159.093 Y125.113
G1 X167.536 Y128.236
G1 X159.093 Y131.361
G1 X167.536 Y134.487
G1 X159.093 Y137.609
G1 X167.536 Y140.731
G1 X159.093 Y143.854
G1 X167.536 Y146.976
G1 X159.093 Y150.102
G1 X167.536 Y153.224
G1 Z8

G0 X171.233 Y153.227
G1 Z0

G1 X162.793 Y150.105
G1 X171.233 Y146.983
G1 X162.793 Y143.857
G1 X171.233 Y140.735
G1 X162.793 Y137.613
G1 X171.233 Y134.491
G1 X162.793 Y131.361
G1 X171.233 Y128.239
G1 X162.793 Y125.117
G1 X171.233 Y121.998
G1 X162.793 Y118.876
G1 X171.233 Y115.754
G1 X162.793 Y112.628
G1 X171.233 Y109.506
G1 X162.793 Y106.380
G1 X171.233 Y103.258
G1 X162.793 Y100.136
G1 X171.233 Y97.013
G1 X162.793 Y93.891
G1 X171.233 Y90.765
G1 X162.793 Y87.643
G1 X171.233 Y84.521
G1 X162.793 Y81.395
G1 X171.233 Y78.273
G1 X162.793 Y75.151
G1 X171.233 Y72.025
G1 X162.793 Y68.903
G1 X171.233 Y65.781
G1 X162.793 Y62.658
G1 X171.233 Y59.536
G1 X162.793 Y56.414
G1 X171.233 Y53.292
G1 X162.793 Y50.166
G1 X171.233 Y47.044
G1 X162.793 Y43.925
G1 X171.233 Y40.803
G1 X162.793 Y37.681
G1 X171.233 Y34.558
G1 X162.793 Y31.433
G1 X171.233 Y28.310
G1 X162.793 Y25.188
G1 X171.233 Y22.066
G1 X162.793 Y18.944
G1 X171.233 Y15.825
G1 X162.793 Y12.699
G1 X171.233 Y9.577
G1 X162.793 Y6.455
G1 Z8

G0 X166.486 Y6.462
G1 Z0

G1 X174.926 Y9.584
G1 X166.486 Y12.703
G1 X174.926 Y15.829
G1 X166.486 Y18.951
G1 X174.926 Y22.069
G1 X166.486 Y25.195
G1 X174.926 Y28.314
G1 X166.486 Y31.436
G1 X174.926 Y34.562
G1 X166.486 Y37.684
G1 X174.926 Y40.806
G1 X166.486 Y43.929
G1 X174.926 Y47.051
G1 X166.486 Y50.173
G1 X174.926 Y53.295
G1 X166.486 Y56.421
G1 X174.926 Y59.543
G1 X166.486 Y62.665
G1 X174.926 Y65.788
G1 X166.486 Y68.910
G1 X174.926 Y72.032
G1 X166.486 Y75.154
G1 X174.926 Y78.280
G1 X166.486 Y81.402
G1 X174.926 Y84.524
G1 X166.486 Y87.647
G1 X174.926 Y90.769
G1 X166.486 Y93.895
G1 X174.926 Y97.017
G1 X166.486 Y100.143
G1 X174.926 Y103.265
G1 X166.486 Y106.387
G1 X174.926 Y109.509
G1 X166.486 Y112.631
G1 X174.926 Y115.754
G1 X166.486 Y118.879
G1 X174.926 Y122.002
G1 X166.486 Y125.124
G1 X174.926 Y128.246
G1 X166.486 Y131.368
G1 X174.926 Y134.491
G1 X166.486 Y137.616
G1 X174.926 Y140.738
G1 X166.486 Y143.864
G1 X174.926 Y146.986
G1 X166.486 Y150.109
G1 X174.926 Y153.234
G1 Z8

G0 X178.622 Y153.238
G1 Z0

G1 X170.182 Y150.112
G1 X178.622 Y146.990
G1 X170.182 Y143.868
G1 X178.622 Y140.742
G1 X170.182 Y137.620
G1 X178.622 Y134.494
G1 X170.182 Y131.372
G1 X178.622 Y128.250
G1 X170.182 Y125.127
G1 X178.622 Y122.005
G1 X170.182 Y118.883
G1 X178.622 Y115.757
G1 X170.182 Y112.635
G1 X178.622 Y109.513
G1 X170.182 Y106.391
G1 X178.622 Y103.268
G1 X170.182 Y100.146
G1 X178.622 Y97.020
G1 X170.182 Y93.895
G1 X178.622 Y90.772
G1 X170.182 Y87.650
G1 X178.622 Y84.528
G1 X170.182 Y81.406
G1 X178.622 Y78.284
G1 X170.182 Y75.158
G1 X178.622 Y72.036
G1 X170.182 Y68.913
G1 X178.622 Y65.791
G1 X170.182 Y62.669
G1 X178.622 Y59.547
G1 X170.182 Y56.421
G1 X178.622 Y53.299
G1 X170.182 Y50.176
G1 X178.622 Y47.054
G1 X170.182 Y43.932
G1 X178.622 Y40.810
G1 X170.182 Y37.688
G1 X178.622 Y34.562
G1 X170.182 Y31.440
G1 X178.622 Y28.321
G1 X170.182 Y25.199
G1 X178.622 Y22.077
G1 X170.182 Y18.954
G1 X178.622 Y15.829
G1 X170.182 Y12.710
G1 X178.622 Y9.588
G1 X170.182 Y6.465
G1 Z8

G0 X173.879 Y6.469
G1 Z0

G1 X182.323 Y9.591
G1 X173.879 Y12.713
G1 X182.323 Y15.832
G1 X173.879 Y18.958
G1 X182.323 Y22.080
G1 X173.879 Y25.202
G1 X182.323 Y28.325
G1 X173.879 Y31.447
G1 X182.323 Y34.565
G1 X173.879 Y37.695
G1 X182.323 Y40.813
G1 X173.879 Y43.936
G1 X182.323 Y47.058
G1 X173.879 Y50.180
G1 X182.323 Y53.302
G1 X173.879 Y56.424
G1 X182.323 Y59.550
G1 X173.879 Y62.672
G1 X182.323 Y65.795
G1 X173.879 Y68.917
G1 X182.323 Y72.039
G1 X173.879 Y75.161
G1 X182.323 Y78.287
G1 X173.879 Y81.409
G1 X182.323 Y84.532
G1 X173.879 Y87.654
G1 X182.323 Y90.776
G1 X173.879 Y93.902
G1 X182.323 Y97.024
G1 X173.879 Y100.150
G1 X182.323 Y103.272
G1 X173.879 Y106.394
G1 X182.323 Y109.516
G1 X173.879 Y112.642
G1 X182.323 Y115.764
G1 X173.879 Y118.883
G1 X182.323 Y122.009
G1 X173.879 Y125.131
G1 X182.323 Y128.253
G1 X173.879 Y131.375
G1 X182.323 Y134.498
G1 X173.879 Y137.623
G1 X182.323 Y140.749
G1 X173.879 Y143.871
G1 X182.323 Y146.994
G1 X173.879 Y150.119
G1 X182.323 Y153.241
G1 Z8

G0 X186.016 Y153.245
G1 Z0

G1 X177.572 Y150.123
G1 X186.016 Y146.997
G1 X177.572 Y143.875
G1 X186.016 Y140.749
G1 X177.572 Y137.627
G1 X186.016 Y134.505
G1 X177.572 Y131.379
G1 X186.016 Y128.257
G1 X177.572 Y125.134
G1 X186.016 Y122.012
G1 X177.572 Y118.886
G1 X186.016 Y115.768
G1 X177.572 Y112.646
G1 X186.016 Y109.523
G1 X177.572 Y106.398
G1 X186.016 Y103.275
G1 X177.572 Y100.153
G1 X186.016 Y97.027
G1 X177.572 Y93.905
G1 X186.016 Y90.783
G1 X177.572 Y87.661
G1 X186.016 Y84.535
G1 X177.572 Y81.413
G1 X186.016 Y78.291
G1 X177.572 Y75.165
G1 X186.016 Y72.043
G1 X177.572 Y68.920
G1 X186.016 Y65.798
G1 X177.572 Y62.676
G1 X186.016 Y59.554
G1 X177.572 Y56.428
G1 X186.016 Y53.306
G1 X177.572 Y50.184
G1 X186.016 Y47.061
G1 X177.572 Y43.939
G1 X186.016 Y40.820
G1 X177.572 Y37.695
G1 X186.016 Y34.572
G1 X177.572 Y31.450
G1 X186.016 Y28.328
G1 X177.572 Y25.206
G1 X186.016 Y22.084
G1 X177.572 Y18.961
G1 X186.016 Y15.839
G1 X177.572 Y12.717
G1 X186.016 Y9.595
G1 X177.572 Y6.472
G1 Z8

G0 X181.269 Y6.480
G1 Z0

G1 X189.712 Y9.598
G1 X181.269 Y12.720
G1 X189.712 Y15.843
G1 X181.269 Y18.965
G1 X189.712 Y22.087
G1 X181.269 Y25.209
G1 X189.712 Y28.332
G1 X181.269 Y31.454
G1 X189.712 Y34.576
G1 X181.269 Y37.698
G1 X189.712 Y40.824
G1 X181.269 Y43.946
G1 X189.712 Y47.065
G1 X181.269 Y50.191
G1 X189.712 Y53.313
G1 X181.269 Y56.432
G1 X189.712 Y59.554
G1 X181.269 Y62.683
G1 X189.712 Y65.802
G1 X181.269 Y68.924
G1 X189.712 Y72.050
G1 X181.269 Y75.168
G1 X189.712 Y78.291
G1 X181.269 Y81.420
G1 X189.712 Y84.542
G1 X181.269 Y87.664
G1 X189.712 Y90.787
G1 X181.269 Y93.909
G1 X189.712 Y97.031
G1 X181.269 Y100.157
G1 X189.712 Y103.279
G1 X181.269 Y106.405
G1 X189.712 Y109.527
G1 X181.269 Y112.649
G1 X189.712 Y115.771
G1 X181.269 Y118.894
G1 X189.712 Y122.016
G1 X181.269 Y125.141
G1 X189.712 Y128.264
G1 X181.269 Y131.386
G1 X189.712 Y134.508
G1 X181.269 Y137.630
G1 X189.712 Y140.753
G1 X181.269 Y143.878
G1 X189.712 Y147.004
G1 X181.269 Y150.126
G1 X189.712 Y153.249
G1 Z8

G0 X193.405 Y153.256
G1 Z0

G1 X184.962 Y150.130
G1 X193.405 Y147.008
G1 X184.962 Y143.882
G1 X193.405 Y140.756
G1 X184.962 Y137.634
G1 X193.405 Y134.512
G1 X184.962 Y131.389
G1 X193.405 Y128.267
G1 X184.962 Y125.145
G1 X193.405 Y122.019
G1 X184.962 Y118.897
G1 X193.405 Y115.775
G1 X184.962 Y112.653
G1 X193.405 Y109.530
G1 X184.962 Y106.408
G1 X193.405 Y103.286
G1 X184.962 Y100.160
G1 X193.405 Y97.034
G1 X184.962 Y93.912
G1 X193.405 Y90.790
G1 X184.962 Y87.668
G1 X193.405 Y84.546
G1 X184.962 Y81.423
G1 X193.405 Y78.298
G1 X184.962 Y75.175
G1 X193.405 Y72.053
G1 X184.962 Y68.931
G1 X193.405 Y65.809
G1 X184.962 Y62.683
G1 X193.405 Y59.561
G1 X184.962 Y56.439
G1 X193.405 Y53.316
G1 X184.962 Y50.194
G1 X193.405 Y47.072
G1 X184.962 Y43.950
G1 X193.405 Y40.824
G1 X184.962 Y37.702
G1 X193.405 Y34.580
G1 X184.962 Y31.457
G1 X193.405 Y28.335
G1 X184.962 Y25.216
G1 X193.405 Y22.091
G1 X184.962 Y18.968
G1 X193.405 Y15.846
G1 X184.962 Y12.724
G1 X193.405 Y9.605
G1 X184.962 Y6.483
G1 Z8

G0 X188.662 Y6.483
G1 Z0

G1 X197.102 Y9.609
G1 X188.662 Y12.731
G1 X197.102 Y15.850
G1 X188.662 Y18.972
G1 X197.102 Y22.094
G1 X188.662 Y25.220
G1 X197.102 Y28.342
G1 X188.662 Y31.461
G1 X197.102 Y34.583
G1 X188.662 Y37.705
G1 X197.102 Y40.827
G1 X188.662 Y43.950
G1 X197.102 Y47.075
G1 X188.662 Y50.198
G1 X197.102 Y53.320
G1 X188.662 Y56.442
G1 X197.102 Y59.564
G1 X188.662 Y62.687
G1 X197.102 Y65.812
G1 X188.662 Y68.935
G1 X197.102 Y72.057
G1 X188.662 Y75.179
G1 X197.102 Y78.301
G1 X188.662 Y81.423
G1 X197.102 Y84.549
G1 X188.662 Y87.671
G1 X197.102 Y90.794
G1 X188.662 Y93.916
G1 X197.102 Y97.038
G1 X188.662 Y100.164
G1 X197.102 Y103.286
G1 X188.662 Y106.412
G1 X197.102 Y109.534
G1 X188.662 Y112.656
G1 X197.102 Y115.778
G1 X188.662 Y118.901
G1 X197.102 Y122.023
G1 X188.662 Y125.149
G1 X197.102 Y128.271
G1 X188.662 Y131.393
G1 X197.102 Y134.515
G1 X188.662 Y137.637
G1 X197.102 Y140.760
G1 X188.662 Y143.885
G1 X197.102 Y147.008
G1 X188.662 Y150.137
G1 X197.102 Y153.259
G1 Z8

G0 X200.799 Y153.263
G1 Z0

G1 X192.359 Y150.140
G1 X200.799 Y147.011
G1 X192.359 Y143.889
G1 X200.799 Y140.767
G1 X192.359 Y137.641
G1 X200.799 Y134.522
G1 X192.359 Y131.396
G1 X200.799 Y128.274
G1 X192.359 Y125.149
G1 X200.799 Y122.026
G1 X192.359 Y118.904
G1 X200.799 Y115.785
G1 X192.359 Y112.663
G1 X200.799 Y109.541
G1 X192.359 Y106.412
G1 X200.799 Y103.289
G1 X192.359 Y100.167
G1 X200.799 Y97.045
G1 X192.359 Y93.923
G1 X200.799 Y90.801
G1 X192.359 Y87.675
G1 X200.799 Y84.553
G1 X192.359 Y81.427
G1 X200.799 Y78.305
G1 X192.359 Y75.182
G1 X200.799 Y72.060
G1 X192.359 Y68.938
G1 X200.799 Y65.812
G1 X192.359 Y62.690
G1 X200.799 Y59.568
G1 X192.359 Y56.446
G1 X200.799 Y53.323
G1 X192.359 Y50.201
G1 X200.799 Y47.079
G1 X192.359 Y43.953
G1 X200.799 Y40.835
G1 X192.359 Y37.712
G1 X200.799 Y34.587
G1 X192.359 Y31.468
G1 X200.799 Y28.346
G1 X192.359 Y25.220
G1 X200.799 Y22.098
G1 X192.359 Y18.975
G1 X200.799 Y15.853
G1 X192.359 Y12.735
G1 X200.799 Y9.612
G1 X192.359 Y6.487
G1 Z8


G0 Z8


(Distance Moved: 33615.488 mm)
(Distance Moved - Pen Up: 448.750 mm)
(Distance Moved - Pen Down: 33166.680 mm)
(Points Plotted: 3948 points)
(Pen Lifted: 85 times)
(Pen Dropped: 84 times)
(Min X: 40.829 Max X: 200.978)
(Min Y: 6.324 Max Y: 153.263)
