(GCode generated by: DrawingBotV3 Premium 1.6.20 Stable)
(Time: 2025-01-29 at 11:18:43 CET)
G21 (programming in millimeters, mm)
G90 (programming in absolute positioning)
G1 F3000 (set speed)
G1 Z8


G0 X15.934 Y404.967
G1 Z0

G1 X14.998 Y355.167
G1 Z8

G0 X20.140 Y404.967
G1 Z0

G1 X14.998 Y145.133
G1 Z8

G0 X16.244 Y14.970
G1 Z0

G1 X24.345 Y404.967
G1 Z8

G0 X28.550 Y404.967
G1 Z0

G1 X20.067 Y14.978
G1 Z8

G0 X23.887 Y14.902
G1 Z0

G1 X32.772 Y404.967
G1 Z8

G0 X36.977 Y404.967
G1 Z0

G1 X27.712 Y14.996
G1 Z8

G0 X31.530 Y14.836
G1 Z0

G1 X41.183 Y404.967
G1 Z8

G0 X45.388 Y404.967
G1 Z0

G1 X35.354 Y14.930
G1 Z8

G0 X39.177 Y14.940
G1 Z0

G1 X49.593 Y404.967
G1 Z8

G0 X53.815 Y404.967
G1 Z0

G1 X42.999 Y14.951
G1 Z8

G0 X46.821 Y14.962
G1 Z0

G1 X58.020 Y404.967
G1 Z8

G0 X62.226 Y404.967
G1 Z0

G1 X50.641 Y14.888
G1 Z8

G0 X54.463 Y14.883
G1 Z0

G1 X66.431 Y404.950
G1 Z8

G0 X70.636 Y404.950
G1 Z0

G1 X58.288 Y14.980
G1 Z8

G0 X62.110 Y14.993
G1 Z0

G1 X74.858 Y404.950
G1 Z8

G0 X79.063 Y404.950
G1 Z0

G1 X65.927 Y14.836
G1 Z8

G0 X69.749 Y14.849
G1 Z0

G1 X83.269 Y404.950
G1 Z8

G0 X87.474 Y404.950
G1 Z0

G1 X73.571 Y14.863
G1 Z8

G0 X77.393 Y14.877
G1 Z0

G1 X91.679 Y404.950
G1 Z8

G0 X95.901 Y404.950
G1 Z0

G1 X81.215 Y14.892
G1 Z8

G0 X85.038 Y14.906
G1 Z0

G1 X100.106 Y404.950
G1 Z8

G0 X104.312 Y404.950
G1 Z0

G1 X88.860 Y14.921
G1 Z8

G0 X92.682 Y14.937
G1 Z0

G1 X108.517 Y404.950
G1 Z8

G0 X112.722 Y404.950
G1 Z0

G1 X96.488 Y14.953
G1 Z8

G0 X100.309 Y14.953
G1 Z0

G1 X116.944 Y404.934
G1 Z8

G0 X121.149 Y404.934
G1 Z0

G1 X104.132 Y14.970
G1 Z8

G0 X107.954 Y14.987
G1 Z0

G1 X125.354 Y404.934
G1 Z8

G0 X129.560 Y404.934
G1 Z0

G1 X111.769 Y14.835
G1 Z8

G0 X115.591 Y14.852
G1 Z0

G1 X133.765 Y404.934
G1 Z8

G0 X137.987 Y404.934
G1 Z0

G1 X119.412 Y14.871
G1 Z8

G0 X123.234 Y14.890
G1 Z0

G1 X142.192 Y404.934
G1 Z8

G0 X146.397 Y404.934
G1 Z0

G1 X127.056 Y14.908
G1 Z8

G0 X130.879 Y14.928
G1 Z0

G1 X150.603 Y404.934
G1 Z8

G0 X154.808 Y404.934
G1 Z0

G1 X134.701 Y14.947
G1 Z8

G0 X138.523 Y14.968
G1 Z0

G1 X159.030 Y404.934
G1 Z8

G0 X163.235 Y404.934
G1 Z0

G1 X142.346 Y14.988
G1 Z8

G0 X146.167 Y14.992
G1 Z0

G1 X167.440 Y404.917
G1 Z8

G0 X171.646 Y404.917
G1 Z0

G1 X149.980 Y14.844
G1 Z8

G0 X153.802 Y14.866
G1 Z0

G1 X175.851 Y404.917
G1 Z8

G0 X180.073 Y404.917
G1 Z0

G1 X157.625 Y14.889
G1 Z8

G0 X161.447 Y14.911
G1 Z0

G1 X184.278 Y404.917
G1 Z8

G0 X188.483 Y404.917
G1 Z0

G1 X165.269 Y14.933
G1 Z8

G0 X169.091 Y14.956
G1 Z0

G1 X192.689 Y404.917
G1 Z8

G0 X196.894 Y404.917
G1 Z0

G1 X172.913 Y14.980
G1 Z8

G0 X176.725 Y14.836
G1 Z0

G1 X201.116 Y404.917
G1 Z8

G0 X205.321 Y404.917
G1 Z0

G1 X180.547 Y14.860
G1 Z8

G0 X184.369 Y14.884
G1 Z0

G1 X209.526 Y404.917
G1 Z8

G0 X213.731 Y404.917
G1 Z0

G1 X188.192 Y14.909
G1 Z8

G0 X192.013 Y14.918
G1 Z0

G1 X217.937 Y404.900
G1 Z8

G0 X222.159 Y404.900
G1 Z0

G1 X195.836 Y14.945
G1 Z8

G0 X199.658 Y14.971
G1 Z0

G1 X226.364 Y404.900
G1 Z8

G0 X230.569 Y404.900
G1 Z0

G1 X203.481 Y14.997
G1 Z8

G0 X207.291 Y14.855
G1 Z0

G1 X234.774 Y404.900
G1 Z8

G0 X238.980 Y404.900
G1 Z0

G1 X211.114 Y14.882
G1 Z8

G0 X214.936 Y14.911
G1 Z0

G1 X243.202 Y404.900
G1 Z8

G0 X247.407 Y404.900
G1 Z0

G1 X218.759 Y14.939
G1 Z8

G0 X222.581 Y14.967
G1 Z0

G1 X251.612 Y404.900
G1 Z8

G0 X255.817 Y404.900
G1 Z0

G1 X226.403 Y14.996
G1 Z8

G0 X230.213 Y14.856
G1 Z0

G1 X260.023 Y404.900
G1 Z8

G0 X264.245 Y404.900
G1 Z0

G1 X234.035 Y14.887
G1 Z8

G0 X237.857 Y14.900
G1 Z0

G1 X268.450 Y404.884
G1 Z8

G0 X272.655 Y404.884
G1 Z0

G1 X241.679 Y14.930
G1 Z8

G0 X245.502 Y14.961
G1 Z0

G1 X276.860 Y404.884
G1 Z8

G0 X281.065 Y404.884
G1 Z0

G1 X249.325 Y14.992
G1 Z8

G0 X253.134 Y14.855
G1 Z0

G1 X281.989 Y364.868
G1 Z8

G0 X282.000 Y315.066
G1 Z0

G1 X256.957 Y14.887
G1 Z8

G0 X260.779 Y14.919
G1 Z0

G1 X281.998 Y266.286
G1 Z8

G0 X281.988 Y218.527
G1 Z0

G1 X264.602 Y14.952
G1 Z8

G0 X268.425 Y14.985
G1 Z0

G1 X281.986 Y171.957
G1 Z8

G0 X281.986 Y126.409
G1 Z0

G1 X272.238 Y14.900
G1 Z8

G0 X276.059 Y14.917
G1 Z0

G1 X281.994 Y82.050
G1 Z8

G0 X281.990 Y38.542
G1 Z0

G1 X279.881 Y14.950
G1 Z8


G0 Z8


(Distance Moved: 27027.617 mm)
(Distance Moved - Pen Up: 1032.510 mm)
(Distance Moved - Pen Down: 25995.111 mm)
(Points Plotted: 72 points)
(Pen Lifted: 73 times)
(Pen Dropped: 72 times)
(Min X: 14.998 Max X: 282.000)
(Min Y: 14.835 Max Y: 404.967)
