(GCode generated by: DrawingBotV3 Premium 1.6.20 Stable)
(Time: 2025-01-30 at 10:52:19 CET)
G21 (programming in millimeters, mm)
G90 (programming in absolute positioning)
G1 F3000 (set speed)
G1 Z8


G1 X47.288 Y139.48 Z5.000
G1 Z0

G1 X47.542 Y139.268 Z5.000
G1 X47.742 Y138.71 Z5.000
G1 X48.053 Y137.014 Z5.000
G1 X48.362 Y135.318 Z5.000
G1 X48.561 Y134.759 Z5.000
G1 X48.814 Y134.547 Z5.000
G1 X49.067 Y134.759 Z5.000
G1 X49.266 Y135.318 Z5.000
G1 X49.575 Y137.014 Z5.000
G1 X49.885 Y138.71 Z5.000
G1 X50.084 Y139.268 Z5.000
G1 X50.336 Y139.48 Z5.000
G1 X50.589 Y139.268 Z5.000
G1 X50.788 Y138.71 Z5.000
G1 X51.098 Y137.014 Z5.000
G1 X51.408 Y135.318 Z5.000
G1 X51.608 Y134.759 Z5.000
G1 X51.862 Y134.547 Z5.000
G1 X52.116 Y134.759 Z5.000
G1 X52.316 Y135.318 Z5.000
G1 X52.625 Y137.014 Z5.000
G1 X52.933 Y138.71 Z5.000
G1 X53.132 Y139.268 Z5.000
G1 X53.385 Y139.48 Z5.000
G1 X53.637 Y139.268 Z5.000
G1 X53.837 Y138.71 Z5.000
G1 X54.146 Y137.014 Z5.000
G1 X54.455 Y135.318 Z5.000
G1 X54.654 Y134.759 Z5.000
G1 X54.907 Y134.547 Z5.000
G1 X55.16 Y134.759 Z5.000
G1 X55.359 Y135.318 Z5.000
G1 X55.668 Y137.014 Z5.000
G1 X55.977 Y138.71 Z5.000
G1 X56.177 Y139.268 Z5.000
G1 X56.429 Y139.48 Z5.000
G1 X56.682 Y139.268 Z5.000
G1 X56.881 Y138.71 Z5.000
G1 X57.191 Y137.014 Z5.000
G1 X57.5 Y135.318 Z5.000
G1 X57.699 Y134.759 Z5.000
G1 X57.952 Y134.547 Z5.000
G1 X58.204 Y134.759 Z5.000
G1 X58.404 Y135.318 Z5.000
G1 X58.713 Y137.014 Z5.000
G1 X59.022 Y138.71 Z5.000
G1 X59.221 Y139.268 Z5.000
G1 X59.474 Y139.48 Z5.000
G1 X59.727 Y139.268 Z5.000
G1 X59.926 Y138.71 Z5.000
G1 X60.235 Y137.014 Z5.000
G1 X60.544 Y135.318 Z5.000
G1 X60.744 Y134.759 Z5.000
G1 X60.996 Y134.547 Z5.000
G1 X61.249 Y134.759 Z5.000
G1 X61.448 Y135.318 Z5.000
G1 X61.758 Y137.014 Z5.000
G1 X62.067 Y138.71 Z5.000
G1 X62.266 Y139.268 Z5.000
G1 X62.519 Y139.48 Z5.000
G1 X62.772 Y139.268 Z5.000
G1 X62.971 Y138.71 Z5.000
G1 X63.282 Y137.014 Z5.000
G1 X63.592 Y135.318 Z5.000
G1 X63.792 Y134.759 Z5.000
G1 X64.045 Y134.547 Z5.000
G1 X64.297 Y134.759 Z5.000
G1 X64.497 Y135.318 Z5.000
G1 X64.806 Y137.014 Z5.000
G1 X65.115 Y138.71 Z5.000
G1 X65.314 Y139.268 Z5.000
G1 X65.567 Y139.48 Z5.000
G1 X65.82 Y139.268 Z5.000
G1 X66.019 Y138.71 Z5.000
G1 X66.329 Y137.014 Z5.000
G1 X66.639 Y135.318 Z5.000
G1 X66.839 Y134.759 Z5.000
G1 X67.093 Y134.547 Z5.000
G1 X67.347 Y134.759 Z5.000
G1 X67.546 Y135.318 Z5.000
G1 X67.855 Y137.014 Z5.000
G1 X68.164 Y138.71 Z5.000
G1 X68.363 Y139.268 Z5.000
G1 X68.615 Y139.48 Z5.000
G1 X68.868 Y139.268 Z5.000
G1 X69.067 Y138.71 Z5.000
G1 X69.376 Y137.014 Z5.000
G1 X69.686 Y135.318 Z5.000
G1 X69.885 Y134.759 Z5.000
G1 X70.138 Y134.547 Z5.000
G1 X70.39 Y134.759 Z5.000
G1 X70.59 Y135.318 Z5.000
G1 X70.899 Y137.014 Z5.000
G1 X71.209 Y138.71 Z5.000
G1 X71.41 Y139.268 Z5.000
G1 X71.663 Y139.48 Z5.000
G1 X71.917 Y139.268 Z5.000
G1 X72.117 Y138.71 Z5.000
G1 X72.426 Y137.014 Z5.000
G1 X72.734 Y135.318 Z5.000
G1 X72.933 Y134.759 Z5.000
G1 X73.186 Y134.547 Z5.000
G1 X73.439 Y134.759 Z5.000
G1 X73.638 Y135.318 Z5.000
G1 X73.947 Y137.014 Z5.000
G1 X74.256 Y138.71 Z5.000
G1 X74.455 Y139.268 Z5.000
G1 X74.708 Y139.48 Z5.000
G1 X74.961 Y139.268 Z5.000
G1 X75.16 Y138.71 Z5.000
G1 X75.469 Y137.014 Z5.000
G1 X75.779 Y135.318 Z5.000
G1 X75.978 Y134.759 Z5.000
G1 X76.23 Y134.547 Z5.000
G1 X76.483 Y134.759 Z5.000
G1 X76.682 Y135.318 Z5.000
G1 X76.992 Y137.014 Z5.000
G1 X77.301 Y138.71 Z5.000
G1 X77.5 Y139.268 Z5.000
G1 X77.753 Y139.48 Z5.000
G1 X78.006 Y139.268 Z5.000
G1 X78.205 Y138.71 Z5.000
G1 X78.514 Y137.014 Z5.000
G1 X78.825 Y135.318 Z5.000
G1 X79.025 Y134.759 Z5.000
G1 X79.279 Y134.547 Z5.000
G1 X79.532 Y134.759 Z5.000
G1 X79.732 Y135.318 Z5.000
G1 X80.041 Y137.014 Z5.000
G1 X80.35 Y138.71 Z5.000
G1 X80.548 Y139.268 Z5.000
G1 X80.801 Y139.48 Z5.000
G1 X81.054 Y139.268 Z5.000
G1 X81.253 Y138.71 Z5.000
G1 X81.563 Y137.014 Z5.000
G1 X81.873 Y135.318 Z5.000
G1 X82.073 Y134.759 Z5.000
G1 X82.327 Y134.547 Z5.000
G1 X82.581 Y134.759 Z5.000
G1 X82.78 Y135.318 Z5.000
G1 X83.089 Y137.014 Z5.000
G1 X83.398 Y138.71 Z5.000
G1 X83.597 Y139.268 Z5.000
G1 X83.849 Y139.48 Z5.000
G1 X84.102 Y139.268 Z5.000
G1 X84.301 Y138.71 Z5.000
G1 X84.61 Y137.014 Z5.000
G1 X84.92 Y135.318 Z5.000
G1 X85.119 Y134.759 Z5.000
G1 X85.372 Y134.547 Z5.000
G1 X85.624 Y134.759 Z5.000
G1 X85.824 Y135.318 Z5.000
G1 X86.133 Y137.014 Z5.000
G1 X86.442 Y138.71 Z5.000
G1 X86.641 Y139.268 Z5.000
G1 X86.894 Y139.48 Z5.000
G1 X87.147 Y139.268 Z5.000
G1 X87.346 Y138.71 Z5.000
G1 X87.657 Y137.014 Z5.000
G1 X87.967 Y135.318 Z5.000
G1 X88.167 Y134.759 Z5.000
G1 X88.42 Y134.547 Z5.000
G1 X88.673 Y134.759 Z5.000
G1 X88.872 Y135.318 Z5.000
G1 X89.181 Y137.014 Z5.000
G1 X89.49 Y138.71 Z5.000
G1 X89.689 Y139.268 Z5.000
G1 X89.942 Y139.48 Z5.000
G1 X90.195 Y139.268 Z5.000
G1 X90.394 Y138.71 Z5.000
G1 X90.703 Y137.014 Z5.000
G1 X91.013 Y135.318 Z5.000
G1 X91.212 Y134.759 Z5.000
G1 X91.465 Y134.547 Z5.000
G1 X91.717 Y134.759 Z5.000
G1 X91.917 Y135.318 Z5.000
G1 X92.226 Y137.014 Z5.000
G1 X92.536 Y138.71 Z5.000
G1 X92.737 Y139.268 Z5.000
G1 X92.99 Y139.48 Z5.000
G1 X93.244 Y139.268 Z5.000
G1 X93.444 Y138.71 Z5.000
G1 X93.753 Y137.014 Z5.000
G1 X94.061 Y135.318 Z5.000
G1 X94.26 Y134.759 Z5.000
G1 X94.513 Y134.547 Z5.000
G1 X94.766 Y134.759 Z5.000
G1 X94.965 Y135.318 Z5.000
G1 X95.274 Y137.014 Z5.000
G1 X95.585 Y138.71 Z5.000
G1 X95.785 Y139.268 Z5.000
G1 X96.039 Y139.48 Z5.000
G1 X96.292 Y139.268 Z5.000
G1 X96.492 Y138.71 Z5.000
G1 X96.801 Y137.014 Z5.000
G1 X97.11 Y135.318 Z5.000
G1 X97.308 Y134.759 Z5.000
G1 X97.561 Y134.547 Z5.000
G1 X97.814 Y134.759 Z5.000
G1 X98.013 Y135.318 Z5.000
G1 X98.322 Y137.014 Z5.000
G1 X98.631 Y138.71 Z5.000
G1 X98.831 Y139.268 Z5.000
G1 X99.083 Y139.48 Z5.000
G1 X99.336 Y139.268 Z5.000
G1 X99.535 Y138.71 Z5.000
G1 X99.845 Y137.014 Z5.000
G1 X100.155 Y135.318 Z5.000
G1 X100.355 Y134.759 Z5.000
G1 X100.609 Y134.547 Z5.000
G1 X100.863 Y134.759 Z5.000
G1 X101.063 Y135.318 Z5.000
G1 X101.372 Y137.014 Z5.000
G1 X101.68 Y138.71 Z5.000
G1 X101.879 Y139.268 Z5.000
G1 X102.132 Y139.48 Z5.000
G1 X102.384 Y139.268 Z5.000
G1 X102.583 Y138.71 Z5.000
G1 X102.893 Y137.014 Z5.000
G1 X103.202 Y135.318 Z5.000
G1 X103.401 Y134.759 Z5.000
G1 X103.654 Y134.547 Z5.000
G1 X103.907 Y134.759 Z5.000
G1 X104.106 Y135.318 Z5.000
G1 X104.417 Y137.014 Z5.000
G1 X104.727 Y138.71 Z5.000
G1 X104.927 Y139.268 Z5.000
G1 X105.18 Y139.48 Z5.000
G1 X105.432 Y139.268 Z5.000
G1 X105.632 Y138.71 Z5.000
G1 X105.941 Y137.014 Z5.000
G1 X106.25 Y135.318 Z5.000
G1 X106.449 Y134.759 Z5.000
G1 X106.702 Y134.547 Z5.000
G1 X106.955 Y134.759 Z5.000
G1 X107.155 Y135.318 Z5.000
G1 X107.465 Y137.014 Z5.000
G1 X107.775 Y138.71 Z5.000
G1 X107.975 Y139.268 Z5.000
G1 X108.228 Y139.48 Z5.000
G1 X108.481 Y139.268 Z5.000
G1 X108.68 Y138.71 Z5.000
G1 X108.989 Y137.014 Z5.000
G1 X109.298 Y135.318 Z5.000
G1 X109.498 Y134.759 Z5.000
G1 X109.75 Y134.547 Z5.000
G1 X110.003 Y134.759 Z5.000
G1 X110.202 Y135.318 Z5.000
G1 X110.511 Y137.014 Z5.000
G1 X110.821 Y138.71 Z5.000
G1 X111.02 Y139.268 Z5.000
G1 X111.273 Y139.48 Z5.000
G1 X111.526 Y139.268 Z5.000
G1 X111.725 Y138.71 Z5.000
G1 X112.036 Y137.014 Z5.000
G1 X112.346 Y135.318 Z5.000
G1 X112.546 Y134.759 Z5.000
G1 X112.799 Y134.547 Z5.000
G1 X113.051 Y134.759 Z5.000
G1 X113.25 Y135.318 Z5.000
G1 X113.56 Y137.014 Z5.000
G1 X113.869 Y138.71 Z5.000
G1 X114.068 Y139.268 Z5.000
G1 X114.321 Y139.48 Z5.000
G1 X114.574 Y139.268 Z5.000
G1 X114.773 Y138.71 Z5.000
G1 X115.084 Y137.014 Z5.000
G1 X115.394 Y135.318 Z5.000
G1 X115.594 Y134.759 Z5.000
G1 X115.847 Y134.547 Z5.000
G1 X116.099 Y134.759 Z5.000
G1 X116.299 Y135.318 Z5.000
G1 X116.608 Y137.014 Z5.000
G1 X116.917 Y138.71 Z5.000
G1 X117.116 Y139.268 Z5.000
G1 X117.369 Y139.48 Z5.000
G1 X117.622 Y139.268 Z5.000
G1 X117.822 Y138.71 Z5.000
G1 X118.132 Y137.014 Z5.000
G1 X118.442 Y135.318 Z5.000
G1 X118.642 Y134.759 Z5.000
G1 X118.895 Y134.547 Z5.000
G1 X119.148 Y134.759 Z5.000
G1 X119.347 Y135.318 Z5.000
G1 X119.656 Y137.014 Z5.000
G1 X119.965 Y138.71 Z5.000
G1 X120.165 Y139.268 Z5.000
G1 X120.417 Y139.48 Z5.000
G1 X120.67 Y139.268 Z5.000
G1 X120.869 Y138.71 Z5.000
G1 X121.179 Y137.014 Z5.000
G1 X121.489 Y135.318 Z5.000
G1 X121.689 Y134.759 Z5.000
G1 X121.943 Y134.547 Z5.000
G1 X122.197 Y134.759 Z5.000
G1 X122.397 Y135.318 Z5.000
G1 X122.706 Y137.014 Z5.000
G1 X123.014 Y138.71 Z5.000
G1 X123.213 Y139.268 Z5.000
G1 X123.466 Y139.48 Z5.000
G1 X123.718 Y139.268 Z5.000
G1 X123.918 Y138.71 Z5.000
G1 X124.227 Y137.014 Z5.000
G1 X124.537 Y135.318 Z5.000
G1 X124.738 Y134.759 Z5.000
G1 X124.991 Y134.547 Z5.000
G1 X125.245 Y134.759 Z5.000
G1 X125.445 Y135.318 Z5.000
G1 X125.754 Y137.014 Z5.000
G1 X126.062 Y138.71 Z5.000
G1 X126.261 Y139.268 Z5.000
G1 X126.514 Y139.48 Z5.000
G1 X126.766 Y139.268 Z5.000
G1 X126.966 Y138.71 Z5.000
G1 X127.275 Y137.014 Z5.000
G1 X127.586 Y135.318 Z5.000
G1 X127.786 Y134.759 Z5.000
G1 X128.04 Y134.547 Z5.000
G1 X128.293 Y134.759 Z5.000
G1 X128.493 Y135.318 Z5.000
G1 X128.802 Y137.014 Z5.000
G1 X129.111 Y138.71 Z5.000
G1 X129.309 Y139.268 Z5.000
G1 X129.562 Y139.48 Z5.000
G1 X129.815 Y139.268 Z5.000
G1 X130.014 Y138.71 Z5.000
G1 X130.324 Y137.014 Z5.000
G1 X130.634 Y135.318 Z5.000
G1 X130.834 Y134.759 Z5.000
G1 X131.088 Y134.547 Z5.000
G1 X131.342 Y134.759 Z5.000
G1 X131.541 Y135.318 Z5.000
G1 X131.85 Y137.014 Z5.000
G1 X132.159 Y138.71 Z5.000
G1 X132.358 Y139.268 Z5.000
G1 X132.61 Y139.48 Z5.000
G1 X132.863 Y139.268 Z5.000
G1 X133.062 Y138.71 Z5.000
G1 X133.371 Y137.014 Z5.000
G1 X133.681 Y135.318 Z5.000
G1 X133.88 Y134.759 Z5.000
G1 X134.133 Y134.547 Z5.000
G1 X134.385 Y134.759 Z5.000
G1 X134.584 Y135.318 Z5.000
G1 X134.894 Y137.014 Z5.000
G1 X135.203 Y138.71 Z5.000
G1 X135.402 Y139.268 Z5.000
G1 X135.655 Y139.48 Z5.000
G1 X135.908 Y139.268 Z5.000
G1 X136.107 Y138.71 Z5.000
G1 X136.416 Y137.014 Z5.000
G1 X136.725 Y135.318 Z5.000
G1 X136.924 Y134.759 Z5.000
G1 X137.177 Y134.547 Z5.000
G1 X137.43 Y134.759 Z5.000
G1 X137.629 Y135.318 Z5.000
G1 X137.938 Y137.014 Z5.000
G1 X138.248 Y138.71 Z5.000
G1 X138.447 Y139.268 Z5.000
G1 X138.7 Y139.48 Z5.000
G1 X138.952 Y139.268 Z5.000
G1 X139.152 Y138.71 Z5.000
G1 X139.461 Y137.014 Z5.000
G1 X139.77 Y135.318 Z5.000
G1 X139.969 Y134.759 Z5.000
G1 X140.222 Y134.547 Z5.000
G1 X140.475 Y134.759 Z5.000
G1 X140.674 Y135.318 Z5.000
G1 X140.985 Y137.014 Z5.000
G1 X141.295 Y138.71 Z5.000
G1 X141.495 Y139.268 Z5.000
G1 X141.748 Y139.48 Z5.000
G1 X142.001 Y139.268 Z5.000
G1 X142.2 Y138.71 Z5.000
G1 X142.509 Y137.014 Z5.000
G1 X142.818 Y135.318 Z5.000
G1 X143.017 Y134.759 Z5.000
G1 X143.27 Y134.547 Z5.000
G1 X143.523 Y134.759 Z5.000
G1 X143.722 Y135.318 Z5.000
G1 X144.031 Y137.014 Z5.000
G1 X144.341 Y138.71 Z5.000
G1 X144.54 Y139.268 Z5.000
G1 X144.792 Y139.48 Z5.000
G1 X145.045 Y139.268 Z5.000
G1 X145.245 Y138.71 Z5.000
G1 X145.555 Y137.014 Z5.000
G1 X145.866 Y135.318 Z5.000
G1 X146.065 Y134.759 Z5.000
G1 X146.318 Y134.547 Z5.000
G1 X146.571 Y134.759 Z5.000
G1 X146.77 Y135.318 Z5.000
G1 X147.08 Y137.014 Z5.000
G1 X147.389 Y138.71 Z5.000
G1 X147.588 Y139.268 Z5.000
G1 X147.841 Y139.48 Z5.000
G1 X148.093 Y139.268 Z5.000
G1 X148.293 Y138.71 Z5.000
G1 X148.602 Y137.014 Z5.000
G1 X148.913 Y135.318 Z5.000
G1 X149.113 Y134.759 Z5.000
G1 X149.367 Y134.547 Z5.000
G1 X149.62 Y134.759 Z5.000
G1 X149.82 Y135.318 Z5.000
G1 X150.129 Y137.014 Z5.000
G1 X150.437 Y138.71 Z5.000
G1 X150.636 Y139.268 Z5.000
G1 X150.889 Y139.48 Z5.000
G1 X151.142 Y139.268 Z5.000
G1 X151.341 Y138.71 Z5.000
G1 X151.65 Y137.014 Z5.000
G1 X151.959 Y135.318 Z5.000
G1 X152.159 Y134.759 Z5.000
G1 X152.411 Y134.547 Z5.000
G1 X152.664 Y134.759 Z5.000
G1 X152.864 Y135.318 Z5.000
G1 X153.174 Y137.014 Z5.000
G1 X153.485 Y138.71 Z5.000
G1 X153.684 Y139.268 Z5.000
G1 X153.937 Y139.48 Z5.000
G1 X154.19 Y139.268 Z5.000
G1 X154.389 Y138.71 Z5.000
G1 X154.698 Y137.014 Z5.000
G1 X155.008 Y135.318 Z5.000
G1 X155.207 Y134.759 Z5.000
G1 X155.459 Y134.547 Z5.000
G1 X155.712 Y134.759 Z5.000
G1 X155.912 Y135.318 Z5.000
G1 X156.222 Y137.014 Z5.000
G1 X156.533 Y138.71 Z5.000
G1 X156.732 Y139.268 Z5.000
G1 X156.985 Y139.48 Z5.000
G1 X157.238 Y139.268 Z5.000
G1 X157.437 Y138.71 Z5.000
G1 X157.747 Y137.014 Z5.000
G1 X158.056 Y135.318 Z5.000
G1 X158.255 Y134.759 Z5.000
G1 X158.508 Y134.547 Z5.000
G1 X158.761 Y134.759 Z5.000
G1 X158.96 Y135.318 Z5.000
G1 X159.271 Y137.014 Z5.000
G1 X159.581 Y138.71 Z5.000
G1 X159.781 Y139.268 Z5.000
G1 X160.034 Y139.48 Z5.000
G1 X160.286 Y139.268 Z5.000
G1 X160.486 Y138.71 Z5.000
G1 X160.795 Y137.014 Z5.000
G1 X161.104 Y135.318 Z5.000
G1 X161.303 Y134.759 Z5.000
G1 X161.556 Y134.547 Z5.000
G1 X161.809 Y134.759 Z5.000
G1 X162.008 Y135.318 Z5.000
G1 X162.319 Y137.014 Z5.000
G1 X162.629 Y138.71 Z5.000
G1 X162.829 Y139.268 Z5.000
G1 X163.082 Y139.48 Z5.000
G1 X163.335 Y139.268 Z5.000
G1 X163.534 Y138.71 Z5.000
G1 X163.843 Y137.014 Z5.000
G1 X164.154 Y135.318 Z5.000
G1 X164.354 Y134.759 Z5.000
G1 X164.608 Y134.547 Z5.000
G1 X164.861 Y134.759 Z5.000
G1 X165.061 Y135.318 Z5.000
G1 X165.37 Y137.014 Z5.000
G1 X165.679 Y138.71 Z5.000
G1 X165.877 Y139.268 Z5.000
G1 X166.13 Y139.48 Z5.000
G1 X166.383 Y139.268 Z5.000
G1 X166.582 Y138.71 Z5.000
G1 X166.893 Y137.014 Z5.000
G1 X167.203 Y135.318 Z5.000
G1 X167.403 Y134.759 Z5.000
G1 X167.656 Y134.547 Z5.000
G1 X167.909 Y134.759 Z5.000
G1 X168.108 Y135.318 Z5.000
G1 X168.417 Y137.014 Z5.000
G1 X168.728 Y138.71 Z5.000
G1 X168.928 Y139.268 Z5.000
G1 X169.182 Y139.48 Z5.000
G1 X169.435 Y139.268 Z5.000
G1 X169.635 Y138.71 Z5.000
G1 X169.944 Y137.014 Z5.000
G1 X170.253 Y135.318 Z5.000
G1 X170.451 Y134.759 Z5.000
G1 X170.704 Y134.547 Z5.000
G1 X170.957 Y134.759 Z5.000
G1 X171.157 Y135.318 Z5.000
G1 X171.467 Y137.014 Z5.000
G1 X171.777 Y138.71 Z5.000
G1 X171.977 Y139.268 Z5.000
G1 X172.23 Y139.48 Z5.000
G1 X172.483 Y139.268 Z5.000
G1 X172.682 Y138.71 Z5.000
G1 X172.992 Y137.014 Z5.000
G1 X173.302 Y135.318 Z5.000
G1 X173.502 Y134.759 Z5.000
G1 X173.756 Y134.547 Z5.000
G1 X174.01 Y134.759 Z5.000
G1 X174.209 Y135.318 Z5.000
G1 X174.519 Y137.014 Z5.000
G1 X174.828 Y138.71 Z5.000
G1 X175.028 Y139.268 Z5.000
G1 X175.282 Y139.48 Z5.000
G1 X175.535 Y139.268 Z5.000
G1 X175.735 Y138.71 Z5.000
G1 X176.044 Y137.014 Z5.000
G1 X176.353 Y135.318 Z5.000
G1 X176.551 Y134.759 Z5.000
G1 X176.804 Y134.547 Z5.000
G1 X177.057 Y134.759 Z5.000
G1 X177.257 Y135.318 Z5.000
G1 X177.567 Y137.014 Z5.000
G1 X177.877 Y138.71 Z5.000
G1 X178.077 Y139.268 Z5.000
G1 X178.33 Y139.48 Z5.000
G1 X178.583 Y139.268 Z5.000
G1 X178.782 Y138.71 Z5.000
G1 X179.093 Y137.014 Z5.000
G1 X179.403 Y135.318 Z5.000
G1 X179.603 Y134.759 Z5.000
G1 X179.856 Y134.547 Z5.000
G1 X180.109 Y134.759 Z5.000
G1 X180.308 Y135.318 Z5.000
G1 X180.619 Y137.014 Z5.000
G1 X180.929 Y138.71 Z5.000
G1 X181.129 Y139.268 Z5.000
G1 X181.382 Y139.48 Z5.000
G1 X181.634 Y139.268 Z5.000
G1 X181.834 Y138.71 Z5.000
G1 X182.143 Y137.014 Z5.000
G1 X182.453 Y135.318 Z5.000
G1 X182.654 Y134.759 Z5.000
G1 X182.908 Y134.547 Z5.000
G1 X183.161 Y134.759 Z5.000
G1 X183.361 Y135.318 Z5.000
G1 X183.67 Y137.014 Z5.000
G1 X183.978 Y138.71 Z5.000
G1 X184.177 Y139.268 Z5.000
G1 X184.43 Y139.48 Z5.000
G1 X184.683 Y139.268 Z5.000
G1 X184.882 Y138.71 Z5.000
G1 X185.193 Y137.014 Z5.000
G1 X185.503 Y135.318 Z5.000
G1 X185.703 Y134.759 Z5.000
G1 X185.956 Y134.547 Z5.000
G1 X186.208 Y134.759 Z5.000
G1 X186.408 Y135.318 Z5.000
G1 X186.717 Y137.014 Z5.000
G1 X187.028 Y138.71 Z5.000
G1 X187.228 Y139.268 Z5.000
G1 X187.482 Y139.48 Z5.000
G1 X187.735 Y139.268 Z5.000
G1 X187.935 Y138.71 Z5.000
G1 X188.244 Y137.014 Z5.000
G1 X188.552 Y135.318 Z5.000
G1 X188.751 Y134.759 Z5.000
G1 X189.004 Y134.547 Z5.000
G1 X189.257 Y134.759 Z5.000
G1 X189.456 Y135.318 Z5.000
G1 X189.767 Y137.014 Z5.000
G1 X190.077 Y138.71 Z5.000
G1 X190.277 Y139.268 Z5.000
G1 X190.53 Y139.48 Z5.000
G1 X190.783 Y139.268 Z5.000
G1 X190.982 Y138.71 Z5.000
G1 X191.293 Y137.014 Z5.000
G1 X191.603 Y135.318 Z5.000
G1 X191.803 Y134.759 Z5.000
G1 X192.056 Y134.547 Z5.000
G1 X192.309 Y134.759 Z5.000
G1 X192.508 Y135.318 Z5.000
G1 X192.819 Y137.014 Z5.000
G1 X193.129 Y138.71 Z5.000
G1 X193.329 Y139.268 Z5.000
G1 X193.582 Y139.48 Z5.000
G1 X193.834 Y139.268 Z5.000
G1 X194.034 Y138.71 Z5.000
G1 X194.345 Y137.014 Z5.000
G1 X194.655 Y135.318 Z5.000
G1 X194.855 Y134.759 Z5.000
G1 X195.107 Y134.547 Z5.000
G1 X195.36 Y134.759 Z5.000
G1 X195.56 Y135.318 Z5.000
G1 X195.87 Y137.014 Z5.000
G1 X196.181 Y138.71 Z5.000
G1 X196.38 Y139.268 Z5.000
G1 X196.633 Y139.48 Z5.000
G1 X196.886 Y139.268 Z5.000
G1 X197.086 Y138.71 Z5.000
G1 X197.397 Y137.014 Z5.000
G1 X197.708 Y135.318 Z5.000
G1 X197.909 Y134.759 Z5.000
G1 X198.163 Y134.547 Z5.000
G1 X198.416 Y134.759 Z5.000
G1 X198.616 Y135.318 Z5.000
G1 X198.926 Y137.014 Z5.000
G1 X199.235 Y138.71 Z5.000
G1 X199.435 Y139.268 Z5.000
G1 X199.689 Y139.48 Z5.000
G1 X199.943 Y139.268 Z5.000
G1 X200.143 Y138.71 Z5.000
G1 X200.453 Y137.014 Z5.000
G1 X200.764 Y135.318 Z5.000
G1 X200.964 Y134.759 Z5.000
G1 X201.218 Y134.547 Z0.000
G1 Z8

G1 X201.218 Y133.19 Z0.000
G1 Z0

G1 X200.964 Y133.402 Z5.000
G1 X200.764 Y133.961 Z5.000
G1 X200.453 Y135.657 Z5.000
G1 X200.143 Y137.353 Z5.000
G1 X199.943 Y137.912 Z5.000
G1 X199.689 Y138.124 Z5.000
G1 X199.435 Y137.912 Z5.000
G1 X199.235 Y137.353 Z5.000
G1 X198.926 Y135.657 Z5.000
G1 X198.616 Y133.961 Z5.000
G1 X198.416 Y133.402 Z5.000
G1 X198.163 Y133.19 Z5.000
G1 X197.909 Y133.402 Z5.000
G1 X197.708 Y133.961 Z5.000
G1 X197.397 Y135.657 Z5.000
G1 X197.086 Y137.353 Z5.000
G1 X196.886 Y137.912 Z5.000
G1 X196.633 Y138.124 Z5.000
G1 X196.38 Y137.912 Z5.000
G1 X196.181 Y137.353 Z5.000
G1 X195.87 Y135.657 Z5.000
G1 X195.56 Y133.961 Z5.000
G1 X195.36 Y133.402 Z5.000
G1 X195.107 Y133.19 Z5.000
G1 X194.855 Y133.402 Z5.000
G1 X194.655 Y133.961 Z5.000
G1 X194.345 Y135.657 Z5.000
G1 X194.034 Y137.353 Z5.000
G1 X193.834 Y137.912 Z5.000
G1 X193.582 Y138.124 Z5.000
G1 X193.329 Y137.912 Z5.000
G1 X193.129 Y137.353 Z5.000
G1 X192.819 Y135.657 Z5.000
G1 X192.508 Y133.961 Z5.000
G1 X192.309 Y133.402 Z5.000
G1 X192.056 Y133.19 Z5.000
G1 X191.803 Y133.402 Z5.000
G1 X191.603 Y133.961 Z5.000
G1 X191.293 Y135.657 Z5.000
G1 X190.982 Y137.353 Z5.000
G1 X190.783 Y137.912 Z5.000
G1 X190.53 Y138.124 Z5.000
G1 X190.277 Y137.912 Z5.000
G1 X190.077 Y137.353 Z5.000
G1 X189.767 Y135.657 Z5.000
G1 X189.456 Y133.961 Z5.000
G1 X189.257 Y133.402 Z5.000
G1 X189.004 Y133.19 Z5.000
G1 X188.751 Y133.402 Z5.000
G1 X188.552 Y133.961 Z5.000
G1 X188.244 Y135.657 Z5.000
G1 X187.935 Y137.353 Z5.000
G1 X187.735 Y137.912 Z5.000
G1 X187.482 Y138.124 Z5.000
G1 X187.228 Y137.912 Z5.000
G1 X187.028 Y137.353 Z5.000
G1 X186.717 Y135.657 Z5.000
G1 X186.408 Y133.961 Z5.000
G1 X186.208 Y133.402 Z5.000
G1 X185.956 Y133.19 Z5.000
G1 X185.703 Y133.402 Z5.000
G1 X185.503 Y133.961 Z5.000
G1 X185.193 Y135.657 Z5.000
G1 X184.882 Y137.353 Z5.000
G1 X184.683 Y137.912 Z5.000
G1 X184.43 Y138.124 Z5.000
G1 X184.177 Y137.912 Z5.000
G1 X183.978 Y137.353 Z5.000
G1 X183.67 Y135.657 Z5.000
G1 X183.361 Y133.961 Z5.000
G1 X183.161 Y133.402 Z5.000
G1 X182.908 Y133.19 Z5.000
G1 X182.654 Y133.402 Z5.000
G1 X182.453 Y133.961 Z5.000
G1 X182.143 Y135.657 Z5.000
G1 X181.834 Y137.353 Z5.000
G1 X181.634 Y137.912 Z5.000
G1 X181.382 Y138.124 Z5.000
G1 X181.129 Y137.912 Z5.000
G1 X180.929 Y137.353 Z5.000
G1 X180.619 Y135.657 Z5.000
G1 X180.308 Y133.961 Z5.000
G1 X180.109 Y133.402 Z5.000
G1 X179.856 Y133.19 Z5.000
G1 X179.603 Y133.402 Z5.000
G1 X179.403 Y133.961 Z5.000
G1 X179.093 Y135.657 Z5.000
G1 X178.782 Y137.353 Z5.000
G1 X178.583 Y137.912 Z5.000
G1 X178.33 Y138.124 Z5.000
G1 X178.077 Y137.912 Z5.000
G1 X177.877 Y137.353 Z5.000
G1 X177.567 Y135.657 Z5.000
G1 X177.257 Y133.961 Z5.000
G1 X177.057 Y133.402 Z5.000
G1 X176.804 Y133.19 Z5.000
G1 X176.551 Y133.402 Z5.000
G1 X176.353 Y133.961 Z5.000
G1 X176.044 Y135.657 Z5.000
G1 X175.735 Y137.353 Z5.000
G1 X175.535 Y137.912 Z5.000
G1 X175.282 Y138.124 Z5.000
G1 X175.028 Y137.912 Z5.000
G1 X174.828 Y137.353 Z5.000
G1 X174.519 Y135.657 Z5.000
G1 X174.209 Y133.961 Z5.000
G1 X174.01 Y133.402 Z5.000
G1 X173.756 Y133.19 Z5.000
G1 X173.502 Y133.402 Z5.000
G1 X173.302 Y133.961 Z5.000
G1 X172.992 Y135.657 Z5.000
G1 X172.682 Y137.353 Z5.000
G1 X172.483 Y137.912 Z5.000
G1 X172.23 Y138.124 Z5.000
G1 X171.977 Y137.912 Z5.000
G1 X171.777 Y137.353 Z5.000
G1 X171.467 Y135.657 Z5.000
G1 X171.157 Y133.961 Z5.000
G1 X170.957 Y133.402 Z5.000
G1 X170.704 Y133.19 Z5.000
G1 X170.451 Y133.402 Z5.000
G1 X170.253 Y133.961 Z5.000
G1 X169.944 Y135.657 Z5.000
G1 X169.635 Y137.353 Z5.000
G1 X169.435 Y137.912 Z5.000
G1 X169.182 Y138.124 Z5.000
G1 X168.928 Y137.912 Z5.000
G1 X168.728 Y137.353 Z5.000
G1 X168.417 Y135.657 Z5.000
G1 X168.108 Y133.961 Z5.000
G1 X167.909 Y133.402 Z5.000
G1 X167.656 Y133.19 Z5.000
G1 X167.403 Y133.402 Z5.000
G1 X167.203 Y133.961 Z5.000
G1 X166.893 Y135.657 Z5.000
G1 X166.582 Y137.353 Z5.000
G1 X166.383 Y137.912 Z5.000
G1 X166.13 Y138.124 Z5.000
G1 X165.877 Y137.912 Z5.000
G1 X165.679 Y137.353 Z5.000
G1 X165.37 Y135.657 Z5.000
G1 X165.061 Y133.961 Z5.000
G1 X164.861 Y133.402 Z5.000
G1 X164.608 Y133.19 Z5.000
G1 X164.354 Y133.402 Z5.000
G1 X164.154 Y133.961 Z5.000
G1 X163.843 Y135.657 Z5.000
G1 X163.534 Y137.353 Z5.000
G1 X163.335 Y137.912 Z5.000
G1 X163.082 Y138.124 Z5.000
G1 X162.829 Y137.912 Z5.000
G1 X162.629 Y137.353 Z5.000
G1 X162.319 Y135.657 Z5.000
G1 X162.008 Y133.961 Z5.000
G1 X161.809 Y133.402 Z5.000
G1 X161.556 Y133.19 Z5.000
G1 X161.303 Y133.402 Z5.000
G1 X161.104 Y133.961 Z5.000
G1 X160.795 Y135.657 Z5.000
G1 X160.486 Y137.353 Z5.000
G1 X160.286 Y137.912 Z5.000
G1 X160.034 Y138.124 Z5.000
G1 X159.781 Y137.912 Z5.000
G1 X159.581 Y137.353 Z5.000
G1 X159.271 Y135.657 Z5.000
G1 X158.96 Y133.961 Z5.000
G1 X158.761 Y133.402 Z5.000
G1 X158.508 Y133.19 Z5.000
G1 X158.255 Y133.402 Z5.000
G1 X158.056 Y133.961 Z5.000
G1 X157.747 Y135.657 Z5.000
G1 X157.437 Y137.353 Z5.000
G1 X157.238 Y137.912 Z5.000
G1 X156.985 Y138.124 Z5.000
G1 X156.732 Y137.912 Z5.000
G1 X156.533 Y137.353 Z5.000
G1 X156.222 Y135.657 Z5.000
G1 X155.912 Y133.961 Z5.000
G1 X155.712 Y133.402 Z5.000
G1 X155.459 Y133.19 Z5.000
G1 X155.207 Y133.402 Z5.000
G1 X155.008 Y133.961 Z5.000
G1 X154.698 Y135.657 Z5.000
G1 X154.389 Y137.353 Z5.000
G1 X154.19 Y137.912 Z5.000
G1 X153.937 Y138.124 Z5.000
G1 X153.684 Y137.912 Z5.000
G1 X153.485 Y137.353 Z5.000
G1 X153.174 Y135.657 Z5.000
G1 X152.864 Y133.961 Z5.000
G1 X152.664 Y133.402 Z5.000
G1 X152.411 Y133.19 Z5.000
G1 X152.159 Y133.402 Z5.000
G1 X151.959 Y133.961 Z5.000
G1 X151.65 Y135.657 Z5.000
G1 X151.341 Y137.353 Z5.000
G1 X151.142 Y137.912 Z5.000
G1 X150.889 Y138.124 Z5.000
G1 X150.636 Y137.912 Z5.000
G1 X150.437 Y137.353 Z5.000
G1 X150.129 Y135.657 Z5.000
G1 X149.82 Y133.961 Z5.000
G1 X149.62 Y133.402 Z5.000
G1 X149.367 Y133.19 Z5.000
G1 X149.113 Y133.402 Z5.000
G1 X148.913 Y133.961 Z5.000
G1 X148.602 Y135.657 Z5.000
G1 X148.293 Y137.353 Z5.000
G1 X148.093 Y137.912 Z5.000
G1 X147.841 Y138.124 Z5.000
G1 X147.588 Y137.912 Z5.000
G1 X147.389 Y137.353 Z5.000
G1 X147.08 Y135.657 Z5.000
G1 X146.77 Y133.961 Z5.000
G1 X146.571 Y133.402 Z5.000
G1 X146.318 Y133.19 Z5.000
G1 X146.065 Y133.402 Z5.000
G1 X145.866 Y133.961 Z5.000
G1 X145.555 Y135.657 Z5.000
G1 X145.245 Y137.353 Z5.000
G1 X145.045 Y137.912 Z5.000
G1 X144.792 Y138.124 Z5.000
G1 X144.54 Y137.912 Z5.000
G1 X144.341 Y137.353 Z5.000
G1 X144.031 Y135.657 Z5.000
G1 X143.722 Y133.961 Z5.000
G1 X143.523 Y133.402 Z5.000
G1 X143.27 Y133.19 Z5.000
G1 X143.017 Y133.402 Z5.000
G1 X142.818 Y133.961 Z5.000
G1 X142.509 Y135.657 Z5.000
G1 X142.2 Y137.353 Z5.000
G1 X142.001 Y137.912 Z5.000
G1 X141.748 Y138.124 Z5.000
G1 X141.495 Y137.912 Z5.000
G1 X141.295 Y137.353 Z5.000
G1 X140.985 Y135.657 Z5.000
G1 X140.674 Y133.961 Z5.000
G1 X140.475 Y133.402 Z5.000
G1 X140.222 Y133.19 Z5.000
G1 X139.969 Y133.402 Z5.000
G1 X139.77 Y133.961 Z5.000
G1 X139.461 Y135.657 Z5.000
G1 X139.152 Y137.353 Z5.000
G1 X138.952 Y137.912 Z5.000
G1 X138.7 Y138.124 Z5.000
G1 X138.447 Y137.912 Z5.000
G1 X138.248 Y137.353 Z5.000
G1 X137.938 Y135.657 Z5.000
G1 X137.629 Y133.961 Z5.000
G1 X137.43 Y133.402 Z5.000
G1 X137.177 Y133.19 Z5.000
G1 X136.924 Y133.402 Z5.000
G1 X136.725 Y133.961 Z5.000
G1 X136.416 Y135.657 Z5.000
G1 X136.107 Y137.353 Z5.000
G1 X135.908 Y137.912 Z5.000
G1 X135.655 Y138.124 Z5.000
G1 X135.402 Y137.912 Z5.000
G1 X135.203 Y137.353 Z5.000
G1 X134.894 Y135.657 Z5.000
G1 X134.584 Y133.961 Z5.000
G1 X134.385 Y133.402 Z5.000
G1 X134.133 Y133.19 Z5.000
G1 X133.88 Y133.402 Z5.000
G1 X133.681 Y133.961 Z5.000
G1 X133.371 Y135.657 Z5.000
G1 X133.062 Y137.353 Z5.000
G1 X132.863 Y137.912 Z5.000
G1 X132.61 Y138.124 Z5.000
G1 X132.358 Y137.912 Z5.000
G1 X132.159 Y137.353 Z5.000
G1 X131.85 Y135.657 Z5.000
G1 X131.541 Y133.961 Z5.000
G1 X131.342 Y133.402 Z5.000
G1 X131.088 Y133.19 Z5.000
G1 X130.834 Y133.402 Z5.000
G1 X130.634 Y133.961 Z5.000
G1 X130.324 Y135.657 Z5.000
G1 X130.014 Y137.353 Z5.000
G1 X129.815 Y137.912 Z5.000
G1 X129.562 Y138.124 Z5.000
G1 X129.309 Y137.912 Z5.000
G1 X129.111 Y137.353 Z5.000
G1 X128.802 Y135.657 Z5.000
G1 X128.493 Y133.961 Z5.000
G1 X128.293 Y133.402 Z5.000
G1 X128.04 Y133.19 Z5.000
G1 X127.786 Y133.402 Z5.000
G1 X127.586 Y133.961 Z5.000
G1 X127.275 Y135.657 Z5.000
G1 X126.966 Y137.353 Z5.000
G1 X126.766 Y137.912 Z5.000
G1 X126.514 Y138.124 Z5.000
G1 X126.261 Y137.912 Z5.000
G1 X126.062 Y137.353 Z5.000
G1 X125.754 Y135.657 Z5.000
G1 X125.445 Y133.961 Z5.000
G1 X125.245 Y133.402 Z5.000
G1 X124.991 Y133.19 Z5.000
G1 X124.738 Y133.402 Z5.000
G1 X124.537 Y133.961 Z5.000
G1 X124.227 Y135.657 Z5.000
G1 X123.918 Y137.353 Z5.000
G1 X123.718 Y137.912 Z5.000
G1 X123.466 Y138.124 Z5.000
G1 X123.213 Y137.912 Z5.000
G1 X123.014 Y137.353 Z5.000
G1 X122.706 Y135.657 Z5.000
G1 X122.397 Y133.961 Z5.000
G1 X122.197 Y133.402 Z5.000
G1 X121.943 Y133.19 Z5.000
G1 X121.689 Y133.402 Z5.000
G1 X121.489 Y133.961 Z5.000
G1 X121.179 Y135.657 Z5.000
G1 X120.869 Y137.353 Z5.000
G1 X120.67 Y137.912 Z5.000
G1 X120.417 Y138.124 Z5.000
G1 X120.165 Y137.912 Z5.000
G1 X119.965 Y137.353 Z5.000
G1 X119.656 Y135.657 Z5.000
G1 X119.347 Y133.961 Z5.000
G1 X119.148 Y133.402 Z5.000
G1 X118.895 Y133.19 Z5.000
G1 X118.642 Y133.402 Z5.000
G1 X118.442 Y133.961 Z5.000
G1 X118.132 Y135.657 Z5.000
G1 X117.822 Y137.353 Z5.000
G1 X117.622 Y137.912 Z5.000
G1 X117.369 Y138.124 Z5.000
G1 X117.116 Y137.912 Z5.000
G1 X116.917 Y137.353 Z5.000
G1 X116.608 Y135.657 Z5.000
G1 X116.299 Y133.961 Z5.000
G1 X116.099 Y133.402 Z5.000
G1 X115.847 Y133.19 Z5.000
G1 X115.594 Y133.402 Z5.000
G1 X115.394 Y133.961 Z5.000
G1 X115.084 Y135.657 Z5.000
G1 X114.773 Y137.353 Z5.000
G1 X114.574 Y137.912 Z5.000
G1 X114.321 Y138.124 Z5.000
G1 X114.068 Y137.912 Z5.000
G1 X113.869 Y137.353 Z5.000
G1 X113.56 Y135.657 Z5.000
G1 X113.25 Y133.961 Z5.000
G1 X113.051 Y133.402 Z5.000
G1 X112.799 Y133.19 Z5.000
G1 X112.546 Y133.402 Z5.000
G1 X112.346 Y133.961 Z5.000
G1 X112.036 Y135.657 Z5.000
G1 X111.725 Y137.353 Z5.000
G1 X111.526 Y137.912 Z5.000
G1 X111.273 Y138.124 Z5.000
G1 X111.02 Y137.912 Z5.000
G1 X110.821 Y137.353 Z5.000
G1 X110.511 Y135.657 Z5.000
G1 X110.202 Y133.961 Z5.000
G1 X110.003 Y133.402 Z5.000
G1 X109.75 Y133.19 Z5.000
G1 X109.498 Y133.402 Z5.000
G1 X109.298 Y133.961 Z5.000
G1 X108.989 Y135.657 Z5.000
G1 X108.68 Y137.353 Z5.000
G1 X108.481 Y137.912 Z5.000
G1 X108.228 Y138.124 Z5.000
G1 X107.975 Y137.912 Z5.000
G1 X107.775 Y137.353 Z5.000
G1 X107.465 Y135.657 Z5.000
G1 X107.155 Y133.961 Z5.000
G1 X106.955 Y133.402 Z5.000
G1 X106.702 Y133.19 Z5.000
G1 X106.449 Y133.402 Z5.000
G1 X106.25 Y133.961 Z5.000
G1 X105.941 Y135.657 Z5.000
G1 X105.632 Y137.353 Z5.000
G1 X105.432 Y137.912 Z5.000
G1 X105.18 Y138.124 Z5.000
G1 X104.927 Y137.912 Z5.000
G1 X104.727 Y137.353 Z5.000
G1 X104.417 Y135.657 Z5.000
G1 X104.106 Y133.961 Z5.000
G1 X103.907 Y133.402 Z5.000
G1 X103.654 Y133.19 Z5.000
G1 X103.401 Y133.402 Z5.000
G1 X103.202 Y133.961 Z5.000
G1 X102.893 Y135.657 Z5.000
G1 X102.583 Y137.353 Z5.000
G1 X102.384 Y137.912 Z5.000
G1 X102.132 Y138.124 Z5.000
G1 X101.879 Y137.912 Z5.000
G1 X101.68 Y137.353 Z5.000
G1 X101.372 Y135.657 Z5.000
G1 X101.063 Y133.961 Z5.000
G1 X100.863 Y133.402 Z5.000
G1 X100.609 Y133.19 Z5.000
G1 X100.355 Y133.402 Z5.000
G1 X100.155 Y133.961 Z5.000
G1 X99.845 Y135.657 Z5.000
G1 X99.535 Y137.353 Z5.000
G1 X99.336 Y137.912 Z5.000
G1 X99.083 Y138.124 Z5.000
G1 X98.831 Y137.912 Z5.000
G1 X98.631 Y137.353 Z5.000
G1 X98.322 Y135.657 Z5.000
G1 X98.013 Y133.961 Z5.000
G1 X97.814 Y133.402 Z5.000
G1 X97.561 Y133.19 Z5.000
G1 X97.308 Y133.402 Z5.000
G1 X97.11 Y133.961 Z5.000
G1 X96.801 Y135.657 Z5.000
G1 X96.492 Y137.353 Z5.000
G1 X96.292 Y137.912 Z5.000
G1 X96.039 Y138.124 Z5.000
G1 X95.785 Y137.912 Z5.000
G1 X95.585 Y137.353 Z5.000
G1 X95.274 Y135.657 Z5.000
G1 X94.965 Y133.961 Z5.000
G1 X94.766 Y133.402 Z5.000
G1 X94.513 Y133.19 Z5.000
G1 X94.26 Y133.402 Z5.000
G1 X94.061 Y133.961 Z5.000
G1 X93.753 Y135.657 Z5.000
G1 X93.444 Y137.353 Z5.000
G1 X93.244 Y137.912 Z5.000
G1 X92.99 Y138.124 Z5.000
G1 X92.737 Y137.912 Z5.000
G1 X92.536 Y137.353 Z5.000
G1 X92.226 Y135.657 Z5.000
G1 X91.917 Y133.961 Z5.000
G1 X91.717 Y133.402 Z5.000
G1 X91.465 Y133.19 Z5.000
G1 X91.212 Y133.402 Z5.000
G1 X91.013 Y133.961 Z5.000
G1 X90.703 Y135.657 Z5.000
G1 X90.394 Y137.353 Z5.000
G1 X90.195 Y137.912 Z5.000
G1 X89.942 Y138.124 Z5.000
G1 X89.689 Y137.912 Z5.000
G1 X89.49 Y137.353 Z5.000
G1 X89.181 Y135.657 Z5.000
G1 X88.872 Y133.961 Z5.000
G1 X88.673 Y133.402 Z5.000
G1 X88.42 Y133.19 Z5.000
G1 X88.167 Y133.402 Z5.000
G1 X87.967 Y133.961 Z5.000
G1 X87.657 Y135.657 Z5.000
G1 X87.346 Y137.353 Z5.000
G1 X87.147 Y137.912 Z5.000
G1 X86.894 Y138.124 Z5.000
G1 X86.641 Y137.912 Z5.000
G1 X86.442 Y137.353 Z5.000
G1 X86.133 Y135.657 Z5.000
G1 X85.824 Y133.961 Z5.000
G1 X85.624 Y133.402 Z5.000
G1 X85.372 Y133.19 Z5.000
G1 X85.119 Y133.402 Z5.000
G1 X84.92 Y133.961 Z5.000
G1 X84.61 Y135.657 Z5.000
G1 X84.301 Y137.353 Z5.000
G1 X84.102 Y137.912 Z5.000
G1 X83.849 Y138.124 Z5.000
G1 X83.597 Y137.912 Z5.000
G1 X83.398 Y137.353 Z5.000
G1 X83.089 Y135.657 Z5.000
G1 X82.78 Y133.961 Z5.000
G1 X82.581 Y133.402 Z5.000
G1 X82.327 Y133.19 Z5.000
G1 X82.073 Y133.402 Z5.000
G1 X81.873 Y133.961 Z5.000
G1 X81.563 Y135.657 Z5.000
G1 X81.253 Y137.353 Z5.000
G1 X81.054 Y137.912 Z5.000
G1 X80.801 Y138.124 Z5.000
G1 X80.548 Y137.912 Z5.000
G1 X80.35 Y137.353 Z5.000
G1 X80.041 Y135.657 Z5.000
G1 X79.732 Y133.961 Z5.000
G1 X79.532 Y133.402 Z5.000
G1 X79.279 Y133.19 Z5.000
G1 X79.025 Y133.402 Z5.000
G1 X78.825 Y133.961 Z5.000
G1 X78.514 Y135.657 Z5.000
G1 X78.205 Y137.353 Z5.000
G1 X78.006 Y137.912 Z5.000
G1 X77.753 Y138.124 Z5.000
G1 X77.5 Y137.912 Z5.000
G1 X77.301 Y137.353 Z5.000
G1 X76.992 Y135.657 Z5.000
G1 X76.682 Y133.961 Z5.000
G1 X76.483 Y133.402 Z5.000
G1 X76.23 Y133.19 Z5.000
G1 X75.978 Y133.402 Z5.000
G1 X75.779 Y133.961 Z5.000
G1 X75.469 Y135.657 Z5.000
G1 X75.16 Y137.353 Z5.000
G1 X74.961 Y137.912 Z5.000
G1 X74.708 Y138.124 Z5.000
G1 X74.455 Y137.912 Z5.000
G1 X74.256 Y137.353 Z5.000
G1 X73.947 Y135.657 Z5.000
G1 X73.638 Y133.961 Z5.000
G1 X73.439 Y133.402 Z5.000
G1 X73.186 Y133.19 Z5.000
G1 X72.933 Y133.402 Z5.000
G1 X72.734 Y133.961 Z5.000
G1 X72.426 Y135.657 Z5.000
G1 X72.117 Y137.353 Z5.000
G1 X71.917 Y137.912 Z5.000
G1 X71.663 Y138.124 Z5.000
G1 X71.41 Y137.912 Z5.000
G1 X71.209 Y137.353 Z5.000
G1 X70.899 Y135.657 Z5.000
G1 X70.59 Y133.961 Z5.000
G1 X70.39 Y133.402 Z5.000
G1 X70.138 Y133.19 Z5.000
G1 X69.885 Y133.402 Z5.000
G1 X69.686 Y133.961 Z5.000
G1 X69.376 Y135.657 Z5.000
G1 X69.067 Y137.353 Z5.000
G1 X68.868 Y137.912 Z5.000
G1 X68.615 Y138.124 Z5.000
G1 X68.363 Y137.912 Z5.000
G1 X68.164 Y137.353 Z5.000
G1 X67.855 Y135.657 Z5.000
G1 X67.546 Y133.961 Z5.000
G1 X67.347 Y133.402 Z5.000
G1 X67.093 Y133.19 Z5.000
G1 X66.839 Y133.402 Z5.000
G1 X66.639 Y133.961 Z5.000
G1 X66.329 Y135.657 Z5.000
G1 X66.019 Y137.353 Z5.000
G1 X65.82 Y137.912 Z5.000
G1 X65.567 Y138.124 Z5.000
G1 X65.314 Y137.912 Z5.000
G1 X65.115 Y137.353 Z5.000
G1 X64.806 Y135.657 Z5.000
G1 X64.497 Y133.961 Z5.000
G1 X64.297 Y133.402 Z5.000
G1 X64.045 Y133.19 Z5.000
G1 X63.792 Y133.402 Z5.000
G1 X63.592 Y133.961 Z5.000
G1 X63.282 Y135.657 Z5.000
G1 X62.971 Y137.353 Z5.000
G1 X62.772 Y137.912 Z5.000
G1 X62.519 Y138.124 Z5.000
G1 X62.266 Y137.912 Z5.000
G1 X62.067 Y137.353 Z5.000
G1 X61.758 Y135.657 Z5.000
G1 X61.448 Y133.961 Z5.000
G1 X61.249 Y133.402 Z5.000
G1 X60.996 Y133.19 Z5.000
G1 X60.744 Y133.402 Z5.000
G1 X60.544 Y133.961 Z5.000
G1 X60.235 Y135.657 Z5.000
G1 X59.926 Y137.353 Z5.000
G1 X59.727 Y137.912 Z5.000
G1 X59.474 Y138.124 Z5.000
G1 X59.221 Y137.912 Z5.000
G1 X59.022 Y137.353 Z5.000
G1 X58.713 Y135.657 Z5.000
G1 X58.404 Y133.961 Z5.000
G1 X58.204 Y133.402 Z5.000
G1 X57.952 Y133.19 Z5.000
G1 X57.699 Y133.402 Z5.000
G1 X57.5 Y133.961 Z5.000
G1 X57.191 Y135.657 Z5.000
G1 X56.881 Y137.353 Z5.000
G1 X56.682 Y137.912 Z5.000
G1 X56.429 Y138.124 Z5.000
G1 X56.177 Y137.912 Z5.000
G1 X55.977 Y137.353 Z5.000
G1 X55.668 Y135.657 Z5.000
G1 X55.359 Y133.961 Z5.000
G1 X55.16 Y133.402 Z5.000
G1 X54.907 Y133.19 Z5.000
G1 X54.654 Y133.402 Z5.000
G1 X54.455 Y133.961 Z5.000
G1 X54.146 Y135.657 Z5.000
G1 X53.837 Y137.353 Z5.000
G1 X53.637 Y137.912 Z5.000
G1 X53.385 Y138.124 Z5.000
G1 X53.132 Y137.912 Z5.000
G1 X52.933 Y137.353 Z5.000
G1 X52.625 Y135.657 Z5.000
G1 X52.316 Y133.961 Z5.000
G1 X52.116 Y133.402 Z5.000
G1 X51.862 Y133.19 Z5.000
G1 X51.608 Y133.402 Z5.000
G1 X51.408 Y133.961 Z5.000
G1 X51.098 Y135.657 Z5.000
G1 X50.788 Y137.353 Z5.000
G1 X50.589 Y137.912 Z5.000
G1 X50.336 Y138.124 Z5.000
G1 X50.084 Y137.912 Z5.000
G1 X49.885 Y137.353 Z5.000
G1 X49.575 Y135.657 Z5.000
G1 X49.266 Y133.961 Z5.000
G1 X49.067 Y133.402 Z5.000
G1 X48.814 Y133.19 Z5.000
G1 X48.561 Y133.402 Z5.000
G1 X48.362 Y133.961 Z5.000
G1 X48.053 Y135.657 Z5.000
G1 X47.742 Y137.353 Z5.000
G1 X47.542 Y137.912 Z5.000
G1 X47.288 Y138.124 Z5.000
G1 Z8

G1 X47.288 Y136.767 Z5.000
G1 Z0

G1 X47.542 Y136.555 Z5.000
G1 X47.742 Y135.996 Z5.000
G1 X48.053 Y134.3 Z5.000
G1 X48.362 Y132.604 Z5.000
G1 X48.561 Y132.045 Z5.000
G1 X48.814 Y131.833 Z5.000
G1 X49.067 Y132.045 Z5.000
G1 X49.266 Y132.604 Z5.000
G1 X49.575 Y134.3 Z5.000
G1 X49.885 Y135.996 Z5.000
G1 X50.084 Y136.555 Z5.000
G1 X50.336 Y136.767 Z5.000
G1 X50.589 Y136.555 Z5.000
G1 X50.788 Y135.996 Z5.000
G1 X51.098 Y134.3 Z5.000
G1 X51.408 Y132.604 Z5.000
G1 X51.608 Y132.045 Z5.000
G1 X51.862 Y131.833 Z5.000
G1 X52.116 Y132.045 Z5.000
G1 X52.316 Y132.604 Z5.000
G1 X52.625 Y134.3 Z5.000
G1 X52.933 Y135.996 Z5.000
G1 X53.132 Y136.555 Z5.000
G1 X53.385 Y136.767 Z5.000
G1 X53.637 Y136.555 Z5.000
G1 X53.837 Y135.996 Z5.000
G1 X54.146 Y134.3 Z5.000
G1 X54.455 Y132.604 Z5.000
G1 X54.654 Y132.045 Z5.000
G1 X54.907 Y131.833 Z5.000
G1 X55.16 Y132.045 Z5.000
G1 X55.359 Y132.604 Z5.000
G1 X55.668 Y134.3 Z5.000
G1 X55.977 Y135.996 Z5.000
G1 X56.177 Y136.555 Z5.000
G1 X56.429 Y136.767 Z5.000
G1 X56.682 Y136.555 Z5.000
G1 X56.881 Y135.996 Z5.000
G1 X57.191 Y134.3 Z5.000
G1 X57.5 Y132.604 Z5.000
G1 X57.699 Y132.045 Z5.000
G1 X57.952 Y131.833 Z5.000
G1 X58.204 Y132.045 Z5.000
G1 X58.404 Y132.604 Z5.000
G1 X58.713 Y134.3 Z5.000
G1 X59.022 Y135.996 Z5.000
G1 X59.221 Y136.555 Z5.000
G1 X59.474 Y136.767 Z5.000
G1 X59.727 Y136.555 Z5.000
G1 X59.926 Y135.996 Z5.000
G1 X60.235 Y134.3 Z5.000
G1 X60.544 Y132.604 Z5.000
G1 X60.744 Y132.045 Z5.000
G1 X60.996 Y131.833 Z5.000
G1 X61.249 Y132.045 Z5.000
G1 X61.448 Y132.604 Z5.000
G1 X61.758 Y134.3 Z5.000
G1 X62.067 Y135.996 Z5.000
G1 X62.266 Y136.555 Z5.000
G1 X62.519 Y136.767 Z5.000
G1 X62.772 Y136.555 Z5.000
G1 X62.971 Y135.996 Z5.000
G1 X63.282 Y134.3 Z5.000
G1 X63.592 Y132.604 Z5.000
G1 X63.792 Y132.045 Z5.000
G1 X64.045 Y131.833 Z5.000
G1 X64.297 Y132.045 Z5.000
G1 X64.497 Y132.604 Z5.000
G1 X64.806 Y134.3 Z5.000
G1 X65.115 Y135.996 Z5.000
G1 X65.314 Y136.555 Z5.000
G1 X65.567 Y136.767 Z5.000
G1 X65.82 Y136.555 Z5.000
G1 X66.019 Y135.996 Z5.000
G1 X66.329 Y134.3 Z5.000
G1 X66.639 Y132.604 Z5.000
G1 X66.839 Y132.045 Z5.000
G1 X67.093 Y131.833 Z5.000
G1 X67.347 Y132.045 Z5.000
G1 X67.546 Y132.604 Z5.000
G1 X67.855 Y134.3 Z5.000
G1 X68.164 Y135.996 Z5.000
G1 X68.363 Y136.555 Z5.000
G1 X68.615 Y136.767 Z5.000
G1 X68.868 Y136.555 Z5.000
G1 X69.067 Y135.996 Z5.000
G1 X69.376 Y134.3 Z5.000
G1 X69.686 Y132.604 Z5.000
G1 X69.885 Y132.045 Z5.000
G1 X70.138 Y131.833 Z5.000
G1 X70.39 Y132.045 Z5.000
G1 X70.59 Y132.604 Z5.000
G1 X70.899 Y134.3 Z5.000
G1 X71.209 Y135.996 Z5.000
G1 X71.41 Y136.555 Z5.000
G1 X71.663 Y136.767 Z5.000
G1 X71.917 Y136.555 Z5.000
G1 X72.117 Y135.996 Z5.000
G1 X72.426 Y134.3 Z5.000
G1 X72.734 Y132.604 Z5.000
G1 X72.933 Y132.045 Z5.000
G1 X73.186 Y131.833 Z5.000
G1 X73.439 Y132.045 Z5.000
G1 X73.638 Y132.604 Z5.000
G1 X73.947 Y134.3 Z5.000
G1 X74.256 Y135.996 Z5.000
G1 X74.455 Y136.555 Z5.000
G1 X74.708 Y136.767 Z5.000
G1 X74.961 Y136.555 Z5.000
G1 X75.16 Y135.996 Z5.000
G1 X75.469 Y134.3 Z5.000
G1 X75.779 Y132.604 Z5.000
G1 X75.978 Y132.045 Z5.000
G1 X76.23 Y131.833 Z5.000
G1 X76.483 Y132.045 Z5.000
G1 X76.682 Y132.604 Z5.000
G1 X76.992 Y134.3 Z5.000
G1 X77.301 Y135.996 Z5.000
G1 X77.5 Y136.555 Z5.000
G1 X77.753 Y136.767 Z5.000
G1 X78.006 Y136.555 Z5.000
G1 X78.205 Y135.996 Z5.000
G1 X78.514 Y134.3 Z5.000
G1 X78.825 Y132.604 Z5.000
G1 X79.025 Y132.045 Z5.000
G1 X79.279 Y131.833 Z5.000
G1 X79.532 Y132.045 Z5.000
G1 X79.732 Y132.604 Z5.000
G1 X80.041 Y134.3 Z5.000
G1 X80.35 Y135.996 Z5.000
G1 X80.548 Y136.555 Z5.000
G1 X80.801 Y136.767 Z5.000
G1 X81.054 Y136.555 Z5.000
G1 X81.253 Y135.996 Z5.000
G1 X81.563 Y134.3 Z5.000
G1 X81.873 Y132.604 Z5.000
G1 X82.073 Y132.045 Z5.000
G1 X82.327 Y131.833 Z5.000
G1 X82.581 Y132.045 Z5.000
G1 X82.78 Y132.604 Z5.000
G1 X83.089 Y134.3 Z5.000
G1 X83.398 Y135.996 Z5.000
G1 X83.597 Y136.555 Z5.000
G1 X83.849 Y136.767 Z5.000
G1 X84.102 Y136.555 Z5.000
G1 X84.301 Y135.996 Z5.000
G1 X84.61 Y134.3 Z5.000
G1 X84.92 Y132.604 Z5.000
G1 X85.119 Y132.045 Z5.000
G1 X85.372 Y131.833 Z5.000
G1 X85.624 Y132.045 Z5.000
G1 X85.824 Y132.604 Z5.000
G1 X86.133 Y134.3 Z5.000
G1 X86.442 Y135.996 Z5.000
G1 X86.641 Y136.555 Z5.000
G1 X86.894 Y136.767 Z5.000
G1 X87.147 Y136.555 Z5.000
G1 X87.346 Y135.996 Z5.000
G1 X87.657 Y134.3 Z5.000
G1 X87.967 Y132.604 Z5.000
G1 X88.167 Y132.045 Z5.000
G1 X88.42 Y131.833 Z5.000
G1 X88.673 Y132.045 Z5.000
G1 X88.872 Y132.604 Z5.000
G1 X89.181 Y134.3 Z5.000
G1 X89.49 Y135.996 Z5.000
G1 X89.689 Y136.555 Z5.000
G1 X89.942 Y136.767 Z5.000
G1 X90.195 Y136.555 Z5.000
G1 X90.394 Y135.996 Z5.000
G1 X90.703 Y134.3 Z5.000
G1 X91.013 Y132.604 Z5.000
G1 X91.212 Y132.045 Z5.000
G1 X91.465 Y131.833 Z5.000
G1 X91.717 Y132.045 Z5.000
G1 X91.917 Y132.604 Z5.000
G1 X92.226 Y134.3 Z5.000
G1 X92.536 Y135.996 Z5.000
G1 X92.737 Y136.555 Z5.000
G1 X92.99 Y136.767 Z5.000
G1 X93.244 Y136.555 Z5.000
G1 X93.444 Y135.996 Z5.000
G1 X93.753 Y134.3 Z5.000
G1 X94.061 Y132.604 Z5.000
G1 X94.26 Y132.045 Z5.000
G1 X94.513 Y131.833 Z5.000
G1 X94.766 Y132.045 Z5.000
G1 X94.965 Y132.604 Z5.000
G1 X95.274 Y134.3 Z5.000
G1 X95.585 Y135.996 Z5.000
G1 X95.785 Y136.555 Z5.000
G1 X96.039 Y136.767 Z5.000
G1 X96.292 Y136.555 Z5.000
G1 X96.492 Y135.996 Z5.000
G1 X96.801 Y134.3 Z5.000
G1 X97.11 Y132.604 Z5.000
G1 X97.308 Y132.045 Z5.000
G1 X97.561 Y131.833 Z5.000
G1 X97.814 Y132.045 Z5.000
G1 X98.013 Y132.604 Z5.000
G1 X98.322 Y134.3 Z5.000
G1 X98.631 Y135.996 Z5.000
G1 X98.831 Y136.555 Z5.000
G1 X99.083 Y136.767 Z5.000
G1 X99.336 Y136.555 Z5.000
G1 X99.535 Y135.996 Z5.000
G1 X99.845 Y134.3 Z5.000
G1 X100.155 Y132.604 Z5.000
G1 X100.355 Y132.045 Z5.000
G1 X100.609 Y131.833 Z5.000
G1 X100.863 Y132.045 Z5.000
G1 X101.063 Y132.604 Z5.000
G1 X101.372 Y134.3 Z5.000
G1 X101.68 Y135.996 Z5.000
G1 X101.879 Y136.555 Z5.000
G1 X102.132 Y136.767 Z5.000
G1 X102.384 Y136.555 Z5.000
G1 X102.583 Y135.996 Z5.000
G1 X102.893 Y134.3 Z5.000
G1 X103.202 Y132.604 Z5.000
G1 X103.401 Y132.045 Z5.000
G1 X103.654 Y131.833 Z5.000
G1 X103.907 Y132.045 Z5.000
G1 X104.106 Y132.604 Z5.000
G1 X104.417 Y134.3 Z5.000
G1 X104.727 Y135.996 Z5.000
G1 X104.927 Y136.555 Z5.000
G1 X105.18 Y136.767 Z5.000
G1 X105.432 Y136.555 Z5.000
G1 X105.632 Y135.996 Z5.000
G1 X105.941 Y134.3 Z5.000
G1 X106.25 Y132.604 Z5.000
G1 X106.449 Y132.045 Z5.000
G1 X106.702 Y131.833 Z5.000
G1 X106.955 Y132.045 Z5.000
G1 X107.155 Y132.604 Z5.000
G1 X107.465 Y134.3 Z5.000
G1 X107.775 Y135.996 Z5.000
G1 X107.975 Y136.555 Z5.000
G1 X108.228 Y136.767 Z5.000
G1 X108.481 Y136.555 Z5.000
G1 X108.68 Y135.996 Z5.000
G1 X108.989 Y134.3 Z5.000
G1 X109.298 Y132.604 Z5.000
G1 X109.498 Y132.045 Z5.000
G1 X109.75 Y131.833 Z5.000
G1 X110.003 Y132.045 Z5.000
G1 X110.202 Y132.604 Z5.000
G1 X110.511 Y134.3 Z5.000
G1 X110.821 Y135.996 Z5.000
G1 X111.02 Y136.555 Z5.000
G1 X111.273 Y136.767 Z5.000
G1 X111.526 Y136.555 Z5.000
G1 X111.725 Y135.996 Z5.000
G1 X112.036 Y134.3 Z5.000
G1 X112.346 Y132.604 Z5.000
G1 X112.546 Y132.045 Z5.000
G1 X112.799 Y131.833 Z5.000
G1 X113.051 Y132.045 Z5.000
G1 X113.25 Y132.604 Z5.000
G1 X113.56 Y134.3 Z5.000
G1 X113.869 Y135.996 Z5.000
G1 X114.068 Y136.555 Z5.000
G1 X114.321 Y136.767 Z5.000
G1 X114.574 Y136.555 Z5.000
G1 X114.773 Y135.996 Z5.000
G1 X115.084 Y134.3 Z5.000
G1 X115.394 Y132.604 Z5.000
G1 X115.594 Y132.045 Z5.000
G1 X115.847 Y131.833 Z5.000
G1 X116.099 Y132.045 Z5.000
G1 X116.299 Y132.604 Z5.000
G1 X116.608 Y134.3 Z5.000
G1 X116.917 Y135.996 Z5.000
G1 X117.116 Y136.555 Z5.000
G1 X117.369 Y136.767 Z5.000
G1 X117.622 Y136.555 Z5.000
G1 X117.822 Y135.996 Z5.000
G1 X118.132 Y134.3 Z5.000
G1 X118.442 Y132.604 Z5.000
G1 X118.642 Y132.045 Z5.000
G1 X118.895 Y131.833 Z5.000
G1 X119.148 Y132.045 Z5.000
G1 X119.347 Y132.604 Z5.000
G1 X119.656 Y134.3 Z5.000
G1 X119.965 Y135.996 Z5.000
G1 X120.165 Y136.555 Z5.000
G1 X120.417 Y136.767 Z5.000
G1 X120.67 Y136.555 Z5.000
G1 X120.869 Y135.996 Z5.000
G1 X121.179 Y134.3 Z5.000
G1 X121.489 Y132.604 Z5.000
G1 X121.689 Y132.045 Z5.000
G1 X121.943 Y131.833 Z5.000
G1 X122.197 Y132.045 Z5.000
G1 X122.397 Y132.604 Z5.000
G1 X122.706 Y134.3 Z5.000
G1 X123.014 Y135.996 Z5.000
G1 X123.213 Y136.555 Z5.000
G1 X123.466 Y136.767 Z5.000
G1 X123.718 Y136.555 Z5.000
G1 X123.918 Y135.996 Z5.000
G1 X124.227 Y134.3 Z5.000
G1 X124.537 Y132.604 Z5.000
G1 X124.738 Y132.045 Z5.000
G1 X124.991 Y131.833 Z5.000
G1 X125.245 Y132.045 Z5.000
G1 X125.445 Y132.604 Z5.000
G1 X125.754 Y134.3 Z5.000
G1 X126.062 Y135.996 Z5.000
G1 X126.261 Y136.555 Z5.000
G1 X126.514 Y136.767 Z5.000
G1 X126.766 Y136.555 Z5.000
G1 X126.966 Y135.996 Z5.000
G1 X127.275 Y134.3 Z5.000
G1 X127.586 Y132.604 Z5.000
G1 X127.786 Y132.045 Z5.000
G1 X128.04 Y131.833 Z5.000
G1 X128.293 Y132.045 Z5.000
G1 X128.493 Y132.604 Z5.000
G1 X128.802 Y134.3 Z5.000
G1 X129.111 Y135.996 Z5.000
G1 X129.309 Y136.555 Z5.000
G1 X129.562 Y136.767 Z5.000
G1 X129.815 Y136.555 Z5.000
G1 X130.014 Y135.996 Z5.000
G1 X130.324 Y134.3 Z5.000
G1 X130.634 Y132.604 Z5.000
G1 X130.834 Y132.045 Z5.000
G1 X131.088 Y131.833 Z5.000
G1 X131.342 Y132.045 Z5.000
G1 X131.541 Y132.604 Z5.000
G1 X131.85 Y134.3 Z5.000
G1 X132.159 Y135.996 Z5.000
G1 X132.358 Y136.555 Z5.000
G1 X132.61 Y136.767 Z5.000
G1 X132.863 Y136.555 Z5.000
G1 X133.062 Y135.996 Z5.000
G1 X133.371 Y134.3 Z5.000
G1 X133.681 Y132.604 Z5.000
G1 X133.88 Y132.045 Z5.000
G1 X134.133 Y131.833 Z5.000
G1 X134.385 Y132.045 Z5.000
G1 X134.584 Y132.604 Z5.000
G1 X134.894 Y134.3 Z5.000
G1 X135.203 Y135.996 Z5.000
G1 X135.402 Y136.555 Z5.000
G1 X135.655 Y136.767 Z5.000
G1 X135.908 Y136.555 Z5.000
G1 X136.107 Y135.996 Z5.000
G1 X136.416 Y134.3 Z5.000
G1 X136.725 Y132.604 Z5.000
G1 X136.924 Y132.045 Z5.000
G1 X137.177 Y131.833 Z5.000
G1 X137.43 Y132.045 Z5.000
G1 X137.629 Y132.604 Z5.000
G1 X137.938 Y134.3 Z5.000
G1 X138.248 Y135.996 Z5.000
G1 X138.447 Y136.555 Z5.000
G1 X138.7 Y136.767 Z5.000
G1 X138.952 Y136.555 Z5.000
G1 X139.152 Y135.996 Z5.000
G1 X139.461 Y134.3 Z5.000
G1 X139.77 Y132.604 Z5.000
G1 X139.969 Y132.045 Z5.000
G1 X140.222 Y131.833 Z5.000
G1 X140.475 Y132.045 Z5.000
G1 X140.674 Y132.604 Z5.000
G1 X140.985 Y134.3 Z5.000
G1 X141.295 Y135.996 Z5.000
G1 X141.495 Y136.555 Z5.000
G1 X141.748 Y136.767 Z5.000
G1 X142.001 Y136.555 Z5.000
G1 X142.2 Y135.996 Z5.000
G1 X142.509 Y134.3 Z5.000
G1 X142.818 Y132.604 Z5.000
G1 X143.017 Y132.045 Z5.000
G1 X143.27 Y131.833 Z5.000
G1 X143.523 Y132.045 Z5.000
G1 X143.722 Y132.604 Z5.000
G1 X144.031 Y134.3 Z5.000
G1 X144.341 Y135.996 Z5.000
G1 X144.54 Y136.555 Z5.000
G1 X144.792 Y136.767 Z5.000
G1 X145.045 Y136.555 Z5.000
G1 X145.245 Y135.996 Z5.000
G1 X145.555 Y134.3 Z5.000
G1 X145.866 Y132.604 Z5.000
G1 X146.065 Y132.045 Z5.000
G1 X146.318 Y131.833 Z5.000
G1 X146.571 Y132.045 Z5.000
G1 X146.77 Y132.604 Z5.000
G1 X147.08 Y134.3 Z5.000
G1 X147.389 Y135.996 Z5.000
G1 X147.588 Y136.555 Z5.000
G1 X147.841 Y136.767 Z5.000
G1 X148.093 Y136.555 Z5.000
G1 X148.293 Y135.996 Z5.000
G1 X148.602 Y134.3 Z5.000
G1 X148.913 Y132.604 Z5.000
G1 X149.113 Y132.045 Z5.000
G1 X149.367 Y131.833 Z5.000
G1 X149.62 Y132.045 Z5.000
G1 X149.82 Y132.604 Z5.000
G1 X150.129 Y134.3 Z5.000
G1 X150.437 Y135.996 Z5.000
G1 X150.636 Y136.555 Z5.000
G1 X150.889 Y136.767 Z5.000
G1 X151.142 Y136.555 Z5.000
G1 X151.341 Y135.996 Z5.000
G1 X151.65 Y134.3 Z5.000
G1 X151.959 Y132.604 Z5.000
G1 X152.159 Y132.045 Z5.000
G1 X152.411 Y131.833 Z5.000
G1 X152.664 Y132.045 Z5.000
G1 X152.864 Y132.604 Z5.000
G1 X153.174 Y134.3 Z5.000
G1 X153.485 Y135.996 Z5.000
G1 X153.684 Y136.555 Z5.000
G1 X153.937 Y136.767 Z5.000
G1 X154.19 Y136.555 Z5.000
G1 X154.389 Y135.996 Z5.000
G1 X154.698 Y134.3 Z5.000
G1 X155.008 Y132.604 Z5.000
G1 X155.207 Y132.045 Z5.000
G1 X155.459 Y131.833 Z5.000
G1 X155.712 Y132.045 Z5.000
G1 X155.912 Y132.604 Z5.000
G1 X156.222 Y134.3 Z5.000
G1 X156.533 Y135.996 Z5.000
G1 X156.732 Y136.555 Z5.000
G1 X156.985 Y136.767 Z5.000
G1 X157.238 Y136.555 Z5.000
G1 X157.437 Y135.996 Z5.000
G1 X157.747 Y134.3 Z5.000
G1 X158.056 Y132.604 Z5.000
G1 X158.255 Y132.045 Z5.000
G1 X158.508 Y131.833 Z5.000
G1 X158.761 Y132.045 Z5.000
G1 X158.96 Y132.604 Z5.000
G1 X159.271 Y134.3 Z5.000
G1 X159.581 Y135.996 Z5.000
G1 X159.781 Y136.555 Z5.000
G1 X160.034 Y136.767 Z5.000
G1 X160.286 Y136.555 Z5.000
G1 X160.486 Y135.996 Z5.000
G1 X160.795 Y134.3 Z5.000
G1 X161.104 Y132.604 Z5.000
G1 X161.303 Y132.045 Z5.000
G1 X161.556 Y131.833 Z5.000
G1 X161.809 Y132.045 Z5.000
G1 X162.008 Y132.604 Z5.000
G1 X162.319 Y134.3 Z5.000
G1 X162.629 Y135.996 Z5.000
G1 X162.829 Y136.555 Z5.000
G1 X163.082 Y136.767 Z5.000
G1 X163.335 Y136.555 Z5.000
G1 X163.534 Y135.996 Z5.000
G1 X163.843 Y134.3 Z5.000
G1 X164.154 Y132.604 Z5.000
G1 X164.354 Y132.045 Z5.000
G1 X164.608 Y131.833 Z5.000
G1 X164.861 Y132.045 Z5.000
G1 X165.061 Y132.604 Z5.000
G1 X165.37 Y134.3 Z5.000
G1 X165.679 Y135.996 Z5.000
G1 X165.877 Y136.555 Z5.000
G1 X166.13 Y136.767 Z5.000
G1 X166.383 Y136.555 Z5.000
G1 X166.582 Y135.996 Z5.000
G1 X166.893 Y134.3 Z5.000
G1 X167.203 Y132.604 Z5.000
G1 X167.403 Y132.045 Z5.000
G1 X167.656 Y131.833 Z5.000
G1 X167.909 Y132.045 Z5.000
G1 X168.108 Y132.604 Z5.000
G1 X168.417 Y134.3 Z5.000
G1 X168.728 Y135.996 Z5.000
G1 X168.928 Y136.555 Z5.000
G1 X169.182 Y136.767 Z5.000
G1 X169.435 Y136.555 Z5.000
G1 X169.635 Y135.996 Z5.000
G1 X169.944 Y134.3 Z5.000
G1 X170.253 Y132.604 Z5.000
G1 X170.451 Y132.045 Z5.000
G1 X170.704 Y131.833 Z5.000
G1 X170.957 Y132.045 Z5.000
G1 X171.157 Y132.604 Z5.000
G1 X171.467 Y134.3 Z5.000
G1 X171.777 Y135.996 Z5.000
G1 X171.977 Y136.555 Z5.000
G1 X172.23 Y136.767 Z5.000
G1 X172.483 Y136.555 Z5.000
G1 X172.682 Y135.996 Z5.000
G1 X172.992 Y134.3 Z5.000
G1 X173.302 Y132.604 Z5.000
G1 X173.502 Y132.045 Z5.000
G1 X173.756 Y131.833 Z5.000
G1 X174.01 Y132.045 Z5.000
G1 X174.209 Y132.604 Z5.000
G1 X174.519 Y134.3 Z5.000
G1 X174.828 Y135.996 Z5.000
G1 X175.028 Y136.555 Z5.000
G1 X175.282 Y136.767 Z5.000
G1 X175.535 Y136.555 Z5.000
G1 X175.735 Y135.996 Z5.000
G1 X176.044 Y134.3 Z5.000
G1 X176.353 Y132.604 Z5.000
G1 X176.551 Y132.045 Z5.000
G1 X176.804 Y131.833 Z5.000
G1 X177.057 Y132.045 Z5.000
G1 X177.257 Y132.604 Z5.000
G1 X177.567 Y134.3 Z5.000
G1 X177.877 Y135.996 Z5.000
G1 X178.077 Y136.555 Z5.000
G1 X178.33 Y136.767 Z5.000
G1 X178.583 Y136.555 Z5.000
G1 X178.782 Y135.996 Z5.000
G1 X179.093 Y134.3 Z5.000
G1 X179.403 Y132.604 Z5.000
G1 X179.603 Y132.045 Z5.000
G1 X179.856 Y131.833 Z5.000
G1 X180.109 Y132.045 Z5.000
G1 X180.308 Y132.604 Z5.000
G1 X180.619 Y134.3 Z5.000
G1 X180.929 Y135.996 Z5.000
G1 X181.129 Y136.555 Z5.000
G1 X181.382 Y136.767 Z5.000
G1 X181.634 Y136.555 Z5.000
G1 X181.834 Y135.996 Z5.000
G1 X182.143 Y134.3 Z5.000
G1 X182.453 Y132.604 Z5.000
G1 X182.654 Y132.045 Z5.000
G1 X182.908 Y131.833 Z5.000
G1 X183.161 Y132.045 Z5.000
G1 X183.361 Y132.604 Z5.000
G1 X183.67 Y134.3 Z5.000
G1 X183.978 Y135.996 Z5.000
G1 X184.177 Y136.555 Z5.000
G1 X184.43 Y136.767 Z5.000
G1 X184.683 Y136.555 Z5.000
G1 X184.882 Y135.996 Z5.000
G1 X185.193 Y134.3 Z5.000
G1 X185.503 Y132.604 Z5.000
G1 X185.703 Y132.045 Z5.000
G1 X185.956 Y131.833 Z5.000
G1 X186.208 Y132.045 Z5.000
G1 X186.408 Y132.604 Z5.000
G1 X186.717 Y134.3 Z5.000
G1 X187.028 Y135.996 Z5.000
G1 X187.228 Y136.555 Z5.000
G1 X187.482 Y136.767 Z5.000
G1 X187.735 Y136.555 Z5.000
G1 X187.935 Y135.996 Z5.000
G1 X188.244 Y134.3 Z5.000
G1 X188.552 Y132.604 Z5.000
G1 X188.751 Y132.045 Z5.000
G1 X189.004 Y131.833 Z5.000
G1 X189.257 Y132.045 Z5.000
G1 X189.456 Y132.604 Z5.000
G1 X189.767 Y134.3 Z5.000
G1 X190.077 Y135.996 Z5.000
G1 X190.277 Y136.555 Z5.000
G1 X190.53 Y136.767 Z5.000
G1 X190.783 Y136.555 Z5.000
G1 X190.982 Y135.996 Z5.000
G1 X191.293 Y134.3 Z5.000
G1 X191.603 Y132.604 Z5.000
G1 X191.803 Y132.045 Z5.000
G1 X192.056 Y131.833 Z5.000
G1 X192.309 Y132.045 Z5.000
G1 X192.508 Y132.604 Z5.000
G1 X192.819 Y134.3 Z5.000
G1 X193.129 Y135.996 Z5.000
G1 X193.329 Y136.555 Z5.000
G1 X193.582 Y136.767 Z5.000
G1 X193.834 Y136.555 Z5.000
G1 X194.034 Y135.996 Z5.000
G1 X194.345 Y134.3 Z5.000
G1 X194.655 Y132.604 Z5.000
G1 X194.855 Y132.045 Z5.000
G1 X195.107 Y131.833 Z5.000
G1 X195.36 Y132.045 Z5.000
G1 X195.56 Y132.604 Z5.000
G1 X195.87 Y134.3 Z5.000
G1 X196.181 Y135.996 Z5.000
G1 X196.38 Y136.555 Z5.000
G1 X196.633 Y136.767 Z5.000
G1 X196.886 Y136.555 Z5.000
G1 X197.086 Y135.996 Z5.000
G1 X197.397 Y134.3 Z5.000
G1 X197.708 Y132.604 Z5.000
G1 X197.909 Y132.045 Z5.000
G1 X198.163 Y131.833 Z5.000
G1 X198.416 Y132.045 Z5.000
G1 X198.616 Y132.604 Z5.000
G1 X198.926 Y134.3 Z5.000
G1 X199.235 Y135.996 Z5.000
G1 X199.435 Y136.555 Z5.000
G1 X199.689 Y136.767 Z5.000
G1 X199.943 Y136.555 Z5.000
G1 X200.143 Y135.996 Z5.000
G1 X200.453 Y134.3 Z5.000
G1 X200.764 Y132.604 Z5.000
G1 X200.964 Y132.045 Z5.000
G1 X201.218 Y131.833 Z0.000
G1 Z8

G1 X201.218 Y130.477 Z0.000
G1 Z0

G1 X200.964 Y130.689 Z5.000
G1 X200.764 Y131.248 Z5.000
G1 X200.453 Y132.944 Z5.000
G1 X200.143 Y134.639 Z5.000
G1 X199.943 Y135.198 Z5.000
G1 X199.689 Y135.41 Z5.000
G1 X199.435 Y135.198 Z5.000
G1 X199.235 Y134.639 Z5.000
G1 X198.926 Y132.944 Z5.000
G1 X198.616 Y131.248 Z5.000
G1 X198.416 Y130.689 Z5.000
G1 X198.163 Y130.477 Z5.000
G1 X197.909 Y130.689 Z5.000
G1 X197.708 Y131.248 Z5.000
G1 X197.397 Y132.944 Z5.000
G1 X197.086 Y134.639 Z5.000
G1 X196.886 Y135.198 Z5.000
G1 X196.633 Y135.41 Z5.000
G1 X196.38 Y135.198 Z5.000
G1 X196.181 Y134.639 Z5.000
G1 X195.87 Y132.944 Z5.000
G1 X195.56 Y131.248 Z5.000
G1 X195.36 Y130.689 Z5.000
G1 X195.107 Y130.477 Z5.000
G1 X194.855 Y130.689 Z5.000
G1 X194.655 Y131.248 Z5.000
G1 X194.345 Y132.944 Z5.000
G1 X194.034 Y134.639 Z5.000
G1 X193.834 Y135.198 Z5.000
G1 X193.582 Y135.41 Z5.000
G1 X193.329 Y135.198 Z5.000
G1 X193.129 Y134.639 Z5.000
G1 X192.819 Y132.944 Z5.000
G1 X192.508 Y131.248 Z5.000
G1 X192.309 Y130.689 Z5.000
G1 X192.056 Y130.477 Z5.000
G1 X191.803 Y130.689 Z5.000
G1 X191.603 Y131.248 Z5.000
G1 X191.293 Y132.944 Z5.000
G1 X190.982 Y134.639 Z5.000
G1 X190.783 Y135.198 Z5.000
G1 X190.53 Y135.41 Z5.000
G1 X190.277 Y135.198 Z5.000
G1 X190.077 Y134.639 Z5.000
G1 X189.767 Y132.944 Z5.000
G1 X189.456 Y131.248 Z5.000
G1 X189.257 Y130.689 Z5.000
G1 X189.004 Y130.477 Z5.000
G1 X188.751 Y130.689 Z5.000
G1 X188.552 Y131.248 Z5.000
G1 X188.244 Y132.944 Z5.000
G1 X187.935 Y134.639 Z5.000
G1 X187.735 Y135.198 Z5.000
G1 X187.482 Y135.41 Z5.000
G1 X187.228 Y135.198 Z5.000
G1 X187.028 Y134.639 Z5.000
G1 X186.717 Y132.944 Z5.000
G1 X186.408 Y131.248 Z5.000
G1 X186.208 Y130.689 Z5.000
G1 X185.956 Y130.477 Z5.000
G1 X185.703 Y130.689 Z5.000
G1 X185.503 Y131.248 Z5.000
G1 X185.193 Y132.944 Z5.000
G1 X184.882 Y134.639 Z5.000
G1 X184.683 Y135.198 Z5.000
G1 X184.43 Y135.41 Z5.000
G1 X184.177 Y135.198 Z5.000
G1 X183.978 Y134.639 Z5.000
G1 X183.67 Y132.944 Z5.000
G1 X183.361 Y131.248 Z5.000
G1 X183.161 Y130.689 Z5.000
G1 X182.908 Y130.477 Z5.000
G1 X182.654 Y130.689 Z5.000
G1 X182.453 Y131.248 Z5.000
G1 X182.143 Y132.944 Z5.000
G1 X181.834 Y134.639 Z5.000
G1 X181.634 Y135.198 Z5.000
G1 X181.382 Y135.41 Z5.000
G1 X181.129 Y135.198 Z5.000
G1 X180.929 Y134.639 Z5.000
G1 X180.619 Y132.944 Z5.000
G1 X180.308 Y131.248 Z5.000
G1 X180.109 Y130.689 Z5.000
G1 X179.856 Y130.477 Z5.000
G1 X179.603 Y130.689 Z5.000
G1 X179.403 Y131.248 Z5.000
G1 X179.093 Y132.944 Z5.000
G1 X178.782 Y134.639 Z5.000
G1 X178.583 Y135.198 Z5.000
G1 X178.33 Y135.41 Z5.000
G1 X178.077 Y135.198 Z5.000
G1 X177.877 Y134.639 Z5.000
G1 X177.567 Y132.944 Z5.000
G1 X177.257 Y131.248 Z5.000
G1 X177.057 Y130.689 Z5.000
G1 X176.804 Y130.477 Z5.000
G1 X176.551 Y130.689 Z5.000
G1 X176.353 Y131.248 Z5.000
G1 X176.044 Y132.944 Z5.000
G1 X175.735 Y134.639 Z5.000
G1 X175.535 Y135.198 Z5.000
G1 X175.282 Y135.41 Z5.000
G1 X175.028 Y135.198 Z5.000
G1 X174.828 Y134.639 Z5.000
G1 X174.519 Y132.944 Z5.000
G1 X174.209 Y131.248 Z5.000
G1 X174.01 Y130.689 Z5.000
G1 X173.756 Y130.477 Z5.000
G1 X173.502 Y130.689 Z5.000
G1 X173.302 Y131.248 Z5.000
G1 X172.992 Y132.944 Z5.000
G1 X172.682 Y134.639 Z5.000
G1 X172.483 Y135.198 Z5.000
G1 X172.23 Y135.41 Z5.000
G1 X171.977 Y135.198 Z5.000
G1 X171.777 Y134.639 Z5.000
G1 X171.467 Y132.944 Z5.000
G1 X171.157 Y131.248 Z5.000
G1 X170.957 Y130.689 Z5.000
G1 X170.704 Y130.477 Z5.000
G1 X170.451 Y130.689 Z5.000
G1 X170.253 Y131.248 Z5.000
G1 X169.944 Y132.944 Z5.000
G1 X169.635 Y134.639 Z5.000
G1 X169.435 Y135.198 Z5.000
G1 X169.182 Y135.41 Z5.000
G1 X168.928 Y135.198 Z5.000
G1 X168.728 Y134.639 Z5.000
G1 X168.417 Y132.944 Z5.000
G1 X168.108 Y131.248 Z5.000
G1 X167.909 Y130.689 Z5.000
G1 X167.656 Y130.477 Z5.000
G1 X167.403 Y130.689 Z5.000
G1 X167.203 Y131.248 Z5.000
G1 X166.893 Y132.944 Z5.000
G1 X166.582 Y134.639 Z5.000
G1 X166.383 Y135.198 Z5.000
G1 X166.13 Y135.41 Z5.000
G1 X165.877 Y135.198 Z5.000
G1 X165.679 Y134.639 Z5.000
G1 X165.37 Y132.944 Z5.000
G1 X165.061 Y131.248 Z5.000
G1 X164.861 Y130.689 Z5.000
G1 X164.608 Y130.477 Z5.000
G1 X164.354 Y130.689 Z5.000
G1 X164.154 Y131.248 Z5.000
G1 X163.843 Y132.944 Z5.000
G1 X163.534 Y134.639 Z5.000
G1 X163.335 Y135.198 Z5.000
G1 X163.082 Y135.41 Z5.000
G1 X162.829 Y135.198 Z5.000
G1 X162.629 Y134.639 Z5.000
G1 X162.319 Y132.944 Z5.000
G1 X162.008 Y131.248 Z5.000
G1 X161.809 Y130.689 Z5.000
G1 X161.556 Y130.477 Z5.000
G1 X161.303 Y130.689 Z5.000
G1 X161.104 Y131.248 Z5.000
G1 X160.795 Y132.944 Z5.000
G1 X160.486 Y134.639 Z5.000
G1 X160.286 Y135.198 Z5.000
G1 X160.034 Y135.41 Z5.000
G1 X159.781 Y135.198 Z5.000
G1 X159.581 Y134.639 Z5.000
G1 X159.271 Y132.944 Z5.000
G1 X158.96 Y131.248 Z5.000
G1 X158.761 Y130.689 Z5.000
G1 X158.508 Y130.477 Z5.000
G1 X158.255 Y130.689 Z5.000
G1 X158.056 Y131.248 Z5.000
G1 X157.747 Y132.944 Z5.000
G1 X157.437 Y134.639 Z5.000
G1 X157.238 Y135.198 Z5.000
G1 X156.985 Y135.41 Z5.000
G1 X156.732 Y135.198 Z5.000
G1 X156.533 Y134.639 Z5.000
G1 X156.222 Y132.944 Z5.000
G1 X155.912 Y131.248 Z5.000
G1 X155.712 Y130.689 Z5.000
G1 X155.459 Y130.477 Z5.000
G1 X155.207 Y130.689 Z5.000
G1 X155.008 Y131.248 Z5.000
G1 X154.698 Y132.944 Z5.000
G1 X154.389 Y134.639 Z5.000
G1 X154.19 Y135.198 Z5.000
G1 X153.937 Y135.41 Z5.000
G1 X153.684 Y135.198 Z5.000
G1 X153.485 Y134.639 Z5.000
G1 X153.174 Y132.944 Z5.000
G1 X152.864 Y131.248 Z5.000
G1 X152.664 Y130.689 Z5.000
G1 X152.411 Y130.477 Z5.000
G1 X152.159 Y130.689 Z5.000
G1 X151.959 Y131.248 Z5.000
G1 X151.65 Y132.944 Z5.000
G1 X151.341 Y134.639 Z5.000
G1 X151.142 Y135.198 Z5.000
G1 X150.889 Y135.41 Z5.000
G1 X150.636 Y135.198 Z5.000
G1 X150.437 Y134.639 Z5.000
G1 X150.129 Y132.944 Z5.000
G1 X149.82 Y131.248 Z5.000
G1 X149.62 Y130.689 Z5.000
G1 X149.367 Y130.477 Z5.000
G1 X149.113 Y130.689 Z5.000
G1 X148.913 Y131.248 Z5.000
G1 X148.602 Y132.944 Z5.000
G1 X148.293 Y134.639 Z5.000
G1 X148.093 Y135.198 Z5.000
G1 X147.841 Y135.41 Z5.000
G1 X147.588 Y135.198 Z5.000
G1 X147.389 Y134.639 Z5.000
G1 X147.08 Y132.944 Z5.000
G1 X146.77 Y131.248 Z5.000
G1 X146.571 Y130.689 Z5.000
G1 X146.318 Y130.477 Z5.000
G1 X146.065 Y130.689 Z5.000
G1 X145.866 Y131.248 Z5.000
G1 X145.555 Y132.944 Z5.000
G1 X145.245 Y134.639 Z5.000
G1 X145.045 Y135.198 Z5.000
G1 X144.792 Y135.41 Z5.000
G1 X144.54 Y135.198 Z5.000
G1 X144.341 Y134.639 Z5.000
G1 X144.031 Y132.944 Z5.000
G1 X143.722 Y131.248 Z5.000
G1 X143.523 Y130.689 Z5.000
G1 X143.27 Y130.477 Z5.000
G1 X143.017 Y130.689 Z5.000
G1 X142.818 Y131.248 Z5.000
G1 X142.509 Y132.944 Z5.000
G1 X142.2 Y134.639 Z5.000
G1 X142.001 Y135.198 Z5.000
G1 X141.748 Y135.41 Z5.000
G1 X141.495 Y135.198 Z5.000
G1 X141.295 Y134.639 Z5.000
G1 X140.985 Y132.944 Z5.000
G1 X140.674 Y131.248 Z5.000
G1 X140.475 Y130.689 Z5.000
G1 X140.222 Y130.477 Z5.000
G1 X139.969 Y130.689 Z5.000
G1 X139.77 Y131.248 Z5.000
G1 X139.461 Y132.944 Z5.000
G1 X139.152 Y134.639 Z5.000
G1 X138.952 Y135.198 Z5.000
G1 X138.7 Y135.41 Z5.000
G1 X138.447 Y135.198 Z5.000
G1 X138.248 Y134.639 Z5.000
G1 X137.938 Y132.944 Z5.000
G1 X137.629 Y131.248 Z5.000
G1 X137.43 Y130.689 Z5.000
G1 X137.177 Y130.477 Z5.000
G1 X136.924 Y130.689 Z5.000
G1 X136.725 Y131.248 Z5.000
G1 X136.416 Y132.944 Z5.000
G1 X136.107 Y134.639 Z5.000
G1 X135.908 Y135.198 Z5.000
G1 X135.655 Y135.41 Z5.000
G1 X135.402 Y135.198 Z5.000
G1 X135.203 Y134.639 Z5.000
G1 X134.894 Y132.944 Z5.000
G1 X134.584 Y131.248 Z5.000
G1 X134.385 Y130.689 Z5.000
G1 X134.133 Y130.477 Z5.000
G1 X133.88 Y130.689 Z5.000
G1 X133.681 Y131.248 Z5.000
G1 X133.371 Y132.944 Z5.000
G1 X133.062 Y134.639 Z5.000
G1 X132.863 Y135.198 Z5.000
G1 X132.61 Y135.41 Z5.000
G1 X132.358 Y135.198 Z5.000
G1 X132.159 Y134.639 Z5.000
G1 X131.85 Y132.944 Z5.000
G1 X131.541 Y131.248 Z5.000
G1 X131.342 Y130.689 Z5.000
G1 X131.088 Y130.477 Z5.000
G1 X130.834 Y130.689 Z5.000
G1 X130.634 Y131.248 Z5.000
G1 X130.324 Y132.944 Z5.000
G1 X130.014 Y134.639 Z5.000
G1 X129.815 Y135.198 Z5.000
G1 X129.562 Y135.41 Z5.000
G1 X129.309 Y135.198 Z5.000
G1 X129.111 Y134.639 Z5.000
G1 X128.802 Y132.944 Z5.000
G1 X128.493 Y131.248 Z5.000
G1 X128.293 Y130.689 Z5.000
G1 X128.04 Y130.477 Z5.000
G1 X127.786 Y130.689 Z5.000
G1 X127.586 Y131.248 Z5.000
G1 X127.275 Y132.944 Z5.000
G1 X126.966 Y134.639 Z5.000
G1 X126.766 Y135.198 Z5.000
G1 X126.514 Y135.41 Z5.000
G1 X126.261 Y135.198 Z5.000
G1 X126.062 Y134.639 Z5.000
G1 X125.754 Y132.944 Z5.000
G1 X125.445 Y131.248 Z5.000
G1 X125.245 Y130.689 Z5.000
G1 X124.991 Y130.477 Z5.000
G1 X124.738 Y130.689 Z5.000
G1 X124.537 Y131.248 Z5.000
G1 X124.227 Y132.944 Z5.000
G1 X123.918 Y134.639 Z5.000
G1 X123.718 Y135.198 Z5.000
G1 X123.466 Y135.41 Z5.000
G1 X123.213 Y135.198 Z5.000
G1 X123.014 Y134.639 Z5.000
G1 X122.706 Y132.944 Z5.000
G1 X122.397 Y131.248 Z5.000
G1 X122.197 Y130.689 Z5.000
G1 X121.943 Y130.477 Z5.000
G1 X121.689 Y130.689 Z5.000
G1 X121.489 Y131.248 Z5.000
G1 X121.179 Y132.944 Z5.000
G1 X120.869 Y134.639 Z5.000
G1 X120.67 Y135.198 Z5.000
G1 X120.417 Y135.41 Z5.000
G1 X120.165 Y135.198 Z5.000
G1 X119.965 Y134.639 Z5.000
G1 X119.656 Y132.944 Z5.000
G1 X119.347 Y131.248 Z5.000
G1 X119.148 Y130.689 Z5.000
G1 X118.895 Y130.477 Z5.000
G1 X118.642 Y130.689 Z5.000
G1 X118.442 Y131.248 Z5.000
G1 X118.132 Y132.944 Z5.000
G1 X117.822 Y134.639 Z5.000
G1 X117.622 Y135.198 Z5.000
G1 X117.369 Y135.41 Z5.000
G1 X117.116 Y135.198 Z5.000
G1 X116.917 Y134.639 Z5.000
G1 X116.608 Y132.944 Z5.000
G1 X116.299 Y131.248 Z5.000
G1 X116.099 Y130.689 Z5.000
G1 X115.847 Y130.477 Z5.000
G1 X115.594 Y130.689 Z5.000
G1 X115.394 Y131.248 Z5.000
G1 X115.084 Y132.944 Z5.000
G1 X114.773 Y134.639 Z5.000
G1 X114.574 Y135.198 Z5.000
G1 X114.321 Y135.41 Z5.000
G1 X114.068 Y135.198 Z5.000
G1 X113.869 Y134.639 Z5.000
G1 X113.56 Y132.944 Z5.000
G1 X113.25 Y131.248 Z5.000
G1 X113.051 Y130.689 Z5.000
G1 X112.799 Y130.477 Z5.000
G1 X112.546 Y130.689 Z5.000
G1 X112.346 Y131.248 Z5.000
G1 X112.036 Y132.944 Z5.000
G1 X111.725 Y134.639 Z5.000
G1 X111.526 Y135.198 Z5.000
G1 X111.273 Y135.41 Z5.000
G1 X111.02 Y135.198 Z5.000
G1 X110.821 Y134.639 Z5.000
G1 X110.511 Y132.944 Z5.000
G1 X110.202 Y131.248 Z5.000
G1 X110.003 Y130.689 Z5.000
G1 X109.75 Y130.477 Z5.000
G1 X109.498 Y130.689 Z5.000
G1 X109.298 Y131.248 Z5.000
G1 X108.989 Y132.944 Z5.000
G1 X108.68 Y134.639 Z5.000
G1 X108.481 Y135.198 Z5.000
G1 X108.228 Y135.41 Z5.000
G1 X107.975 Y135.198 Z5.000
G1 X107.775 Y134.639 Z5.000
G1 X107.465 Y132.944 Z5.000
G1 X107.155 Y131.248 Z5.000
G1 X106.955 Y130.689 Z5.000
G1 X106.702 Y130.477 Z5.000
G1 X106.449 Y130.689 Z5.000
G1 X106.25 Y131.248 Z5.000
G1 X105.941 Y132.944 Z5.000
G1 X105.632 Y134.639 Z5.000
G1 X105.432 Y135.198 Z5.000
G1 X105.18 Y135.41 Z5.000
G1 X104.927 Y135.198 Z5.000
G1 X104.727 Y134.639 Z5.000
G1 X104.417 Y132.944 Z5.000
G1 X104.106 Y131.248 Z5.000
G1 X103.907 Y130.689 Z5.000
G1 X103.654 Y130.477 Z5.000
G1 X103.401 Y130.689 Z5.000
G1 X103.202 Y131.248 Z5.000
G1 X102.893 Y132.944 Z5.000
G1 X102.583 Y134.639 Z5.000
G1 X102.384 Y135.198 Z5.000
G1 X102.132 Y135.41 Z5.000
G1 X101.879 Y135.198 Z5.000
G1 X101.68 Y134.639 Z5.000
G1 X101.372 Y132.944 Z5.000
G1 X101.063 Y131.248 Z5.000
G1 X100.863 Y130.689 Z5.000
G1 X100.609 Y130.477 Z5.000
G1 X100.355 Y130.689 Z5.000
G1 X100.155 Y131.248 Z5.000
G1 X99.845 Y132.944 Z5.000
G1 X99.535 Y134.639 Z5.000
G1 X99.336 Y135.198 Z5.000
G1 X99.083 Y135.41 Z5.000
G1 X98.831 Y135.198 Z5.000
G1 X98.631 Y134.639 Z5.000
G1 X98.322 Y132.944 Z5.000
G1 X98.013 Y131.248 Z5.000
G1 X97.814 Y130.689 Z5.000
G1 X97.561 Y130.477 Z5.000
G1 X97.308 Y130.689 Z5.000
G1 X97.11 Y131.248 Z5.000
G1 X96.801 Y132.944 Z5.000
G1 X96.492 Y134.639 Z5.000
G1 X96.292 Y135.198 Z5.000
G1 X96.039 Y135.41 Z5.000
G1 X95.785 Y135.198 Z5.000
G1 X95.585 Y134.639 Z5.000
G1 X95.274 Y132.944 Z5.000
G1 X94.965 Y131.248 Z5.000
G1 X94.766 Y130.689 Z5.000
G1 X94.513 Y130.477 Z5.000
G1 X94.26 Y130.689 Z5.000
G1 X94.061 Y131.248 Z5.000
G1 X93.753 Y132.944 Z5.000
G1 X93.444 Y134.639 Z5.000
G1 X93.244 Y135.198 Z5.000
G1 X92.99 Y135.41 Z5.000
G1 X92.737 Y135.198 Z5.000
G1 X92.536 Y134.639 Z5.000
G1 X92.226 Y132.944 Z5.000
G1 X91.917 Y131.248 Z5.000
G1 X91.717 Y130.689 Z5.000
G1 X91.465 Y130.477 Z5.000
G1 X91.212 Y130.689 Z5.000
G1 X91.013 Y131.248 Z5.000
G1 X90.703 Y132.944 Z5.000
G1 X90.394 Y134.639 Z5.000
G1 X90.195 Y135.198 Z5.000
G1 X89.942 Y135.41 Z5.000
G1 X89.689 Y135.198 Z5.000
G1 X89.49 Y134.639 Z5.000
G1 X89.181 Y132.944 Z5.000
G1 X88.872 Y131.248 Z5.000
G1 X88.673 Y130.689 Z5.000
G1 X88.42 Y130.477 Z5.000
G1 X88.167 Y130.689 Z5.000
G1 X87.967 Y131.248 Z5.000
G1 X87.657 Y132.944 Z5.000
G1 X87.346 Y134.639 Z5.000
G1 X87.147 Y135.198 Z5.000
G1 X86.894 Y135.41 Z5.000
G1 X86.641 Y135.198 Z5.000
G1 X86.442 Y134.639 Z5.000
G1 X86.133 Y132.944 Z5.000
G1 X85.824 Y131.248 Z5.000
G1 X85.624 Y130.689 Z5.000
G1 X85.372 Y130.477 Z5.000
G1 X85.119 Y130.689 Z5.000
G1 X84.92 Y131.248 Z5.000
G1 X84.61 Y132.944 Z5.000
G1 X84.301 Y134.639 Z5.000
G1 X84.102 Y135.198 Z5.000
G1 X83.849 Y135.41 Z5.000
G1 X83.597 Y135.198 Z5.000
G1 X83.398 Y134.639 Z5.000
G1 X83.089 Y132.944 Z5.000
G1 X82.78 Y131.248 Z5.000
G1 X82.581 Y130.689 Z5.000
G1 X82.327 Y130.477 Z5.000
G1 X82.073 Y130.689 Z5.000
G1 X81.873 Y131.248 Z5.000
G1 X81.563 Y132.944 Z5.000
G1 X81.253 Y134.639 Z5.000
G1 X81.054 Y135.198 Z5.000
G1 X80.801 Y135.41 Z5.000
G1 X80.548 Y135.198 Z5.000
G1 X80.35 Y134.639 Z5.000
G1 X80.041 Y132.944 Z5.000
G1 X79.732 Y131.248 Z5.000
G1 X79.532 Y130.689 Z5.000
G1 X79.279 Y130.477 Z5.000
G1 X79.025 Y130.689 Z5.000
G1 X78.825 Y131.248 Z5.000
G1 X78.514 Y132.944 Z5.000
G1 X78.205 Y134.639 Z5.000
G1 X78.006 Y135.198 Z5.000
G1 X77.753 Y135.41 Z5.000
G1 X77.5 Y135.198 Z5.000
G1 X77.301 Y134.639 Z5.000
G1 X76.992 Y132.944 Z5.000
G1 X76.682 Y131.248 Z5.000
G1 X76.483 Y130.689 Z5.000
G1 X76.23 Y130.477 Z5.000
G1 X75.978 Y130.689 Z5.000
G1 X75.779 Y131.248 Z5.000
G1 X75.469 Y132.944 Z5.000
G1 X75.16 Y134.639 Z5.000
G1 X74.961 Y135.198 Z5.000
G1 X74.708 Y135.41 Z5.000
G1 X74.455 Y135.198 Z5.000
G1 X74.256 Y134.639 Z5.000
G1 X73.947 Y132.944 Z5.000
G1 X73.638 Y131.248 Z5.000
G1 X73.439 Y130.689 Z5.000
G1 X73.186 Y130.477 Z5.000
G1 X72.933 Y130.689 Z5.000
G1 X72.734 Y131.248 Z5.000
G1 X72.426 Y132.944 Z5.000
G1 X72.117 Y134.639 Z5.000
G1 X71.917 Y135.198 Z5.000
G1 X71.663 Y135.41 Z5.000
G1 X71.41 Y135.198 Z5.000
G1 X71.209 Y134.639 Z5.000
G1 X70.899 Y132.944 Z5.000
G1 X70.59 Y131.248 Z5.000
G1 X70.39 Y130.689 Z5.000
G1 X70.138 Y130.477 Z5.000
G1 X69.885 Y130.689 Z5.000
G1 X69.686 Y131.248 Z5.000
G1 X69.376 Y132.944 Z5.000
G1 X69.067 Y134.639 Z5.000
G1 X68.868 Y135.198 Z5.000
G1 X68.615 Y135.41 Z5.000
G1 X68.363 Y135.198 Z5.000
G1 X68.164 Y134.639 Z5.000
G1 X67.855 Y132.944 Z5.000
G1 X67.546 Y131.248 Z5.000
G1 X67.347 Y130.689 Z5.000
G1 X67.093 Y130.477 Z5.000
G1 X66.839 Y130.689 Z5.000
G1 X66.639 Y131.248 Z5.000
G1 X66.329 Y132.944 Z5.000
G1 X66.019 Y134.639 Z5.000
G1 X65.82 Y135.198 Z5.000
G1 X65.567 Y135.41 Z5.000
G1 X65.314 Y135.198 Z5.000
G1 X65.115 Y134.639 Z5.000
G1 X64.806 Y132.944 Z5.000
G1 X64.497 Y131.248 Z5.000
G1 X64.297 Y130.689 Z5.000
G1 X64.045 Y130.477 Z5.000
G1 X63.792 Y130.689 Z5.000
G1 X63.592 Y131.248 Z5.000
G1 X63.282 Y132.944 Z5.000
G1 X62.971 Y134.639 Z5.000
G1 X62.772 Y135.198 Z5.000
G1 X62.519 Y135.41 Z5.000
G1 X62.266 Y135.198 Z5.000
G1 X62.067 Y134.639 Z5.000
G1 X61.758 Y132.944 Z5.000
G1 X61.448 Y131.248 Z5.000
G1 X61.249 Y130.689 Z5.000
G1 X60.996 Y130.477 Z5.000
G1 X60.744 Y130.689 Z5.000
G1 X60.544 Y131.248 Z5.000
G1 X60.235 Y132.944 Z5.000
G1 X59.926 Y134.639 Z5.000
G1 X59.727 Y135.198 Z5.000
G1 X59.474 Y135.41 Z5.000
G1 X59.221 Y135.198 Z5.000
G1 X59.022 Y134.639 Z5.000
G1 X58.713 Y132.944 Z5.000
G1 X58.404 Y131.248 Z5.000
G1 X58.204 Y130.689 Z5.000
G1 X57.952 Y130.477 Z5.000
G1 X57.699 Y130.689 Z5.000
G1 X57.5 Y131.248 Z5.000
G1 X57.191 Y132.944 Z5.000
G1 X56.881 Y134.639 Z5.000
G1 X56.682 Y135.198 Z5.000
G1 X56.429 Y135.41 Z5.000
G1 X56.177 Y135.198 Z5.000
G1 X55.977 Y134.639 Z5.000
G1 X55.668 Y132.944 Z5.000
G1 X55.359 Y131.248 Z5.000
G1 X55.16 Y130.689 Z5.000
G1 X54.907 Y130.477 Z5.000
G1 X54.654 Y130.689 Z5.000
G1 X54.455 Y131.248 Z5.000
G1 X54.146 Y132.944 Z5.000
G1 X53.837 Y134.639 Z5.000
G1 X53.637 Y135.198 Z5.000
G1 X53.385 Y135.41 Z5.000
G1 X53.132 Y135.198 Z5.000
G1 X52.933 Y134.639 Z5.000
G1 X52.625 Y132.944 Z5.000
G1 X52.316 Y131.248 Z5.000
G1 X52.116 Y130.689 Z5.000
G1 X51.862 Y130.477 Z5.000
G1 X51.608 Y130.689 Z5.000
G1 X51.408 Y131.248 Z5.000
G1 X51.098 Y132.944 Z5.000
G1 X50.788 Y134.639 Z5.000
G1 X50.589 Y135.198 Z5.000
G1 X50.336 Y135.41 Z5.000
G1 X50.084 Y135.198 Z5.000
G1 X49.885 Y134.639 Z5.000
G1 X49.575 Y132.944 Z5.000
G1 X49.266 Y131.248 Z5.000
G1 X49.067 Y130.689 Z5.000
G1 X48.814 Y130.477 Z5.000
G1 X48.561 Y130.689 Z5.000
G1 X48.362 Y131.248 Z5.000
G1 X48.053 Y132.944 Z5.000
G1 X47.742 Y134.639 Z5.000
G1 X47.542 Y135.198 Z5.000
G1 X47.288 Y135.41 Z5.000
G1 Z8

G1 X47.288 Y134.054 Z5.000
G1 Z0

G1 X47.542 Y133.842 Z5.000
G1 X47.742 Y133.283 Z5.000
G1 X48.053 Y131.587 Z5.000
G1 X48.362 Y129.891 Z5.000
G1 X48.561 Y129.332 Z5.000
G1 X48.814 Y129.12 Z5.000
G1 X49.067 Y129.332 Z5.000
G1 X49.266 Y129.891 Z5.000
G1 X49.575 Y131.587 Z5.000
G1 X49.885 Y133.283 Z5.000
G1 X50.084 Y133.842 Z5.000
G1 X50.336 Y134.054 Z5.000
G1 X50.589 Y133.842 Z5.000
G1 X50.788 Y133.283 Z5.000
G1 X51.098 Y131.587 Z5.000
G1 X51.408 Y129.891 Z5.000
G1 X51.608 Y129.332 Z5.000
G1 X51.862 Y129.12 Z5.000
G1 X52.116 Y129.332 Z5.000
G1 X52.316 Y129.891 Z5.000
G1 X52.625 Y131.587 Z5.000
G1 X52.933 Y133.283 Z5.000
G1 X53.132 Y133.842 Z5.000
G1 X53.385 Y134.054 Z5.000
G1 X53.637 Y133.842 Z5.000
G1 X53.837 Y133.283 Z5.000
G1 X54.146 Y131.587 Z5.000
G1 X54.455 Y129.891 Z5.000
G1 X54.654 Y129.332 Z5.000
G1 X54.907 Y129.12 Z5.000
G1 X55.16 Y129.332 Z5.000
G1 X55.359 Y129.891 Z5.000
G1 X55.668 Y131.587 Z5.000
G1 X55.977 Y133.283 Z5.000
G1 X56.177 Y133.842 Z5.000
G1 X56.429 Y134.054 Z5.000
G1 X56.682 Y133.842 Z5.000
G1 X56.881 Y133.283 Z5.000
G1 X57.191 Y131.587 Z5.000
G1 X57.5 Y129.891 Z5.000
G1 X57.699 Y129.332 Z5.000
G1 X57.952 Y129.12 Z5.000
G1 X58.204 Y129.332 Z5.000
G1 X58.404 Y129.891 Z5.000
G1 X58.713 Y131.587 Z5.000
G1 X59.022 Y133.283 Z5.000
G1 X59.221 Y133.842 Z5.000
G1 X59.474 Y134.054 Z5.000
G1 X59.727 Y133.842 Z5.000
G1 X59.926 Y133.283 Z5.000
G1 X60.235 Y131.587 Z5.000
G1 X60.544 Y129.891 Z5.000
G1 X60.744 Y129.332 Z5.000
G1 X60.996 Y129.12 Z5.000
G1 X61.249 Y129.332 Z5.000
G1 X61.448 Y129.891 Z5.000
G1 X61.758 Y131.587 Z5.000
G1 X62.067 Y133.283 Z5.000
G1 X62.266 Y133.842 Z5.000
G1 X62.519 Y134.054 Z5.000
G1 X62.772 Y133.842 Z5.000
G1 X62.971 Y133.283 Z5.000
G1 X63.282 Y131.587 Z5.000
G1 X63.592 Y129.891 Z5.000
G1 X63.792 Y129.332 Z5.000
G1 X64.045 Y129.12 Z5.000
G1 X64.297 Y129.332 Z5.000
G1 X64.497 Y129.891 Z5.000
G1 X64.806 Y131.587 Z5.000
G1 X65.115 Y133.283 Z5.000
G1 X65.314 Y133.842 Z5.000
G1 X65.567 Y134.054 Z5.000
G1 X65.82 Y133.842 Z5.000
G1 X66.019 Y133.283 Z5.000
G1 X66.329 Y131.587 Z5.000
G1 X66.639 Y129.891 Z5.000
G1 X66.839 Y129.332 Z5.000
G1 X67.093 Y129.12 Z5.000
G1 X67.347 Y129.332 Z5.000
G1 X67.546 Y129.891 Z5.000
G1 X67.855 Y131.587 Z5.000
G1 X68.164 Y133.283 Z5.000
G1 X68.363 Y133.842 Z5.000
G1 X68.615 Y134.054 Z5.000
G1 X68.868 Y133.842 Z5.000
G1 X69.067 Y133.283 Z5.000
G1 X69.376 Y131.587 Z5.000
G1 X69.686 Y129.891 Z5.000
G1 X69.885 Y129.332 Z5.000
G1 X70.138 Y129.12 Z5.000
G1 X70.39 Y129.332 Z5.000
G1 X70.59 Y129.891 Z5.000
G1 X70.899 Y131.587 Z5.000
G1 X71.209 Y133.283 Z5.000
G1 X71.41 Y133.842 Z5.000
G1 X71.663 Y134.054 Z5.000
G1 X71.917 Y133.842 Z5.000
G1 X72.117 Y133.283 Z5.000
G1 X72.426 Y131.587 Z5.000
G1 X72.734 Y129.891 Z5.000
G1 X72.933 Y129.332 Z5.000
G1 X73.186 Y129.12 Z5.000
G1 X73.439 Y129.332 Z5.000
G1 X73.638 Y129.891 Z5.000
G1 X73.947 Y131.587 Z5.000
G1 X74.256 Y133.283 Z5.000
G1 X74.455 Y133.842 Z5.000
G1 X74.708 Y134.054 Z5.000
G1 X74.961 Y133.842 Z5.000
G1 X75.16 Y133.283 Z5.000
G1 X75.469 Y131.587 Z5.000
G1 X75.779 Y129.891 Z5.000
G1 X75.978 Y129.332 Z5.000
G1 X76.23 Y129.12 Z5.000
G1 X76.483 Y129.332 Z5.000
G1 X76.682 Y129.891 Z5.000
G1 X76.992 Y131.587 Z5.000
G1 X77.301 Y133.283 Z5.000
G1 X77.5 Y133.842 Z5.000
G1 X77.753 Y134.054 Z5.000
G1 X78.006 Y133.842 Z5.000
G1 X78.205 Y133.283 Z5.000
G1 X78.514 Y131.587 Z5.000
G1 X78.825 Y129.891 Z5.000
G1 X79.025 Y129.332 Z5.000
G1 X79.279 Y129.12 Z5.000
G1 X79.532 Y129.332 Z5.000
G1 X79.732 Y129.891 Z5.000
G1 X80.041 Y131.587 Z5.000
G1 X80.35 Y133.283 Z5.000
G1 X80.548 Y133.842 Z5.000
G1 X80.801 Y134.054 Z5.000
G1 X81.054 Y133.842 Z5.000
G1 X81.253 Y133.283 Z5.000
G1 X81.563 Y131.587 Z5.000
G1 X81.873 Y129.891 Z5.000
G1 X82.073 Y129.332 Z5.000
G1 X82.327 Y129.12 Z5.000
G1 X82.581 Y129.332 Z5.000
G1 X82.78 Y129.891 Z5.000
G1 X83.089 Y131.587 Z5.000
G1 X83.398 Y133.283 Z5.000
G1 X83.597 Y133.842 Z5.000
G1 X83.849 Y134.054 Z5.000
G1 X84.102 Y133.842 Z5.000
G1 X84.301 Y133.283 Z5.000
G1 X84.61 Y131.587 Z5.000
G1 X84.92 Y129.891 Z5.000
G1 X85.119 Y129.332 Z5.000
G1 X85.372 Y129.12 Z5.000
G1 X85.624 Y129.332 Z5.000
G1 X85.824 Y129.891 Z5.000
G1 X86.133 Y131.587 Z5.000
G1 X86.442 Y133.283 Z5.000
G1 X86.641 Y133.842 Z5.000
G1 X86.894 Y134.054 Z5.000
G1 X87.147 Y133.842 Z5.000
G1 X87.346 Y133.283 Z5.000
G1 X87.657 Y131.587 Z5.000
G1 X87.967 Y129.891 Z5.000
G1 X88.167 Y129.332 Z5.000
G1 X88.42 Y129.12 Z5.000
G1 X88.673 Y129.332 Z5.000
G1 X88.872 Y129.891 Z5.000
G1 X89.181 Y131.587 Z5.000
G1 X89.49 Y133.283 Z5.000
G1 X89.689 Y133.842 Z5.000
G1 X89.942 Y134.054 Z5.000
G1 X90.195 Y133.842 Z5.000
G1 X90.394 Y133.283 Z5.000
G1 X90.703 Y131.587 Z5.000
G1 X91.013 Y129.891 Z5.000
G1 X91.212 Y129.332 Z5.000
G1 X91.465 Y129.12 Z5.000
G1 X91.717 Y129.332 Z5.000
G1 X91.917 Y129.891 Z5.000
G1 X92.226 Y131.587 Z5.000
G1 X92.536 Y133.283 Z5.000
G1 X92.737 Y133.842 Z5.000
G1 X92.99 Y134.054 Z5.000
G1 X93.244 Y133.842 Z5.000
G1 X93.444 Y133.283 Z5.000
G1 X93.753 Y131.587 Z5.000
G1 X94.061 Y129.891 Z5.000
G1 X94.26 Y129.332 Z5.000
G1 X94.513 Y129.12 Z5.000
G1 X94.766 Y129.332 Z5.000
G1 X94.965 Y129.891 Z5.000
G1 X95.274 Y131.587 Z5.000
G1 X95.585 Y133.283 Z5.000
G1 X95.785 Y133.842 Z5.000
G1 X96.039 Y134.054 Z5.000
G1 X96.292 Y133.842 Z5.000
G1 X96.492 Y133.283 Z5.000
G1 X96.801 Y131.587 Z5.000
G1 X97.11 Y129.891 Z5.000
G1 X97.308 Y129.332 Z5.000
G1 X97.561 Y129.12 Z5.000
G1 X97.814 Y129.332 Z5.000
G1 X98.013 Y129.891 Z5.000
G1 X98.322 Y131.587 Z5.000
G1 X98.631 Y133.283 Z5.000
G1 X98.831 Y133.842 Z5.000
G1 X99.083 Y134.054 Z5.000
G1 X99.336 Y133.842 Z5.000
G1 X99.535 Y133.283 Z5.000
G1 X99.845 Y131.587 Z5.000
G1 X100.155 Y129.891 Z5.000
G1 X100.355 Y129.332 Z5.000
G1 X100.609 Y129.12 Z5.000
G1 X100.863 Y129.332 Z5.000
G1 X101.063 Y129.891 Z5.000
G1 X101.372 Y131.587 Z5.000
G1 X101.68 Y133.283 Z5.000
G1 X101.879 Y133.842 Z5.000
G1 X102.132 Y134.054 Z5.000
G1 X102.384 Y133.842 Z5.000
G1 X102.583 Y133.283 Z5.000
G1 X102.893 Y131.587 Z5.000
G1 X103.202 Y129.891 Z5.000
G1 X103.401 Y129.332 Z5.000
G1 X103.654 Y129.12 Z5.000
G1 X103.907 Y129.332 Z5.000
G1 X104.106 Y129.891 Z5.000
G1 X104.417 Y131.587 Z5.000
G1 X104.727 Y133.283 Z5.000
G1 X104.927 Y133.842 Z5.000
G1 X105.18 Y134.054 Z5.000
G1 X105.432 Y133.842 Z5.000
G1 X105.632 Y133.283 Z5.000
G1 X105.941 Y131.587 Z5.000
G1 X106.25 Y129.891 Z5.000
G1 X106.449 Y129.332 Z5.000
G1 X106.702 Y129.12 Z5.000
G1 X106.955 Y129.332 Z5.000
G1 X107.155 Y129.891 Z5.000
G1 X107.465 Y131.587 Z5.000
G1 X107.775 Y133.283 Z5.000
G1 X107.975 Y133.842 Z5.000
G1 X108.228 Y134.054 Z5.000
G1 X108.481 Y133.842 Z5.000
G1 X108.68 Y133.283 Z5.000
G1 X108.989 Y131.587 Z5.000
G1 X109.298 Y129.891 Z5.000
G1 X109.498 Y129.332 Z5.000
G1 X109.75 Y129.12 Z5.000
G1 X110.003 Y129.332 Z5.000
G1 X110.202 Y129.891 Z5.000
G1 X110.511 Y131.587 Z5.000
G1 X110.821 Y133.283 Z5.000
G1 X111.02 Y133.842 Z5.000
G1 X111.273 Y134.054 Z5.000
G1 X111.526 Y133.842 Z5.000
G1 X111.725 Y133.283 Z5.000
G1 X112.036 Y131.587 Z5.000
G1 X112.346 Y129.891 Z5.000
G1 X112.546 Y129.332 Z5.000
G1 X112.799 Y129.12 Z5.000
G1 X113.051 Y129.332 Z5.000
G1 X113.25 Y129.891 Z5.000
G1 X113.56 Y131.587 Z5.000
G1 X113.869 Y133.283 Z5.000
G1 X114.068 Y133.842 Z5.000
G1 X114.321 Y134.054 Z5.000
G1 X114.574 Y133.842 Z5.000
G1 X114.773 Y133.283 Z5.000
G1 X115.084 Y131.587 Z5.000
G1 X115.394 Y129.891 Z5.000
G1 X115.594 Y129.332 Z5.000
G1 X115.847 Y129.12 Z5.000
G1 X116.099 Y129.332 Z5.000
G1 X116.299 Y129.891 Z5.000
G1 X116.608 Y131.587 Z5.000
G1 X116.917 Y133.283 Z5.000
G1 X117.116 Y133.842 Z5.000
G1 X117.369 Y134.054 Z5.000
G1 X117.622 Y133.842 Z5.000
G1 X117.822 Y133.283 Z5.000
G1 X118.132 Y131.587 Z5.000
G1 X118.442 Y129.891 Z5.000
G1 X118.642 Y129.332 Z5.000
G1 X118.895 Y129.12 Z5.000
G1 X119.148 Y129.332 Z5.000
G1 X119.347 Y129.891 Z5.000
G1 X119.656 Y131.587 Z5.000
G1 X119.965 Y133.283 Z5.000
G1 X120.165 Y133.842 Z5.000
G1 X120.417 Y134.054 Z5.000
G1 X120.67 Y133.842 Z5.000
G1 X120.869 Y133.283 Z5.000
G1 X121.179 Y131.587 Z5.000
G1 X121.489 Y129.891 Z5.000
G1 X121.689 Y129.332 Z5.000
G1 X121.943 Y129.12 Z5.000
G1 X122.197 Y129.332 Z5.000
G1 X122.397 Y129.891 Z5.000
G1 X122.706 Y131.587 Z5.000
G1 X123.014 Y133.283 Z5.000
G1 X123.213 Y133.842 Z5.000
G1 X123.466 Y134.054 Z5.000
G1 X123.718 Y133.842 Z5.000
G1 X123.918 Y133.283 Z5.000
G1 X124.227 Y131.587 Z5.000
G1 X124.537 Y129.891 Z5.000
G1 X124.738 Y129.332 Z5.000
G1 X124.991 Y129.12 Z5.000
G1 X125.245 Y129.332 Z5.000
G1 X125.445 Y129.891 Z5.000
G1 X125.754 Y131.587 Z5.000
G1 X126.062 Y133.283 Z5.000
G1 X126.261 Y133.842 Z5.000
G1 X126.514 Y134.054 Z5.000
G1 X126.766 Y133.842 Z5.000
G1 X126.966 Y133.283 Z5.000
G1 X127.275 Y131.587 Z5.000
G1 X127.586 Y129.891 Z5.000
G1 X127.786 Y129.332 Z5.000
G1 X128.04 Y129.12 Z5.000
G1 X128.293 Y129.332 Z5.000
G1 X128.493 Y129.891 Z5.000
G1 X128.802 Y131.587 Z5.000
G1 X129.111 Y133.283 Z5.000
G1 X129.309 Y133.842 Z5.000
G1 X129.562 Y134.054 Z5.000
G1 X129.815 Y133.842 Z5.000
G1 X130.014 Y133.283 Z5.000
G1 X130.324 Y131.587 Z5.000
G1 X130.634 Y129.891 Z5.000
G1 X130.834 Y129.332 Z5.000
G1 X131.088 Y129.12 Z5.000
G1 X131.342 Y129.332 Z5.000
G1 X131.541 Y129.891 Z5.000
G1 X131.85 Y131.587 Z5.000
G1 X132.159 Y133.283 Z5.000
G1 X132.358 Y133.842 Z5.000
G1 X132.61 Y134.054 Z5.000
G1 X132.863 Y133.842 Z5.000
G1 X133.062 Y133.283 Z5.000
G1 X133.371 Y131.587 Z5.000
G1 X133.681 Y129.891 Z5.000
G1 X133.88 Y129.332 Z5.000
G1 X134.133 Y129.12 Z5.000
G1 X134.385 Y129.332 Z5.000
G1 X134.584 Y129.891 Z5.000
G1 X134.894 Y131.587 Z5.000
G1 X135.203 Y133.283 Z5.000
G1 X135.402 Y133.842 Z5.000
G1 X135.655 Y134.054 Z5.000
G1 X135.908 Y133.842 Z5.000
G1 X136.107 Y133.283 Z5.000
G1 X136.416 Y131.587 Z5.000
G1 X136.725 Y129.891 Z5.000
G1 X136.924 Y129.332 Z5.000
G1 X137.177 Y129.12 Z5.000
G1 X137.43 Y129.332 Z5.000
G1 X137.629 Y129.891 Z5.000
G1 X137.938 Y131.587 Z5.000
G1 X138.248 Y133.283 Z5.000
G1 X138.447 Y133.842 Z5.000
G1 X138.7 Y134.054 Z5.000
G1 X138.952 Y133.842 Z5.000
G1 X139.152 Y133.283 Z5.000
G1 X139.461 Y131.587 Z5.000
G1 X139.77 Y129.891 Z5.000
G1 X139.969 Y129.332 Z5.000
G1 X140.222 Y129.12 Z5.000
G1 X140.475 Y129.332 Z5.000
G1 X140.674 Y129.891 Z5.000
G1 X140.985 Y131.587 Z5.000
G1 X141.295 Y133.283 Z5.000
G1 X141.495 Y133.842 Z5.000
G1 X141.748 Y134.054 Z5.000
G1 X142.001 Y133.842 Z5.000
G1 X142.2 Y133.283 Z5.000
G1 X142.509 Y131.587 Z5.000
G1 X142.818 Y129.891 Z5.000
G1 X143.017 Y129.332 Z5.000
G1 X143.27 Y129.12 Z5.000
G1 X143.523 Y129.332 Z5.000
G1 X143.722 Y129.891 Z5.000
G1 X144.031 Y131.587 Z5.000
G1 X144.341 Y133.283 Z5.000
G1 X144.54 Y133.842 Z5.000
G1 X144.792 Y134.054 Z5.000
G1 X145.045 Y133.842 Z5.000
G1 X145.245 Y133.283 Z5.000
G1 X145.555 Y131.587 Z5.000
G1 X145.866 Y129.891 Z5.000
G1 X146.065 Y129.332 Z5.000
G1 X146.318 Y129.12 Z5.000
G1 X146.571 Y129.332 Z5.000
G1 X146.77 Y129.891 Z5.000
G1 X147.08 Y131.587 Z5.000
G1 X147.389 Y133.283 Z5.000
G1 X147.588 Y133.842 Z5.000
G1 X147.841 Y134.054 Z5.000
G1 X148.093 Y133.842 Z5.000
G1 X148.293 Y133.283 Z5.000
G1 X148.602 Y131.587 Z5.000
G1 X148.913 Y129.891 Z5.000
G1 X149.113 Y129.332 Z5.000
G1 X149.367 Y129.12 Z5.000
G1 X149.62 Y129.332 Z5.000
G1 X149.82 Y129.891 Z5.000
G1 X150.129 Y131.587 Z5.000
G1 X150.437 Y133.283 Z5.000
G1 X150.636 Y133.842 Z5.000
G1 X150.889 Y134.054 Z5.000
G1 X151.142 Y133.842 Z5.000
G1 X151.341 Y133.283 Z5.000
G1 X151.65 Y131.587 Z5.000
G1 X151.959 Y129.891 Z5.000
G1 X152.159 Y129.332 Z5.000
G1 X152.411 Y129.12 Z5.000
G1 X152.664 Y129.332 Z5.000
G1 X152.864 Y129.891 Z5.000
G1 X153.174 Y131.587 Z5.000
G1 X153.485 Y133.283 Z5.000
G1 X153.684 Y133.842 Z5.000
G1 X153.937 Y134.054 Z5.000
G1 X154.19 Y133.842 Z5.000
G1 X154.389 Y133.283 Z5.000
G1 X154.698 Y131.587 Z5.000
G1 X155.008 Y129.891 Z5.000
G1 X155.207 Y129.332 Z5.000
G1 X155.459 Y129.12 Z5.000
G1 X155.712 Y129.332 Z5.000
G1 X155.912 Y129.891 Z5.000
G1 X156.222 Y131.587 Z5.000
G1 X156.533 Y133.283 Z5.000
G1 X156.732 Y133.842 Z5.000
G1 X156.985 Y134.054 Z5.000
G1 X157.238 Y133.842 Z5.000
G1 X157.437 Y133.283 Z5.000
G1 X157.747 Y131.587 Z5.000
G1 X158.056 Y129.891 Z5.000
G1 X158.255 Y129.332 Z5.000
G1 X158.508 Y129.12 Z5.000
G1 X158.761 Y129.332 Z5.000
G1 X158.96 Y129.891 Z5.000
G1 X159.271 Y131.587 Z5.000
G1 X159.581 Y133.283 Z5.000
G1 X159.781 Y133.842 Z5.000
G1 X160.034 Y134.054 Z5.000
G1 X160.286 Y133.842 Z5.000
G1 X160.486 Y133.283 Z5.000
G1 X160.795 Y131.587 Z5.000
G1 X161.104 Y129.891 Z5.000
G1 X161.303 Y129.332 Z5.000
G1 X161.556 Y129.12 Z5.000
G1 X161.809 Y129.332 Z5.000
G1 X162.008 Y129.891 Z5.000
G1 X162.319 Y131.587 Z5.000
G1 X162.629 Y133.283 Z5.000
G1 X162.829 Y133.842 Z5.000
G1 X163.082 Y134.054 Z5.000
G1 X163.335 Y133.842 Z5.000
G1 X163.534 Y133.283 Z5.000
G1 X163.843 Y131.587 Z5.000
G1 X164.154 Y129.891 Z5.000
G1 X164.354 Y129.332 Z5.000
G1 X164.608 Y129.12 Z5.000
G1 X164.861 Y129.332 Z5.000
G1 X165.061 Y129.891 Z5.000
G1 X165.37 Y131.587 Z5.000
G1 X165.679 Y133.283 Z5.000
G1 X165.877 Y133.842 Z5.000
G1 X166.13 Y134.054 Z5.000
G1 X166.383 Y133.842 Z5.000
G1 X166.582 Y133.283 Z5.000
G1 X166.893 Y131.587 Z5.000
G1 X167.203 Y129.891 Z5.000
G1 X167.403 Y129.332 Z5.000
G1 X167.656 Y129.12 Z5.000
G1 X167.909 Y129.332 Z5.000
G1 X168.108 Y129.891 Z5.000
G1 X168.417 Y131.587 Z5.000
G1 X168.728 Y133.283 Z5.000
G1 X168.928 Y133.842 Z5.000
G1 X169.182 Y134.054 Z5.000
G1 X169.435 Y133.842 Z5.000
G1 X169.635 Y133.283 Z5.000
G1 X169.944 Y131.587 Z5.000
G1 X170.253 Y129.891 Z5.000
G1 X170.451 Y129.332 Z5.000
G1 X170.704 Y129.12 Z5.000
G1 X170.957 Y129.332 Z5.000
G1 X171.157 Y129.891 Z5.000
G1 X171.467 Y131.587 Z5.000
G1 X171.777 Y133.283 Z5.000
G1 X171.977 Y133.842 Z5.000
G1 X172.23 Y134.054 Z5.000
G1 X172.483 Y133.842 Z5.000
G1 X172.682 Y133.283 Z5.000
G1 X172.992 Y131.587 Z5.000
G1 X173.302 Y129.891 Z5.000
G1 X173.502 Y129.332 Z5.000
G1 X173.756 Y129.12 Z5.000
G1 X174.01 Y129.332 Z5.000
G1 X174.209 Y129.891 Z5.000
G1 X174.519 Y131.587 Z5.000
G1 X174.828 Y133.283 Z5.000
G1 X175.028 Y133.842 Z5.000
G1 X175.282 Y134.054 Z5.000
G1 X175.535 Y133.842 Z5.000
G1 X175.735 Y133.283 Z5.000
G1 X176.044 Y131.587 Z5.000
G1 X176.353 Y129.891 Z5.000
G1 X176.551 Y129.332 Z5.000
G1 X176.804 Y129.12 Z5.000
G1 X177.057 Y129.332 Z5.000
G1 X177.257 Y129.891 Z5.000
G1 X177.567 Y131.587 Z5.000
G1 X177.877 Y133.283 Z5.000
G1 X178.077 Y133.842 Z5.000
G1 X178.33 Y134.054 Z5.000
G1 X178.583 Y133.842 Z5.000
G1 X178.782 Y133.283 Z5.000
G1 X179.093 Y131.587 Z5.000
G1 X179.403 Y129.891 Z5.000
G1 X179.603 Y129.332 Z5.000
G1 X179.856 Y129.12 Z5.000
G1 X180.109 Y129.332 Z5.000
G1 X180.308 Y129.891 Z5.000
G1 X180.619 Y131.587 Z5.000
G1 X180.929 Y133.283 Z5.000
G1 X181.129 Y133.842 Z5.000
G1 X181.382 Y134.054 Z5.000
G1 X181.634 Y133.842 Z5.000
G1 X181.834 Y133.283 Z5.000
G1 X182.143 Y131.587 Z5.000
G1 X182.453 Y129.891 Z5.000
G1 X182.654 Y129.332 Z5.000
G1 X182.908 Y129.12 Z5.000
G1 X183.161 Y129.332 Z5.000
G1 X183.361 Y129.891 Z5.000
G1 X183.67 Y131.587 Z5.000
G1 X183.978 Y133.283 Z5.000
G1 X184.177 Y133.842 Z5.000
G1 X184.43 Y134.054 Z5.000
G1 X184.683 Y133.842 Z5.000
G1 X184.882 Y133.283 Z5.000
G1 X185.193 Y131.587 Z5.000
G1 X185.503 Y129.891 Z5.000
G1 X185.703 Y129.332 Z5.000
G1 X185.956 Y129.12 Z5.000
G1 X186.208 Y129.332 Z5.000
G1 X186.408 Y129.891 Z5.000
G1 X186.717 Y131.587 Z5.000
G1 X187.028 Y133.283 Z5.000
G1 X187.228 Y133.842 Z5.000
G1 X187.482 Y134.054 Z5.000
G1 X187.735 Y133.842 Z5.000
G1 X187.935 Y133.283 Z5.000
G1 X188.244 Y131.587 Z5.000
G1 X188.552 Y129.891 Z5.000
G1 X188.751 Y129.332 Z5.000
G1 X189.004 Y129.12 Z5.000
G1 X189.257 Y129.332 Z5.000
G1 X189.456 Y129.891 Z5.000
G1 X189.767 Y131.587 Z5.000
G1 X190.077 Y133.283 Z5.000
G1 X190.277 Y133.842 Z5.000
G1 X190.53 Y134.054 Z5.000
G1 X190.783 Y133.842 Z5.000
G1 X190.982 Y133.283 Z5.000
G1 X191.293 Y131.587 Z5.000
G1 X191.603 Y129.891 Z5.000
G1 X191.803 Y129.332 Z5.000
G1 X192.056 Y129.12 Z5.000
G1 X192.309 Y129.332 Z5.000
G1 X192.508 Y129.891 Z5.000
G1 X192.819 Y131.587 Z5.000
G1 X193.129 Y133.283 Z5.000
G1 X193.329 Y133.842 Z5.000
G1 X193.582 Y134.054 Z5.000
G1 X193.834 Y133.842 Z5.000
G1 X194.034 Y133.283 Z5.000
G1 X194.345 Y131.587 Z5.000
G1 X194.655 Y129.891 Z5.000
G1 X194.855 Y129.332 Z5.000
G1 X195.107 Y129.12 Z5.000
G1 X195.36 Y129.332 Z5.000
G1 X195.56 Y129.891 Z5.000
G1 X195.87 Y131.587 Z5.000
G1 X196.181 Y133.283 Z5.000
G1 X196.38 Y133.842 Z5.000
G1 X196.633 Y134.054 Z5.000
G1 X196.886 Y133.842 Z5.000
G1 X197.086 Y133.283 Z5.000
G1 X197.397 Y131.587 Z5.000
G1 X197.708 Y129.891 Z5.000
G1 X197.909 Y129.332 Z5.000
G1 X198.163 Y129.12 Z5.000
G1 X198.416 Y129.332 Z5.000
G1 X198.616 Y129.891 Z5.000
G1 X198.926 Y131.587 Z5.000
G1 X199.235 Y133.283 Z5.000
G1 X199.435 Y133.842 Z5.000
G1 X199.689 Y134.054 Z5.000
G1 X199.943 Y133.842 Z5.000
G1 X200.143 Y133.283 Z5.000
G1 X200.453 Y131.587 Z5.000
G1 X200.764 Y129.891 Z5.000
G1 X200.964 Y129.332 Z5.000
G1 X201.218 Y129.12 Z0.000
G1 Z8

G1 X201.218 Y127.763 Z0.000
G1 Z0

G1 X200.964 Y127.975 Z5.000
G1 X200.764 Y128.534 Z5.000
G1 X200.453 Y130.23 Z5.000
G1 X200.143 Y131.926 Z5.000
G1 X199.943 Y132.485 Z5.000
G1 X199.689 Y132.697 Z5.000
G1 X199.435 Y132.485 Z5.000
G1 X199.235 Y131.926 Z5.000
G1 X198.926 Y130.23 Z5.000
G1 X198.616 Y128.534 Z5.000
G1 X198.416 Y127.975 Z5.000
G1 X198.163 Y127.763 Z5.000
G1 X197.909 Y127.975 Z5.000
G1 X197.708 Y128.534 Z5.000
G1 X197.397 Y130.23 Z5.000
G1 X197.086 Y131.926 Z5.000
G1 X196.886 Y132.485 Z5.000
G1 X196.633 Y132.697 Z5.000
G1 X196.38 Y132.485 Z5.000
G1 X196.181 Y131.926 Z5.000
G1 X195.87 Y130.23 Z5.000
G1 X195.56 Y128.534 Z5.000
G1 X195.36 Y127.975 Z5.000
G1 X195.107 Y127.763 Z5.000
G1 X194.855 Y127.975 Z5.000
G1 X194.655 Y128.534 Z5.000
G1 X194.345 Y130.23 Z5.000
G1 X194.034 Y131.926 Z5.000
G1 X193.834 Y132.485 Z5.000
G1 X193.582 Y132.697 Z5.000
G1 X193.329 Y132.485 Z5.000
G1 X193.129 Y131.926 Z5.000
G1 X192.819 Y130.23 Z5.000
G1 X192.508 Y128.534 Z5.000
G1 X192.309 Y127.975 Z5.000
G1 X192.056 Y127.763 Z5.000
G1 X191.803 Y127.975 Z5.000
G1 X191.603 Y128.534 Z5.000
G1 X191.293 Y130.23 Z5.000
G1 X190.982 Y131.926 Z5.000
G1 X190.783 Y132.485 Z5.000
G1 X190.53 Y132.697 Z5.000
G1 X190.277 Y132.485 Z5.000
G1 X190.077 Y131.926 Z5.000
G1 X189.767 Y130.23 Z5.000
G1 X189.456 Y128.534 Z5.000
G1 X189.257 Y127.975 Z5.000
G1 X189.004 Y127.763 Z5.000
G1 X188.751 Y127.975 Z5.000
G1 X188.552 Y128.534 Z5.000
G1 X188.244 Y130.23 Z5.000
G1 X187.935 Y131.926 Z5.000
G1 X187.735 Y132.485 Z5.000
G1 X187.482 Y132.697 Z5.000
G1 X187.228 Y132.485 Z5.000
G1 X187.028 Y131.926 Z5.000
G1 X186.717 Y130.23 Z5.000
G1 X186.408 Y128.534 Z5.000
G1 X186.208 Y127.975 Z5.000
G1 X185.956 Y127.763 Z5.000
G1 X185.703 Y127.975 Z5.000
G1 X185.503 Y128.534 Z5.000
G1 X185.193 Y130.23 Z5.000
G1 X184.882 Y131.926 Z5.000
G1 X184.683 Y132.485 Z5.000
G1 X184.43 Y132.697 Z5.000
G1 X184.177 Y132.485 Z5.000
G1 X183.978 Y131.926 Z5.000
G1 X183.67 Y130.23 Z5.000
G1 X183.361 Y128.534 Z5.000
G1 X183.161 Y127.975 Z5.000
G1 X182.908 Y127.763 Z5.000
G1 X182.654 Y127.975 Z5.000
G1 X182.453 Y128.534 Z5.000
G1 X182.143 Y130.23 Z5.000
G1 X181.834 Y131.926 Z5.000
G1 X181.634 Y132.485 Z5.000
G1 X181.382 Y132.697 Z5.000
G1 X181.129 Y132.485 Z5.000
G1 X180.929 Y131.926 Z5.000
G1 X180.619 Y130.23 Z5.000
G1 X180.308 Y128.534 Z5.000
G1 X180.109 Y127.975 Z5.000
G1 X179.856 Y127.763 Z5.000
G1 X179.603 Y127.975 Z5.000
G1 X179.403 Y128.534 Z5.000
G1 X179.093 Y130.23 Z5.000
G1 X178.782 Y131.926 Z5.000
G1 X178.583 Y132.485 Z5.000
G1 X178.33 Y132.697 Z5.000
G1 X178.077 Y132.485 Z5.000
G1 X177.877 Y131.926 Z5.000
G1 X177.567 Y130.23 Z5.000
G1 X177.257 Y128.534 Z5.000
G1 X177.057 Y127.975 Z5.000
G1 X176.804 Y127.763 Z5.000
G1 X176.551 Y127.975 Z5.000
G1 X176.353 Y128.534 Z5.000
G1 X176.044 Y130.23 Z5.000
G1 X175.735 Y131.926 Z5.000
G1 X175.535 Y132.485 Z5.000
G1 X175.282 Y132.697 Z5.000
G1 X175.028 Y132.485 Z5.000
G1 X174.828 Y131.926 Z5.000
G1 X174.519 Y130.23 Z5.000
G1 X174.209 Y128.534 Z5.000
G1 X174.01 Y127.975 Z5.000
G1 X173.756 Y127.763 Z5.000
G1 X173.502 Y127.975 Z5.000
G1 X173.302 Y128.534 Z5.000
G1 X172.992 Y130.23 Z5.000
G1 X172.682 Y131.926 Z5.000
G1 X172.483 Y132.485 Z5.000
G1 X172.23 Y132.697 Z5.000
G1 X171.977 Y132.485 Z5.000
G1 X171.777 Y131.926 Z5.000
G1 X171.467 Y130.23 Z5.000
G1 X171.157 Y128.534 Z5.000
G1 X170.957 Y127.975 Z5.000
G1 X170.704 Y127.763 Z5.000
G1 X170.451 Y127.975 Z5.000
G1 X170.253 Y128.534 Z5.000
G1 X169.944 Y130.23 Z5.000
G1 X169.635 Y131.926 Z5.000
G1 X169.435 Y132.485 Z5.000
G1 X169.182 Y132.697 Z5.000
G1 X168.928 Y132.485 Z5.000
G1 X168.728 Y131.926 Z5.000
G1 X168.417 Y130.23 Z5.000
G1 X168.108 Y128.534 Z5.000
G1 X167.909 Y127.975 Z5.000
G1 X167.656 Y127.763 Z5.000
G1 X167.403 Y127.975 Z5.000
G1 X167.203 Y128.534 Z5.000
G1 X166.893 Y130.23 Z5.000
G1 X166.582 Y131.926 Z5.000
G1 X166.383 Y132.485 Z5.000
G1 X166.13 Y132.697 Z5.000
G1 X165.877 Y132.485 Z5.000
G1 X165.679 Y131.926 Z5.000
G1 X165.37 Y130.23 Z5.000
G1 X165.061 Y128.534 Z5.000
G1 X164.861 Y127.975 Z5.000
G1 X164.608 Y127.763 Z5.000
G1 X164.354 Y127.975 Z5.000
G1 X164.154 Y128.534 Z5.000
G1 X163.843 Y130.23 Z5.000
G1 X163.534 Y131.926 Z5.000
G1 X163.335 Y132.485 Z5.000
G1 X163.082 Y132.697 Z5.000
G1 X162.829 Y132.485 Z5.000
G1 X162.629 Y131.926 Z5.000
G1 X162.319 Y130.23 Z5.000
G1 X162.008 Y128.534 Z5.000
G1 X161.809 Y127.975 Z5.000
G1 X161.556 Y127.763 Z5.000
G1 X161.303 Y127.975 Z5.000
G1 X161.104 Y128.534 Z5.000
G1 X160.795 Y130.23 Z5.000
G1 X160.486 Y131.926 Z5.000
G1 X160.286 Y132.485 Z5.000
G1 X160.034 Y132.697 Z5.000
G1 X159.781 Y132.485 Z5.000
G1 X159.581 Y131.926 Z5.000
G1 X159.271 Y130.23 Z5.000
G1 X158.96 Y128.534 Z5.000
G1 X158.761 Y127.975 Z5.000
G1 X158.508 Y127.763 Z5.000
G1 X158.255 Y127.975 Z5.000
G1 X158.056 Y128.534 Z5.000
G1 X157.747 Y130.23 Z5.000
G1 X157.437 Y131.926 Z5.000
G1 X157.238 Y132.485 Z5.000
G1 X156.985 Y132.697 Z5.000
G1 X156.732 Y132.485 Z5.000
G1 X156.533 Y131.926 Z5.000
G1 X156.222 Y130.23 Z5.000
G1 X155.912 Y128.534 Z5.000
G1 X155.712 Y127.975 Z5.000
G1 X155.459 Y127.763 Z5.000
G1 X155.207 Y127.975 Z5.000
G1 X155.008 Y128.534 Z5.000
G1 X154.698 Y130.23 Z5.000
G1 X154.389 Y131.926 Z5.000
G1 X154.19 Y132.485 Z5.000
G1 X153.937 Y132.697 Z5.000
G1 X153.684 Y132.485 Z5.000
G1 X153.485 Y131.926 Z5.000
G1 X153.174 Y130.23 Z5.000
G1 X152.864 Y128.534 Z5.000
G1 X152.664 Y127.975 Z5.000
G1 X152.411 Y127.763 Z5.000
G1 X152.159 Y127.975 Z5.000
G1 X151.959 Y128.534 Z5.000
G1 X151.65 Y130.23 Z5.000
G1 X151.341 Y131.926 Z5.000
G1 X151.142 Y132.485 Z5.000
G1 X150.889 Y132.697 Z5.000
G1 X150.636 Y132.485 Z5.000
G1 X150.437 Y131.926 Z5.000
G1 X150.129 Y130.23 Z5.000
G1 X149.82 Y128.534 Z5.000
G1 X149.62 Y127.975 Z5.000
G1 X149.367 Y127.763 Z5.000
G1 X149.113 Y127.975 Z5.000
G1 X148.913 Y128.534 Z5.000
G1 X148.602 Y130.23 Z5.000
G1 X148.293 Y131.926 Z5.000
G1 X148.093 Y132.485 Z5.000
G1 X147.841 Y132.697 Z5.000
G1 X147.588 Y132.485 Z5.000
G1 X147.389 Y131.926 Z5.000
G1 X147.08 Y130.23 Z5.000
G1 X146.77 Y128.534 Z5.000
G1 X146.571 Y127.975 Z5.000
G1 X146.318 Y127.763 Z5.000
G1 X146.065 Y127.975 Z5.000
G1 X145.866 Y128.534 Z5.000
G1 X145.555 Y130.23 Z5.000
G1 X145.245 Y131.926 Z5.000
G1 X145.045 Y132.485 Z5.000
G1 X144.792 Y132.697 Z5.000
G1 X144.54 Y132.485 Z5.000
G1 X144.341 Y131.926 Z5.000
G1 X144.031 Y130.23 Z5.000
G1 X143.722 Y128.534 Z5.000
G1 X143.523 Y127.975 Z5.000
G1 X143.27 Y127.763 Z5.000
G1 X143.017 Y127.975 Z5.000
G1 X142.818 Y128.534 Z5.000
G1 X142.509 Y130.23 Z5.000
G1 X142.2 Y131.926 Z5.000
G1 X142.001 Y132.485 Z5.000
G1 X141.748 Y132.697 Z5.000
G1 X141.495 Y132.485 Z5.000
G1 X141.295 Y131.926 Z5.000
G1 X140.985 Y130.23 Z5.000
G1 X140.674 Y128.534 Z5.000
G1 X140.475 Y127.975 Z5.000
G1 X140.222 Y127.763 Z5.000
G1 X139.969 Y127.975 Z5.000
G1 X139.77 Y128.534 Z5.000
G1 X139.461 Y130.23 Z5.000
G1 X139.152 Y131.926 Z5.000
G1 X138.952 Y132.485 Z5.000
G1 X138.7 Y132.697 Z5.000
G1 X138.447 Y132.485 Z5.000
G1 X138.248 Y131.926 Z5.000
G1 X137.938 Y130.23 Z5.000
G1 X137.629 Y128.534 Z5.000
G1 X137.43 Y127.975 Z5.000
G1 X137.177 Y127.763 Z5.000
G1 X136.924 Y127.975 Z5.000
G1 X136.725 Y128.534 Z5.000
G1 X136.416 Y130.23 Z5.000
G1 X136.107 Y131.926 Z5.000
G1 X135.908 Y132.485 Z5.000
G1 X135.655 Y132.697 Z5.000
G1 X135.402 Y132.485 Z5.000
G1 X135.203 Y131.926 Z5.000
G1 X134.894 Y130.23 Z5.000
G1 X134.584 Y128.534 Z5.000
G1 X134.385 Y127.975 Z5.000
G1 X134.133 Y127.763 Z5.000
G1 X133.88 Y127.975 Z5.000
G1 X133.681 Y128.534 Z5.000
G1 X133.371 Y130.23 Z5.000
G1 X133.062 Y131.926 Z5.000
G1 X132.863 Y132.485 Z5.000
G1 X132.61 Y132.697 Z5.000
G1 X132.358 Y132.485 Z5.000
G1 X132.159 Y131.926 Z5.000
G1 X131.85 Y130.23 Z5.000
G1 X131.541 Y128.534 Z5.000
G1 X131.342 Y127.975 Z5.000
G1 X131.088 Y127.763 Z5.000
G1 X130.834 Y127.975 Z5.000
G1 X130.634 Y128.534 Z5.000
G1 X130.324 Y130.23 Z5.000
G1 X130.014 Y131.926 Z5.000
G1 X129.815 Y132.485 Z5.000
G1 X129.562 Y132.697 Z5.000
G1 X129.309 Y132.485 Z5.000
G1 X129.111 Y131.926 Z5.000
G1 X128.802 Y130.23 Z5.000
G1 X128.493 Y128.534 Z5.000
G1 X128.293 Y127.975 Z5.000
G1 X128.04 Y127.763 Z5.000
G1 X127.786 Y127.975 Z5.000
G1 X127.586 Y128.534 Z5.000
G1 X127.275 Y130.23 Z5.000
G1 X126.966 Y131.926 Z5.000
G1 X126.766 Y132.485 Z5.000
G1 X126.514 Y132.697 Z5.000
G1 X126.261 Y132.485 Z5.000
G1 X126.062 Y131.926 Z5.000
G1 X125.754 Y130.23 Z5.000
G1 X125.445 Y128.534 Z5.000
G1 X125.245 Y127.975 Z5.000
G1 X124.991 Y127.763 Z5.000
G1 X124.738 Y127.975 Z5.000
G1 X124.537 Y128.534 Z5.000
G1 X124.227 Y130.23 Z5.000
G1 X123.918 Y131.926 Z5.000
G1 X123.718 Y132.485 Z5.000
G1 X123.466 Y132.697 Z5.000
G1 X123.213 Y132.485 Z5.000
G1 X123.014 Y131.926 Z5.000
G1 X122.706 Y130.23 Z5.000
G1 X122.397 Y128.534 Z5.000
G1 X122.197 Y127.975 Z5.000
G1 X121.943 Y127.763 Z5.000
G1 X121.689 Y127.975 Z5.000
G1 X121.489 Y128.534 Z5.000
G1 X121.179 Y130.23 Z5.000
G1 X120.869 Y131.926 Z5.000
G1 X120.67 Y132.485 Z5.000
G1 X120.417 Y132.697 Z5.000
G1 X120.165 Y132.485 Z5.000
G1 X119.965 Y131.926 Z5.000
G1 X119.656 Y130.23 Z5.000
G1 X119.347 Y128.534 Z5.000
G1 X119.148 Y127.975 Z5.000
G1 X118.895 Y127.763 Z5.000
G1 X118.642 Y127.975 Z5.000
G1 X118.442 Y128.534 Z5.000
G1 X118.132 Y130.23 Z5.000
G1 X117.822 Y131.926 Z5.000
G1 X117.622 Y132.485 Z5.000
G1 X117.369 Y132.697 Z5.000
G1 X117.116 Y132.485 Z5.000
G1 X116.917 Y131.926 Z5.000
G1 X116.608 Y130.23 Z5.000
G1 X116.299 Y128.534 Z5.000
G1 X116.099 Y127.975 Z5.000
G1 X115.847 Y127.763 Z5.000
G1 X115.594 Y127.975 Z5.000
G1 X115.394 Y128.534 Z5.000
G1 X115.084 Y130.23 Z5.000
G1 X114.773 Y131.926 Z5.000
G1 X114.574 Y132.485 Z5.000
G1 X114.321 Y132.697 Z5.000
G1 X114.068 Y132.485 Z5.000
G1 X113.869 Y131.926 Z5.000
G1 X113.56 Y130.23 Z5.000
G1 X113.25 Y128.534 Z5.000
G1 X113.051 Y127.975 Z5.000
G1 X112.799 Y127.763 Z5.000
G1 X112.546 Y127.975 Z5.000
G1 X112.346 Y128.534 Z5.000
G1 X112.036 Y130.23 Z5.000
G1 X111.725 Y131.926 Z5.000
G1 X111.526 Y132.485 Z5.000
G1 X111.273 Y132.697 Z5.000
G1 X111.02 Y132.485 Z5.000
G1 X110.821 Y131.926 Z5.000
G1 X110.511 Y130.23 Z5.000
G1 X110.202 Y128.534 Z5.000
G1 X110.003 Y127.975 Z5.000
G1 X109.75 Y127.763 Z5.000
G1 X109.498 Y127.975 Z5.000
G1 X109.298 Y128.534 Z5.000
G1 X108.989 Y130.23 Z5.000
G1 X108.68 Y131.926 Z5.000
G1 X108.481 Y132.485 Z5.000
G1 X108.228 Y132.697 Z5.000
G1 X107.975 Y132.485 Z5.000
G1 X107.775 Y131.926 Z5.000
G1 X107.465 Y130.23 Z5.000
G1 X107.155 Y128.534 Z5.000
G1 X106.955 Y127.975 Z5.000
G1 X106.702 Y127.763 Z5.000
G1 X106.449 Y127.975 Z5.000
G1 X106.25 Y128.534 Z5.000
G1 X105.941 Y130.23 Z5.000
G1 X105.632 Y131.926 Z5.000
G1 X105.432 Y132.485 Z5.000
G1 X105.18 Y132.697 Z5.000
G1 X104.927 Y132.485 Z5.000
G1 X104.727 Y131.926 Z5.000
G1 X104.417 Y130.23 Z5.000
G1 X104.106 Y128.534 Z5.000
G1 X103.907 Y127.975 Z5.000
G1 X103.654 Y127.763 Z5.000
G1 X103.401 Y127.975 Z5.000
G1 X103.202 Y128.534 Z5.000
G1 X102.893 Y130.23 Z5.000
G1 X102.583 Y131.926 Z5.000
G1 X102.384 Y132.485 Z5.000
G1 X102.132 Y132.697 Z5.000
G1 X101.879 Y132.485 Z5.000
G1 X101.68 Y131.926 Z5.000
G1 X101.372 Y130.23 Z5.000
G1 X101.063 Y128.534 Z5.000
G1 X100.863 Y127.975 Z5.000
G1 X100.609 Y127.763 Z5.000
G1 X100.355 Y127.975 Z5.000
G1 X100.155 Y128.534 Z5.000
G1 X99.845 Y130.23 Z5.000
G1 X99.535 Y131.926 Z5.000
G1 X99.336 Y132.485 Z5.000
G1 X99.083 Y132.697 Z5.000
G1 X98.831 Y132.485 Z5.000
G1 X98.631 Y131.926 Z5.000
G1 X98.322 Y130.23 Z5.000
G1 X98.013 Y128.534 Z5.000
G1 X97.814 Y127.975 Z5.000
G1 X97.561 Y127.763 Z5.000
G1 X97.308 Y127.975 Z5.000
G1 X97.11 Y128.534 Z5.000
G1 X96.801 Y130.23 Z5.000
G1 X96.492 Y131.926 Z5.000
G1 X96.292 Y132.485 Z5.000
G1 X96.039 Y132.697 Z5.000
G1 X95.785 Y132.485 Z5.000
G1 X95.585 Y131.926 Z5.000
G1 X95.274 Y130.23 Z5.000
G1 X94.965 Y128.534 Z5.000
G1 X94.766 Y127.975 Z5.000
G1 X94.513 Y127.763 Z5.000
G1 X94.26 Y127.975 Z5.000
G1 X94.061 Y128.534 Z5.000
G1 X93.753 Y130.23 Z5.000
G1 X93.444 Y131.926 Z5.000
G1 X93.244 Y132.485 Z5.000
G1 X92.99 Y132.697 Z5.000
G1 X92.737 Y132.485 Z5.000
G1 X92.536 Y131.926 Z5.000
G1 X92.226 Y130.23 Z5.000
G1 X91.917 Y128.534 Z5.000
G1 X91.717 Y127.975 Z5.000
G1 X91.465 Y127.763 Z5.000
G1 X91.212 Y127.975 Z5.000
G1 X91.013 Y128.534 Z5.000
G1 X90.703 Y130.23 Z5.000
G1 X90.394 Y131.926 Z5.000
G1 X90.195 Y132.485 Z5.000
G1 X89.942 Y132.697 Z5.000
G1 X89.689 Y132.485 Z5.000
G1 X89.49 Y131.926 Z5.000
G1 X89.181 Y130.23 Z5.000
G1 X88.872 Y128.534 Z5.000
G1 X88.673 Y127.975 Z5.000
G1 X88.42 Y127.763 Z5.000
G1 X88.167 Y127.975 Z5.000
G1 X87.967 Y128.534 Z5.000
G1 X87.657 Y130.23 Z5.000
G1 X87.346 Y131.926 Z5.000
G1 X87.147 Y132.485 Z5.000
G1 X86.894 Y132.697 Z5.000
G1 X86.641 Y132.485 Z5.000
G1 X86.442 Y131.926 Z5.000
G1 X86.133 Y130.23 Z5.000
G1 X85.824 Y128.534 Z5.000
G1 X85.624 Y127.975 Z5.000
G1 X85.372 Y127.763 Z5.000
G1 X85.119 Y127.975 Z5.000
G1 X84.92 Y128.534 Z5.000
G1 X84.61 Y130.23 Z5.000
G1 X84.301 Y131.926 Z5.000
G1 X84.102 Y132.485 Z5.000
G1 X83.849 Y132.697 Z5.000
G1 X83.597 Y132.485 Z5.000
G1 X83.398 Y131.926 Z5.000
G1 X83.089 Y130.23 Z5.000
G1 X82.78 Y128.534 Z5.000
G1 X82.581 Y127.975 Z5.000
G1 X82.327 Y127.763 Z5.000
G1 X82.073 Y127.975 Z5.000
G1 X81.873 Y128.534 Z5.000
G1 X81.563 Y130.23 Z5.000
G1 X81.253 Y131.926 Z5.000
G1 X81.054 Y132.485 Z5.000
G1 X80.801 Y132.697 Z5.000
G1 X80.548 Y132.485 Z5.000
G1 X80.35 Y131.926 Z5.000
G1 X80.041 Y130.23 Z5.000
G1 X79.732 Y128.534 Z5.000
G1 X79.532 Y127.975 Z5.000
G1 X79.279 Y127.763 Z5.000
G1 X79.025 Y127.975 Z5.000
G1 X78.825 Y128.534 Z5.000
G1 X78.514 Y130.23 Z5.000
G1 X78.205 Y131.926 Z5.000
G1 X78.006 Y132.485 Z5.000
G1 X77.753 Y132.697 Z5.000
G1 X77.5 Y132.485 Z5.000
G1 X77.301 Y131.926 Z5.000
G1 X76.992 Y130.23 Z5.000
G1 X76.682 Y128.534 Z5.000
G1 X76.483 Y127.975 Z5.000
G1 X76.23 Y127.763 Z5.000
G1 X75.978 Y127.975 Z5.000
G1 X75.779 Y128.534 Z5.000
G1 X75.469 Y130.23 Z5.000
G1 X75.16 Y131.926 Z5.000
G1 X74.961 Y132.485 Z5.000
G1 X74.708 Y132.697 Z5.000
G1 X74.455 Y132.485 Z5.000
G1 X74.256 Y131.926 Z5.000
G1 X73.947 Y130.23 Z5.000
G1 X73.638 Y128.534 Z5.000
G1 X73.439 Y127.975 Z5.000
G1 X73.186 Y127.763 Z5.000
G1 X72.933 Y127.975 Z5.000
G1 X72.734 Y128.534 Z5.000
G1 X72.426 Y130.23 Z5.000
G1 X72.117 Y131.926 Z5.000
G1 X71.917 Y132.485 Z5.000
G1 X71.663 Y132.697 Z5.000
G1 X71.41 Y132.485 Z5.000
G1 X71.209 Y131.926 Z5.000
G1 X70.899 Y130.23 Z5.000
G1 X70.59 Y128.534 Z5.000
G1 X70.39 Y127.975 Z5.000
G1 X70.138 Y127.763 Z5.000
G1 X69.885 Y127.975 Z5.000
G1 X69.686 Y128.534 Z5.000
G1 X69.376 Y130.23 Z5.000
G1 X69.067 Y131.926 Z5.000
G1 X68.868 Y132.485 Z5.000
G1 X68.615 Y132.697 Z5.000
G1 X68.363 Y132.485 Z5.000
G1 X68.164 Y131.926 Z5.000
G1 X67.855 Y130.23 Z5.000
G1 X67.546 Y128.534 Z5.000
G1 X67.347 Y127.975 Z5.000
G1 X67.093 Y127.763 Z5.000
G1 X66.839 Y127.975 Z5.000
G1 X66.639 Y128.534 Z5.000
G1 X66.329 Y130.23 Z5.000
G1 X66.019 Y131.926 Z5.000
G1 X65.82 Y132.485 Z5.000
G1 X65.567 Y132.697 Z5.000
G1 X65.314 Y132.485 Z5.000
G1 X65.115 Y131.926 Z5.000
G1 X64.806 Y130.23 Z5.000
G1 X64.497 Y128.534 Z5.000
G1 X64.297 Y127.975 Z5.000
G1 X64.045 Y127.763 Z5.000
G1 X63.792 Y127.975 Z5.000
G1 X63.592 Y128.534 Z5.000
G1 X63.282 Y130.23 Z5.000
G1 X62.971 Y131.926 Z5.000
G1 X62.772 Y132.485 Z5.000
G1 X62.519 Y132.697 Z5.000
G1 X62.266 Y132.485 Z5.000
G1 X62.067 Y131.926 Z5.000
G1 X61.758 Y130.23 Z5.000
G1 X61.448 Y128.534 Z5.000
G1 X61.249 Y127.975 Z5.000
G1 X60.996 Y127.763 Z5.000
G1 X60.744 Y127.975 Z5.000
G1 X60.544 Y128.534 Z5.000
G1 X60.235 Y130.23 Z5.000
G1 X59.926 Y131.926 Z5.000
G1 X59.727 Y132.485 Z5.000
G1 X59.474 Y132.697 Z5.000
G1 X59.221 Y132.485 Z5.000
G1 X59.022 Y131.926 Z5.000
G1 X58.713 Y130.23 Z5.000
G1 X58.404 Y128.534 Z5.000
G1 X58.204 Y127.975 Z5.000
G1 X57.952 Y127.763 Z5.000
G1 X57.699 Y127.975 Z5.000
G1 X57.5 Y128.534 Z5.000
G1 X57.191 Y130.23 Z5.000
G1 X56.881 Y131.926 Z5.000
G1 X56.682 Y132.485 Z5.000
G1 X56.429 Y132.697 Z5.000
G1 X56.177 Y132.485 Z5.000
G1 X55.977 Y131.926 Z5.000
G1 X55.668 Y130.23 Z5.000
G1 X55.359 Y128.534 Z5.000
G1 X55.16 Y127.975 Z5.000
G1 X54.907 Y127.763 Z5.000
G1 X54.654 Y127.975 Z5.000
G1 X54.455 Y128.534 Z5.000
G1 X54.146 Y130.23 Z5.000
G1 X53.837 Y131.926 Z5.000
G1 X53.637 Y132.485 Z5.000
G1 X53.385 Y132.697 Z5.000
G1 X53.132 Y132.485 Z5.000
G1 X52.933 Y131.926 Z5.000
G1 X52.625 Y130.23 Z5.000
G1 X52.316 Y128.534 Z5.000
G1 X52.116 Y127.975 Z5.000
G1 X51.862 Y127.763 Z5.000
G1 X51.608 Y127.975 Z5.000
G1 X51.408 Y128.534 Z5.000
G1 X51.098 Y130.23 Z5.000
G1 X50.788 Y131.926 Z5.000
G1 X50.589 Y132.485 Z5.000
G1 X50.336 Y132.697 Z5.000
G1 X50.084 Y132.485 Z5.000
G1 X49.885 Y131.926 Z5.000
G1 X49.575 Y130.23 Z5.000
G1 X49.266 Y128.534 Z5.000
G1 X49.067 Y127.975 Z5.000
G1 X48.814 Y127.763 Z5.000
G1 X48.561 Y127.975 Z5.000
G1 X48.362 Y128.534 Z5.000
G1 X48.053 Y130.23 Z5.000
G1 X47.742 Y131.926 Z5.000
